; generated by Slic3r 1.0.1 on 2014-08-29 at 14:03:02

; layer_height = 0.25
; perimeters = 2
; top_solid_layers = 2
; bottom_solid_layers = 2
; fill_density = 0.2
; perimeter_speed = 30
; infill_speed = 60
; travel_speed = 130
; nozzle_diameter = 0.35
; filament_diameter = 1.75
; extrusion_multiplier = 1
; perimeters extrusion width = 0.35mm
; infill extrusion width = 0.39mm
; solid infill extrusion width = 0.39mm
; top infill extrusion width = 0.39mm
; first layer extrusion width = 0.70mm

G21 ; set units to millimeters
M107
M84 S0 ; don't let go of motors
M108 S155 ; make sure extruder and electronics fans are running
M140 S70
M104 S210
G28 X0 Y0; home X and Y
G1 F10800 ; set high speed
G1 Y20 ; move into the platform along Y
G1 X205 ; move off the platform end along X
G28 Z0 ; home Z now - blobs won't hit the platform
G1 F400
G1 Z10 ; lift Z a little
M190 S70
M109 S210 ; wait for temperature to be reached
G28 Z0 ; home Z
G92 E0 ; reset extruder position to 0
G1 F300 ; set suitable speed
G1 E25 ; extrude 25mm
G92 E0 ; reset extruder position to 0 - needed for cura/SF
G1 F10800 ; set wipe speed
G1 X0 ; wipe nozzle and move to X0
G90 ; use absolute coordinates
G92 E0
M82 ; use absolute distances for extrusion
G1 F1800.000 E-4.50000
G92 E0
G1 Z0.350 F7800.000
G1 X88.650 Y110.490 F7800.000
G1 E4.50000 F1800.000
G1 X89.790 Y109.880 E4.61757 F540.000
G1 X91.040 Y109.500 E4.73636
G1 X92.330 Y109.380 E4.85417
G1 X107.660 Y109.380 E6.24812
G1 X108.950 Y109.500 E6.36593
G1 X110.200 Y109.880 E6.48472
G1 X111.340 Y110.490 E6.60229
G1 X112.340 Y111.320 E6.72046
G1 X113.170 Y112.320 E6.83863
G1 X113.780 Y113.460 E6.95620
G1 X114.160 Y114.710 E7.07500
G1 X114.280 Y116.000 E7.19280
G1 X114.280 Y124.000 E7.92024
G1 X114.160 Y125.290 E8.03804
G1 X113.780 Y126.540 E8.15684
G1 X113.170 Y127.680 E8.27441
G1 X112.340 Y128.680 E8.39258
G1 X111.340 Y129.510 E8.51075
G1 X110.200 Y130.120 E8.62832
G1 X108.950 Y130.500 E8.74711
G1 X107.660 Y130.620 E8.86492
G1 X92.330 Y130.620 E10.25887
G1 X91.040 Y130.500 E10.37667
G1 X89.790 Y130.120 E10.49547
G1 X88.650 Y129.510 E10.61304
G1 X87.650 Y128.680 E10.73121
G1 X86.820 Y127.680 E10.84938
G1 X86.210 Y126.540 E10.96695
G1 X85.830 Y125.290 E11.08574
G1 X85.710 Y124.000 E11.20355
G1 X85.710 Y116.000 E11.93099
G1 X85.830 Y114.710 E12.04879
G1 X86.210 Y113.460 E12.16759
G1 X86.820 Y112.320 E12.28516
G1 X87.650 Y111.320 E12.40333
G1 X88.578 Y110.550 E12.51297
G1 F1800.000 E8.01297
G92 E0
G1 X92.683 Y122.450 F7800.000
G1 E4.50000 F1800.000
G1 X107.316 Y122.450 E5.83057 F540.000
G1 X107.316 Y123.650 E5.93969
G1 X92.683 Y123.650 E7.27026
G1 X92.683 Y122.544 E7.37085
G1 X93.225 Y122.762 F7800.000
G1 X93.256 Y122.892 F7800.000
G1 X93.571 Y123.208 E7.39034 F360.000
G1 X93.681 Y122.892 E7.40493 F360.000
G1 X93.996 Y123.208 E7.42441 F360.000
G1 X94.106 Y122.892 E7.43901 F360.000
G1 X94.421 Y123.208 E7.45849 F360.000
G1 X94.531 Y122.892 E7.47308 F360.000
G1 X94.846 Y123.208 E7.49257 F360.000
G1 X94.956 Y122.892 E7.50716 F360.000
G1 X95.271 Y123.208 E7.52664 F360.000
G1 X95.381 Y122.892 E7.54123 F360.000
G1 X95.696 Y123.208 E7.56072 F360.000
G1 X95.805 Y122.892 E7.57531 F360.000
G1 X96.121 Y123.208 E7.59480 F360.000
G1 X96.230 Y122.892 E7.60939 F360.000
G1 X96.546 Y123.208 E7.62887 F360.000
G1 X96.655 Y122.892 E7.64346 F360.000
G1 X96.970 Y123.208 E7.66295 F360.000
G1 X97.080 Y122.892 E7.67754 F360.000
G1 X97.395 Y123.208 E7.69702 F360.000
G1 X97.505 Y122.892 E7.71161 F360.000
G1 X97.820 Y123.208 E7.73110 F360.000
G1 X97.930 Y122.892 E7.74569 F360.000
G1 X98.245 Y123.208 E7.76518 F360.000
G1 X98.355 Y122.892 E7.77977 F360.000
G1 X98.670 Y123.208 E7.79925 F360.000
G1 X98.780 Y122.892 E7.81384 F360.000
G1 X99.095 Y123.208 E7.83333 F360.000
G1 X99.205 Y122.892 E7.84792 F360.000
G1 X99.520 Y123.208 E7.86740 F360.000
G1 X99.630 Y122.892 E7.88200 F360.000
G1 X99.945 Y123.208 E7.90148 F360.000
G1 X100.055 Y122.892 E7.91607 F360.000
G1 X100.370 Y123.208 E7.93556 F360.000
G1 X100.480 Y122.892 E7.95015 F360.000
G1 X100.795 Y123.208 E7.96963 F360.000
G1 X100.905 Y122.892 E7.98422 F360.000
G1 X101.220 Y123.208 E8.00371 F360.000
G1 X101.330 Y122.892 E8.01830 F360.000
G1 X101.645 Y123.208 E8.03778 F360.000
G1 X101.755 Y122.892 E8.05238 F360.000
G1 X102.070 Y123.208 E8.07186 F360.000
G1 X102.180 Y122.892 E8.08645 F360.000
G1 X102.495 Y123.208 E8.10594 F360.000
G1 X102.605 Y122.892 E8.12053 F360.000
G1 X102.920 Y123.208 E8.14001 F360.000
G1 X103.030 Y122.892 E8.15460 F360.000
G1 X103.345 Y123.208 E8.17409 F360.000
G1 X103.454 Y122.892 E8.18868 F360.000
G1 X103.770 Y123.208 E8.20817 F360.000
G1 X103.879 Y122.892 E8.22276 F360.000
G1 X104.195 Y123.208 E8.24224 F360.000
G1 X104.304 Y122.892 E8.25683 F360.000
G1 X104.619 Y123.208 E8.27632 F360.000
G1 X104.729 Y122.892 E8.29091 F360.000
G1 X105.044 Y123.208 E8.31039 F360.000
G1 X105.154 Y122.892 E8.32498 F360.000
G1 X105.469 Y123.208 E8.34447 F360.000
G1 X105.579 Y122.892 E8.35906 F360.000
G1 X105.894 Y123.208 E8.37855 F360.000
G1 X106.004 Y122.892 E8.39314 F360.000
G1 X106.319 Y123.208 E8.41262 F360.000
G1 X106.429 Y122.892 E8.42721 F360.000
G1 X106.744 Y123.208 E8.44670 F360.000
G1 X106.874 Y122.912 E8.46079 F360.000
G1 X106.854 Y122.892 E8.46203 F360.000
G1 F1800.000 E3.96203
G92 E0
G1 X106.744 Y117.108 F7800.000
G1 E4.50000 F1800.000
G1 X106.874 Y116.812 E4.51410 F360.000
G1 X106.854 Y116.792 E4.51533 F360.000
G1 X106.744 Y117.108 F7800.000
G1 X106.429 Y116.792 E4.53482 F360.000
G1 X106.319 Y117.108 E4.54941 F360.000
G1 X106.004 Y116.792 E4.56890 F360.000
G1 X105.894 Y117.108 E4.58349 F360.000
G1 X105.579 Y116.792 E4.60297 F360.000
G1 X105.469 Y117.108 E4.61756 F360.000
G1 X105.154 Y116.792 E4.63705 F360.000
G1 X105.044 Y117.108 E4.65164 F360.000
G1 X104.729 Y116.792 E4.67112 F360.000
G1 X104.619 Y117.108 E4.68571 F360.000
G1 X104.304 Y116.792 E4.70520 F360.000
G1 X104.195 Y117.108 E4.71979 F360.000
G1 X103.879 Y116.792 E4.73928 F360.000
G1 X103.770 Y117.108 E4.75387 F360.000
G1 X103.454 Y116.792 E4.77335 F360.000
G1 X103.345 Y117.108 E4.78794 F360.000
G1 X103.030 Y116.792 E4.80743 F360.000
G1 X102.920 Y117.108 E4.82202 F360.000
G1 X102.605 Y116.792 E4.84150 F360.000
G1 X102.495 Y117.108 E4.85610 F360.000
G1 X102.180 Y116.792 E4.87558 F360.000
G1 X102.070 Y117.108 E4.89017 F360.000
G1 X101.755 Y116.792 E4.90966 F360.000
G1 X101.645 Y117.108 E4.92425 F360.000
G1 X101.330 Y116.792 E4.94373 F360.000
G1 X101.220 Y117.108 E4.95832 F360.000
G1 X100.905 Y116.792 E4.97781 F360.000
G1 X100.795 Y117.108 E4.99240 F360.000
G1 X100.480 Y116.792 E5.01189 F360.000
G1 X100.370 Y117.108 E5.02648 F360.000
G1 X100.055 Y116.792 E5.04596 F360.000
G1 X99.945 Y117.108 E5.06055 F360.000
G1 X99.630 Y116.792 E5.08004 F360.000
G1 X99.520 Y117.108 E5.09463 F360.000
G1 X99.205 Y116.792 E5.11411 F360.000
G1 X99.095 Y117.108 E5.12870 F360.000
G1 X98.780 Y116.792 E5.14819 F360.000
G1 X98.670 Y117.108 E5.16278 F360.000
G1 X98.355 Y116.792 E5.18227 F360.000
G1 X98.245 Y117.108 E5.19686 F360.000
G1 X97.930 Y116.792 E5.21634 F360.000
G1 X97.820 Y117.108 E5.23093 F360.000
G1 X97.505 Y116.792 E5.25042 F360.000
G1 X97.395 Y117.108 E5.26501 F360.000
G1 X97.080 Y116.792 E5.28449 F360.000
G1 X96.970 Y117.108 E5.29909 F360.000
G1 X96.655 Y116.792 E5.31857 F360.000
G1 X96.546 Y117.108 E5.33316 F360.000
G1 X96.230 Y116.792 E5.35265 F360.000
G1 X96.121 Y117.108 E5.36724 F360.000
G1 X95.805 Y116.792 E5.38672 F360.000
G1 X95.696 Y117.108 E5.40131 F360.000
G1 X95.381 Y116.792 E5.42080 F360.000
G1 X95.271 Y117.108 E5.43539 F360.000
G1 X94.956 Y116.792 E5.45488 F360.000
G1 X94.846 Y117.108 E5.46947 F360.000
G1 X94.531 Y116.792 E5.48895 F360.000
G1 X94.421 Y117.108 E5.50354 F360.000
G1 X94.106 Y116.792 E5.52303 F360.000
G1 X93.996 Y117.108 E5.53762 F360.000
G1 X93.681 Y116.792 E5.55710 F360.000
G1 X93.571 Y117.108 E5.57169 F360.000
G1 X93.256 Y116.792 E5.59118 F360.000
G1 X93.126 Y117.088 E5.60528 F360.000
G1 X93.146 Y117.108 E5.60651 F360.000
G1 F1800.000 E1.10651
G92 E0
G1 X93.256 Y122.892 F7800.000
G1 E4.50000 F1800.000
G1 X93.126 Y123.188 E4.51410 F360.000
G1 X93.146 Y123.208 E4.51533 F360.000
G1 F1800.000 E0.01533
G92 E0
G1 X92.683 Y117.550 F7800.000
G1 E4.50000 F1800.000
G1 X92.683 Y116.350 E4.60912 F540.000
G1 X107.316 Y116.350 E5.93969
G1 X107.316 Y117.550 E6.04880
G1 X92.777 Y117.550 E7.37085
G1 X92.996 Y117.009 F7800.000
M106 S255
M140 S60 ; set bed temperature
G1 F1800.000 E2.87085
G92 E0
G1 Z0.600 F7800.000
G1 X92.744 Y122.625 F7800.000
G1 E4.50000 F1800.000
G1 X107.256 Y122.625 E5.02789 F600.000
G1 X107.256 Y123.475 E5.05881
G1 X92.744 Y123.475 E5.58669
G1 X92.744 Y122.677 E5.61570
G1 X92.394 Y122.275 F7800.000
G1 X107.606 Y122.275 E6.16905 F600.000
G1 X107.606 Y123.825 E6.22544
G1 X92.394 Y123.825 E6.77879
G1 X92.394 Y122.327 E6.83327
G1 X92.698 Y122.450 F7800.000
G1 X93.104 Y122.965 F7800.000
G1 X93.084 Y122.985 E6.83430 F600.000
G1 X93.104 Y122.965 F7800.000
G1 X93.433 Y123.135 E6.84786 F600.000
G1 X93.603 Y122.965 E6.85667 F600.000
G1 X93.932 Y123.135 E6.87023 F600.000
G1 X94.102 Y122.965 E6.87904 F600.000
G1 X94.430 Y123.135 E6.89260 F600.000
G1 X94.600 Y122.965 E6.90141 F600.000
G1 X94.929 Y123.135 E6.91496 F600.000
G1 X95.099 Y122.965 E6.92378 F600.000
G1 X95.428 Y123.135 E6.93733 F600.000
G1 X95.598 Y122.965 E6.94614 F600.000
G1 X95.926 Y123.135 E6.95970 F600.000
G1 X96.096 Y122.965 E6.96851 F600.000
G1 X96.425 Y123.135 E6.98207 F600.000
G1 X96.595 Y122.965 E6.99088 F600.000
G1 X96.923 Y123.135 E7.00444 F600.000
G1 X97.093 Y122.965 E7.01325 F600.000
G1 X97.422 Y123.135 E7.02681 F600.000
G1 X97.592 Y122.965 E7.03562 F600.000
G1 X97.921 Y123.135 E7.04917 F600.000
G1 X98.091 Y122.965 E7.05798 F600.000
G1 X98.419 Y123.135 E7.07154 F600.000
G1 X98.589 Y122.965 E7.08035 F600.000
G1 X98.918 Y123.135 E7.09391 F600.000
G1 X99.088 Y122.965 E7.10272 F600.000
G1 X99.416 Y123.135 E7.11628 F600.000
G1 X99.586 Y122.965 E7.12509 F600.000
G1 X99.915 Y123.135 E7.13865 F600.000
G1 X100.085 Y122.965 E7.14746 F600.000
G1 X100.414 Y123.135 E7.16101 F600.000
G1 X100.584 Y122.965 E7.16982 F600.000
G1 X100.912 Y123.135 E7.18338 F600.000
G1 X101.082 Y122.965 E7.19219 F600.000
G1 X101.411 Y123.135 E7.20575 F600.000
G1 X101.581 Y122.965 E7.21456 F600.000
G1 X101.909 Y123.135 E7.22812 F600.000
G1 X102.079 Y122.965 E7.23693 F600.000
G1 X102.408 Y123.135 E7.25049 F600.000
G1 X102.578 Y122.965 E7.25930 F600.000
G1 X102.907 Y123.135 E7.27285 F600.000
G1 X103.077 Y122.965 E7.28166 F600.000
G1 X103.405 Y123.135 E7.29522 F600.000
G1 X103.575 Y122.965 E7.30403 F600.000
G1 X103.904 Y123.135 E7.31759 F600.000
G1 X104.074 Y122.965 E7.32640 F600.000
G1 X104.402 Y123.135 E7.33996 F600.000
G1 X104.572 Y122.965 E7.34877 F600.000
G1 X104.901 Y123.135 E7.36233 F600.000
G1 X105.071 Y122.965 E7.37114 F600.000
G1 X105.400 Y123.135 E7.38469 F600.000
G1 X105.570 Y122.965 E7.39350 F600.000
G1 X105.898 Y123.135 E7.40706 F600.000
G1 X106.068 Y122.965 E7.41587 F600.000
G1 X106.397 Y123.135 E7.42943 F600.000
G1 X106.567 Y122.965 E7.43824 F600.000
G1 X106.896 Y123.135 E7.45180 F600.000
G1 X106.916 Y123.115 E7.45284 F600.000
G1 F1800.000 E2.95284
G92 E0
G1 X106.896 Y117.035 F7800.000
G1 E4.50000 F1800.000
G1 X106.567 Y116.865 E4.51356 F600.000
G1 X106.397 Y117.035 E4.52237 F600.000
G1 X106.068 Y116.865 E4.53593 F600.000
G1 X105.898 Y117.035 E4.54474 F600.000
G1 X105.570 Y116.865 E4.55829 F600.000
G1 X105.400 Y117.035 E4.56710 F600.000
G1 X105.071 Y116.865 E4.58066 F600.000
G1 X104.901 Y117.035 E4.58947 F600.000
G1 X104.572 Y116.865 E4.60303 F600.000
G1 X104.402 Y117.035 E4.61184 F600.000
G1 X104.074 Y116.865 E4.62540 F600.000
G1 X103.904 Y117.035 E4.63421 F600.000
G1 X103.575 Y116.865 E4.64777 F600.000
G1 X103.405 Y117.035 E4.65658 F600.000
G1 X103.077 Y116.865 E4.67013 F600.000
G1 X102.907 Y117.035 E4.67894 F600.000
G1 X102.578 Y116.865 E4.69250 F600.000
G1 X102.408 Y117.035 E4.70131 F600.000
G1 X102.079 Y116.865 E4.71487 F600.000
G1 X101.909 Y117.035 E4.72368 F600.000
G1 X101.581 Y116.865 E4.73724 F600.000
G1 X101.411 Y117.035 E4.74605 F600.000
G1 X101.082 Y116.865 E4.75961 F600.000
G1 X100.912 Y117.035 E4.76842 F600.000
G1 X100.584 Y116.865 E4.78198 F600.000
G1 X100.414 Y117.035 E4.79079 F600.000
G1 X100.085 Y116.865 E4.80434 F600.000
G1 X99.915 Y117.035 E4.81315 F600.000
G1 X99.586 Y116.865 E4.82671 F600.000
G1 X99.416 Y117.035 E4.83552 F600.000
G1 X99.088 Y116.865 E4.84908 F600.000
G1 X98.918 Y117.035 E4.85789 F600.000
G1 X98.589 Y116.865 E4.87145 F600.000
G1 X98.419 Y117.035 E4.88026 F600.000
G1 X98.091 Y116.865 E4.89382 F600.000
G1 X97.921 Y117.035 E4.90263 F600.000
G1 X97.592 Y116.865 E4.91618 F600.000
G1 X97.422 Y117.035 E4.92499 F600.000
G1 X97.093 Y116.865 E4.93855 F600.000
G1 X96.923 Y117.035 E4.94736 F600.000
G1 X96.595 Y116.865 E4.96092 F600.000
G1 X96.425 Y117.035 E4.96973 F600.000
G1 X96.096 Y116.865 E4.98329 F600.000
G1 X95.926 Y117.035 E4.99210 F600.000
G1 X95.598 Y116.865 E5.00566 F600.000
G1 X95.428 Y117.035 E5.01447 F600.000
G1 X95.099 Y116.865 E5.02802 F600.000
G1 X94.929 Y117.035 E5.03683 F600.000
G1 X94.600 Y116.865 E5.05039 F600.000
G1 X94.430 Y117.035 E5.05920 F600.000
G1 X94.102 Y116.865 E5.07276 F600.000
G1 X93.932 Y117.035 E5.08157 F600.000
G1 X93.603 Y116.865 E5.09513 F600.000
G1 X93.433 Y117.035 E5.10394 F600.000
G1 X93.104 Y116.865 E5.11750 F600.000
G1 X93.084 Y116.885 E5.11853 F600.000
G1 X106.896 Y117.035 F7800.000
G1 X106.916 Y117.015 E5.11957 F600.000
G1 X107.256 Y117.375 F7800.000
G1 X92.744 Y117.375 E5.64745 F600.000
G1 X92.744 Y116.525 E5.67838
G1 X107.256 Y116.525 E6.20626
G1 X107.256 Y117.323 E6.23527
G1 X107.606 Y117.725 F7800.000
G1 X92.394 Y117.725 E6.78862 F600.000
G1 X92.394 Y116.175 E6.84501
G1 X107.606 Y116.175 E7.39836
G1 X107.606 Y117.673 E7.45284
G1 X107.302 Y117.550 F7800.000
G1 F1800.000 E2.95284
G92 E0
G1 Z0.850 F7800.000
G1 X107.351 Y122.625 F7800.000
G1 E4.50000 F1800.000
G1 X107.351 Y123.475 E4.53092 F600.000
G1 X92.649 Y123.475 E5.06572
G1 X92.649 Y122.625 E5.09664
G1 X107.298 Y122.625 E5.62953
G1 X107.701 Y122.275 F7800.000
G1 X107.701 Y123.825 E5.68591 F600.000
G1 X92.299 Y123.825 E6.24618
G1 X92.299 Y122.275 E6.30256
G1 X107.648 Y122.275 E6.86091
G1 X107.525 Y122.578 F7800.000
G1 X107.011 Y122.985 F7800.000
G1 X106.991 Y122.965 E6.86196 F600.000
G1 X106.655 Y123.135 E6.87593 F600.000
G1 X106.485 Y122.965 E6.88486 F600.000
G1 X106.150 Y123.135 E6.89883 F600.000
G1 X105.980 Y122.965 E6.90776 F600.000
G1 X105.644 Y123.135 E6.92172 F600.000
G1 X105.474 Y122.965 E6.93065 F600.000
G1 X105.139 Y123.135 E6.94462 F600.000
G1 X104.969 Y122.965 E6.95355 F600.000
G1 X104.634 Y123.135 E6.96752 F600.000
G1 X104.464 Y122.965 E6.97645 F600.000
G1 X104.128 Y123.135 E6.99042 F600.000
G1 X103.958 Y122.965 E6.99935 F600.000
G1 X103.623 Y123.135 E7.01331 F600.000
G1 X103.453 Y122.965 E7.02224 F600.000
G1 X103.117 Y123.135 E7.03621 F600.000
G1 X102.947 Y122.965 E7.04514 F600.000
G1 X102.612 Y123.135 E7.05911 F600.000
G1 X102.442 Y122.965 E7.06804 F600.000
G1 X102.107 Y123.135 E7.08200 F600.000
G1 X101.937 Y122.965 E7.09093 F600.000
G1 X101.601 Y123.135 E7.10490 F600.000
G1 X101.431 Y122.965 E7.11383 F600.000
G1 X101.096 Y123.135 E7.12780 F600.000
G1 X100.926 Y122.965 E7.13673 F600.000
G1 X100.590 Y123.135 E7.15069 F600.000
G1 X100.420 Y122.965 E7.15962 F600.000
G1 X100.085 Y123.135 E7.17359 F600.000
G1 X99.915 Y122.965 E7.18252 F600.000
G1 X99.580 Y123.135 E7.19649 F600.000
G1 X99.410 Y122.965 E7.20542 F600.000
G1 X99.074 Y123.135 E7.21938 F600.000
G1 X98.904 Y122.965 E7.22831 F600.000
G1 X98.569 Y123.135 E7.24228 F600.000
G1 X98.399 Y122.965 E7.25121 F600.000
G1 X98.063 Y123.135 E7.26518 F600.000
G1 X97.893 Y122.965 E7.27411 F600.000
G1 X97.558 Y123.135 E7.28807 F600.000
G1 X97.388 Y122.965 E7.29700 F600.000
G1 X97.053 Y123.135 E7.31097 F600.000
G1 X96.883 Y122.965 E7.31990 F600.000
G1 X96.547 Y123.135 E7.33387 F600.000
G1 X96.377 Y122.965 E7.34280 F600.000
G1 X96.042 Y123.135 E7.35677 F600.000
G1 X95.872 Y122.965 E7.36570 F600.000
G1 X95.536 Y123.135 E7.37966 F600.000
G1 X95.366 Y122.965 E7.38859 F600.000
G1 X95.031 Y123.135 E7.40256 F600.000
G1 X94.861 Y122.965 E7.41149 F600.000
