; generated by Slic3r 1.1.7 on 2014-10-01 at 14:19:16

; perimeters extrusion width = 0.35mm
; infill extrusion width = 0.39mm
; solid infill extrusion width = 0.39mm
; top infill extrusion width = 0.39mm

G21 ; set units to millimeters
M107
M84 S0 ; don't let go of motors
M108 S155 ; make sure extruder and electronics fans are running
M140 S70
M104 S210
G28 X0 Y0; home X and Y
G1 F10800 ; set high speed
G1 Y20 ; move into the platform along Y
G1 X205 ; move off the platform end along X
G28 Z0 ; home Z now - blobs won't hit the platform
G1 F400
G1 Z10 ; lift Z a little
M190 S70
M109 S210 ; wait for temperature to be reached
G28 Z0 ; home Z
G92 E0 ; reset extruder position to 0
G1 F300 ; set suitable speed
G1 E25 ; extrude 25mm
G92 E0 ; reset extruder position to 0 - needed for cura/SF
G1 F10800 ; set wipe speed
G1 X0 ; wipe nozzle and move to X0
G90 ; use absolute coordinates
G92 E0
M82 ; use absolute distances for extrusion
G1 F1800.000 E-4.50000
G92 E0
G1 Z0.350 F7800.000
G1 X93.657 Y112.434 F7800.000
G1 E4.50000 F1800.000
G1 X94.334 Y111.915 E4.57755 F600.000
G1 X95.831 Y111.050 E4.73480
G1 X96.619 Y110.724 E4.81237
G1 X98.290 Y110.276 E4.96962
G1 X99.135 Y110.165 E5.04717
G1 X100.865 Y110.165 E5.20442
G1 X101.710 Y110.276 E5.28197
G1 X103.381 Y110.724 E5.43922 F600.000
G1 X104.169 Y111.050 E5.51679
G1 X105.666 Y111.915 E5.67403
G1 X106.343 Y112.434 E5.75159
G1 X107.566 Y113.657 E5.90885
G1 X108.085 Y114.334 E5.98642
G1 X108.950 Y115.831 E6.14366
G1 X109.276 Y116.619 E6.22121
G1 X109.724 Y118.290 E6.37846
G1 X109.835 Y119.135 E6.45604
G1 X109.835 Y120.865 E6.61327
G1 X109.724 Y121.710 E6.69085
G1 X109.276 Y123.381 E6.84809
G1 X108.950 Y124.169 E6.92565
G1 X108.085 Y125.666 E7.08290
G1 X107.566 Y126.343 E7.16046
G1 X106.343 Y127.566 E7.31772
G1 X105.666 Y128.085 E7.39527
G1 X104.169 Y128.950 E7.55252
G1 X103.381 Y129.276 E7.63007
G1 X101.710 Y129.724 E7.78732
G1 X100.865 Y129.835 E7.86489
G1 X99.135 Y129.835 E8.02214
G1 X98.823 Y129.794 E8.05079
G1 X98.290 Y129.724 E8.09970
G1 X96.619 Y129.276 E8.25695
G1 X95.831 Y128.950 E8.33450
G1 X94.334 Y128.085 E8.49175
G1 X93.657 Y127.566 E8.56931
G1 X92.434 Y126.343 E8.72657
G1 X91.915 Y125.666 E8.80413
G1 X91.050 Y124.169 E8.96138
G1 X90.724 Y123.381 E9.03893
G1 X90.276 Y121.710 E9.19619
G1 X90.165 Y120.865 E9.27374
G1 X90.165 Y119.135 E9.43099
G1 X90.276 Y118.290 E9.50856
G1 X90.724 Y116.619 E9.66581
G1 X91.050 Y115.831 E9.74336
G1 X91.915 Y114.334 E9.90061
G1 X92.434 Y113.657 E9.97817
G1 X93.620 Y112.471 E10.13066
G1 F1800.000 E5.63066
G92 E0
G1 X102.928 Y119.893 F7800.000
G1 E4.50000 F1800.000
G1 X102.815 Y120.754 E4.57899 F600.000
G1 X102.524 Y121.457 E4.64817
G1 X102.061 Y122.061 E4.71734
G1 X101.457 Y122.524 E4.78651
G1 X101.157 Y122.648 E4.81604
G1 X100.754 Y122.815 E4.85568
G1 X100.000 Y122.914 E4.92486
G1 X99.246 Y122.815 E4.99403
G1 X98.543 Y122.524 E5.06320
G1 X97.939 Y122.061 E5.13237
G1 X97.476 Y121.457 E5.20154
G1 X97.185 Y120.754 E5.27072
G1 X97.124 Y120.288 E5.31343
G1 X97.547 Y120.175 E5.35330
G1 X97.962 Y121.176 E5.45186
G1 X98.336 Y121.664 E5.50772
G1 X98.824 Y122.038 E5.56358
G1 X99.391 Y122.273 E5.61943
G1 X100.000 Y122.353 E5.67528
G1 X100.609 Y122.273 E5.73114
G1 X101.177 Y122.038 E5.78699
G1 X101.664 Y121.664 E5.84285
G1 X102.038 Y121.177 E5.89870
G1 X102.273 Y120.609 E5.95456
G1 X102.367 Y119.893 E6.02023
G1 X102.876 Y119.893 E6.06648
G1 X102.727 Y120.180 F7800.000
G1 X102.876 Y119.712 F7800.000
G1 X102.453 Y119.825 E6.10634 F600.000
G1 X102.038 Y118.824 E6.20491
G1 X101.664 Y118.336 E6.26077
G1 X101.177 Y117.962 E6.31662
G1 X100.609 Y117.727 E6.37248
G1 X100.000 Y117.647 E6.42833
G1 X99.391 Y117.727 E6.48419
G1 X98.824 Y117.962 E6.54004
G1 X98.336 Y118.336 E6.59590
G1 X97.962 Y118.823 E6.65175
G1 X97.727 Y119.391 E6.70761
G1 X97.633 Y120.107 E6.77328
G1 X97.072 Y120.107 E6.82430
G1 X97.185 Y119.246 E6.90329
G1 X97.476 Y118.543 E6.97246
G1 X97.939 Y117.939 E7.04164
G1 X98.543 Y117.476 E7.11081
G1 X98.997 Y117.288 E7.15552
G1 X99.246 Y117.185 E7.17998
G1 X100.000 Y117.086 E7.24915
G1 X100.754 Y117.185 E7.31833
G1 X101.003 Y117.288 E7.34278
G1 X101.457 Y117.476 E7.38750
G1 X102.061 Y117.939 E7.45667
G1 X102.524 Y118.543 E7.52584
G1 X102.815 Y119.246 E7.59501
G1 X102.869 Y119.660 E7.63296
G1 X102.542 Y119.606 F7800.000
M106 S255
M140 S60 ; set bed temperature
G1 F1800.000 E3.13296
G92 E0
G1 Z0.600 F7800.000
G1 X102.498 Y119.761 F7800.000
G1 E4.50000 F1800.000
G1 X102.530 Y120.000 E4.50876 F600.000
G1 X102.443 Y120.655 E4.53278
G1 X102.191 Y121.265 E4.55680
G1 X101.789 Y121.789 E4.58082
G1 X101.265 Y122.191 E4.60485
G1 X100.655 Y122.443 E4.62887
G1 X100.000 Y122.530 E4.65289
G1 X99.438 Y122.456 E4.67350
G1 X99.345 Y122.443 E4.67691
G1 X98.735 Y122.191 E4.70093
G1 X98.211 Y121.789 E4.72496
G1 X97.809 Y121.265 E4.74898
G1 X97.557 Y120.655 E4.77300
G1 X97.470 Y120.000 E4.79702
G1 X97.544 Y119.438 E4.81763
G1 X97.557 Y119.345 E4.82105
G1 X97.809 Y118.735 E4.84507
G1 X98.211 Y118.211 E4.86909
G1 X98.735 Y117.809 E4.89311
G1 X99.345 Y117.557 E4.91713
G1 X100.000 Y117.470 E4.94115
G1 X100.562 Y117.544 E4.96176
G1 X100.655 Y117.557 E4.96518 F600.000
G1 X101.265 Y117.809 E4.98920
G1 X101.789 Y118.211 E5.01322
G1 X102.191 Y118.735 E5.03724
G1 X102.443 Y119.345 E5.06127
G1 X102.491 Y119.709 E5.07462
G1 X102.151 Y119.807 F7800.000
G1 X102.177 Y120.000 E5.08170 F600.000
G1 X102.102 Y120.563 E5.10237
G1 X101.885 Y121.088 E5.12304
G1 X101.539 Y121.539 E5.14371
G1 X101.088 Y121.885 E5.16438
G1 X100.563 Y122.102 E5.18505
G1 X100.000 Y122.177 E5.20572
G1 X99.484 Y122.109 E5.22465
G1 X98.912 Y121.885 E5.24700
G1 X98.461 Y121.539 E5.26767
G1 X98.115 Y121.088 E5.28834
G1 X97.898 Y120.563 E5.30901
G1 X97.823 Y120.000 E5.32968
G1 X97.898 Y119.437 E5.35035
G1 X98.115 Y118.912 E5.37102
G1 X98.461 Y118.461 E5.39169
G1 X98.912 Y118.115 E5.41236
G1 X99.437 Y117.898 E5.43303
G1 X99.953 Y117.830 E5.45196
G1 X100.563 Y117.898 E5.47431 F600.000
G1 X101.088 Y118.115 E5.49498
G1 X101.539 Y118.461 E5.51565
G1 X101.885 Y118.912 E5.53632
G1 X102.102 Y119.437 E5.55699
G1 X102.144 Y119.755 E5.56867
G1 F1800.000 E1.06867
G92 E0
G1 X99.871 Y117.489 F7800.000
G1 X103.153 Y119.675 F7800.000
G1 E4.50000 F1800.000
G1 X103.195 Y120.000 E4.51192 F600.000
G1 X103.087 Y120.827 E4.54227
G1 X102.767 Y121.598 E4.57261
G1 X102.260 Y122.259 E4.60296
G1 X101.598 Y122.767 E4.63330
G1 X100.827 Y123.087 E4.66365
G1 X100.000 Y123.195 E4.69400
G1 X99.173 Y123.087 E4.72434
G1 X98.402 Y122.767 E4.75469
G1 X97.740 Y122.259 E4.78503
G1 X97.233 Y121.598 E4.81538
G1 X96.913 Y120.827 E4.84572
G1 X96.805 Y120.000 E4.87607
G1 X96.913 Y119.173 E4.90642
G1 X97.233 Y118.402 E4.93676
G1 X97.740 Y117.740 E4.96711
G1 X98.402 Y117.233 E4.99745
G1 X99.221 Y116.907 E5.02950
G1 X100.000 Y116.805 E5.05809 F600.000
G1 X100.827 Y116.913 E5.08844
G1 X101.598 Y117.233 E5.11878
G1 X102.260 Y117.740 E5.14913
G1 X102.767 Y118.402 E5.17947
G1 X103.087 Y119.173 E5.20982
G1 X103.146 Y119.623 E5.22633
G1 X103.500 Y119.629 F7800.000
M106 S255
G1 X103.548 Y120.000 E5.24128 F3600.000
G1 X103.428 Y120.918 E5.27834
G1 X103.073 Y121.774 E5.31539
G1 X102.509 Y122.509 E5.35244
G1 X101.774 Y123.073 E5.38950
G1 X100.918 Y123.428 E5.42655
G1 X100.000 Y123.548 E5.46360
G1 X99.082 Y123.428 E5.50066
G1 X98.313 Y123.109 E5.53394
G1 X98.226 Y123.073 E5.53771
G1 X97.491 Y122.509 E5.57476
G1 X96.927 Y121.774 E5.61182
G1 X96.572 Y120.918 E5.64887
G1 X96.452 Y120.000 E5.68592
G1 X96.572 Y119.082 E5.72298
G1 X96.927 Y118.226 E5.76003
G1 X97.491 Y117.491 E5.79708
G1 X98.226 Y116.927 E5.83414
G1 X99.082 Y116.572 E5.87119
G1 X100.000 Y116.452 E5.90824
G1 X100.825 Y116.560 E5.94153
M106 S255
M106 S255
G1 X100.918 Y116.572 E5.94530 F3600.000
G1 X101.774 Y116.927 E5.98235
G1 X102.509 Y117.491 E6.01940
G1 X103.073 Y118.226 E6.05646
G1 X103.428 Y119.082 E6.09351
G1 X103.493 Y119.577 E6.11351
M106 S255
G1 X102.825 Y119.718 F7800.000
G1 X102.862 Y120.000 E6.11979 F600.000
G1 X102.763 Y120.745 E6.13640
G1 X102.478 Y121.431 E6.15280
G1 X102.024 Y122.024 E6.16930
G1 X101.412 Y122.487 E6.18625
G1 X100.741 Y122.764 E6.20230
G1 X100.000 Y122.862 E6.21881
G1 X99.259 Y122.764 E6.23531
G1 X98.588 Y122.487 E6.25137
G1 X97.976 Y122.024 E6.26831
G1 X97.522 Y121.431 E6.28481
G1 X97.288 Y120.868 E6.29829
G1 X97.235 Y120.736 E6.30142
G1 X97.138 Y120.000 E6.31782
G1 X97.236 Y119.259 E6.33433 F600.000
G1 X97.513 Y118.588 E6.35038
G1 X97.976 Y117.976 E6.36733
G1 X98.588 Y117.513 E6.38427
G1 X99.259 Y117.236 E6.40032
G1 X100.000 Y117.138 E6.41683
G1 X100.741 Y117.236 E6.43334
G1 X101.412 Y117.513 E6.44939
G1 X102.024 Y117.976 E6.46633
G1 X102.478 Y118.569 E6.48284
G1 X102.764 Y119.259 E6.49934
G1 X102.819 Y119.666 E6.50841
G1 F1800.000 E2.00841
G92 E0
G1 Z0.850 F7800.000
G1 X102.498 Y119.761 F7800.000
G1 E4.50000 F1800.000
G1 X102.530 Y120.000 E4.50876 F600.000
G1 X102.443 Y120.655 E4.53278
G1 X102.191 Y121.265 E4.55680
G1 X101.789 Y121.789 E4.58082
G1 X101.265 Y122.191 E4.60485
G1 X100.655 Y122.443 E4.62887
G1 X100.000 Y122.530 E4.65289
G1 X99.451 Y122.457 E4.67302
G1 X99.345 Y122.443 E4.67691
G1 X98.735 Y122.191 E4.70093
G1 X98.211 Y121.789 E4.72496
G1 X97.809 Y121.265 E4.74898
G1 X97.557 Y120.655 E4.77300
G1 X97.470 Y120.000 E4.79702
G1 X97.557 Y119.345 E4.82105
G1 X97.809 Y118.735 E4.84507
G1 X98.211 Y118.211 E4.86909
G1 X98.735 Y117.809 E4.89311
G1 X99.345 Y117.557 E4.91713
G1 X100.000 Y117.470 E4.94115
G1 X100.549 Y117.543 E4.96129
G1 X100.655 Y117.557 E4.96518 F600.000
G1 X101.265 Y117.809 E4.98920
G1 X101.789 Y118.211 E5.01322
G1 X102.191 Y118.735 E5.03724
G1 X102.443 Y119.345 E5.06126
G1 X102.491 Y119.709 E5.07462
G1 X102.151 Y119.807 F7800.000
G1 X102.177 Y120.000 E5.08170 F600.000
G1 X102.102 Y120.563 E5.10237
G1 X101.885 Y121.088 E5.12304
G1 X101.539 Y121.539 E5.14371
G1 X101.088 Y121.885 E5.16438
G1 X100.563 Y122.102 E5.18505
G1 X100.000 Y122.177 E5.20572
G1 X99.497 Y122.110 E5.22417
G1 X99.437 Y122.102 E5.22639
G1 X98.912 Y121.885 E5.24706
G1 X98.461 Y121.539 E5.26773
G1 X98.115 Y121.088 E5.28840
G1 X97.898 Y120.563 E5.30907
G1 X97.823 Y120.000 E5.32974
G1 X97.898 Y119.437 E5.35041
G1 X98.115 Y118.912 E5.37107
G1 X98.461 Y118.461 E5.39174
G1 X98.912 Y118.115 E5.41241
G1 X99.437 Y117.898 E5.43308
G1 X99.940 Y117.831 E5.45154
G1 X100.000 Y117.823 E5.45375 F600.000
G1 X100.563 Y117.898 E5.47442
G1 X101.088 Y118.115 E5.49509
G1 X101.539 Y118.461 E5.51576
G1 X101.885 Y118.912 E5.53643
G1 X102.102 Y119.437 E5.55710
G1 X102.144 Y119.755 E5.56878
G1 F1800.000 E1.06878
G92 E0
G1 X99.916 Y117.775 F7800.000
G1 X103.450 Y119.636 F7800.000
G1 E4.50000 F1800.000
G1 X103.498 Y120.000 E4.51336 F600.000
G1 X103.379 Y120.905 E4.54658
G1 X103.029 Y121.749 E4.57980
G1 X102.474 Y122.474 E4.61302
G1 X101.749 Y123.029 E4.64624
G1 X100.905 Y123.379 E4.67946
G1 X100.000 Y123.498 E4.71268
G1 X99.095 Y123.379 E4.74590
G1 X98.251 Y123.029 E4.77912
G1 X97.526 Y122.474 E4.81234
G1 X96.971 Y121.749 E4.84556
G1 X96.621 Y120.905 E4.87878
G1 X96.502 Y120.000 E4.91200
G1 X96.621 Y119.095 E4.94522
G1 X96.971 Y118.251 E4.97844
G1 X97.526 Y117.526 E5.01166
G1 X98.251 Y116.971 E5.04488
G1 X99.095 Y116.621 E5.07810
G1 X99.787 Y116.530 E5.10351
G1 X100.000 Y116.502 E5.11132 F600.000
G1 X100.905 Y116.621 E5.14454
G1 X101.749 Y116.971 E5.17776
G1 X102.474 Y117.526 E5.21098
G1 X103.029 Y118.251 E5.24420
G1 X103.379 Y119.095 E5.27742
G1 X103.443 Y119.584 E5.29537
G1 X103.797 Y119.590 F7800.000
G1 X103.851 Y120.000 E5.31040 F600.000
G1 X103.720 Y120.997 E5.34698
G1 X103.335 Y121.926 E5.38355
G1 X102.723 Y122.723 E5.42012
G1 X101.926 Y123.335 E5.45669
G1 X100.997 Y123.720 E5.49327
G1 X100.000 Y123.851 E5.52984
G1 X99.003 Y123.720 E5.56641
G1 X98.074 Y123.335 E5.60299
G1 X97.277 Y122.723 E5.63956
G1 X96.665 Y121.926 E5.67613
G1 X96.565 Y121.685 E5.68562
G1 X96.280 Y120.997 E5.71270
G1 X96.149 Y120.000 E5.74927
G1 X96.280 Y119.003 E5.78585
G1 X96.665 Y118.074 E5.82242
G1 X97.277 Y117.277 E5.85899
G1 X98.074 Y116.665 E5.89556
G1 X99.003 Y116.280 E5.93214
G1 X100.000 Y116.149 E5.96871
G1 X100.259 Y116.183 E5.97820
G1 X100.997 Y116.280 E6.00528 F600.000
G1 X101.926 Y116.665 E6.04186
G1 X102.723 Y117.277 E6.07843
G1 X103.335 Y118.074 E6.11500
G1 X103.720 Y119.003 E6.15157
G1 X103.790 Y119.538 E6.17120
G1 X100.591 Y116.291 F7800.000
G1 X102.974 Y119.699 F7800.000
G1 X103.012 Y120.000 E6.18659 F600.000
G1 X102.910 Y120.780 E6.22644
G1 X102.609 Y121.506 E6.26628
G1 X102.130 Y122.130 E6.30612
G1 X101.506 Y122.609 E6.34596
G1 X100.817 Y122.896 E6.38378
G1 X100.000 Y123.012 E6.42560
G1 X99.183 Y122.896 E6.46742
G1 X98.494 Y122.609 E6.50524
G1 X97.870 Y122.130 E6.54508
G1 X97.391 Y121.506 E6.58492
G1 X97.104 Y120.817 E6.62274
G1 X96.988 Y120.000 E6.66456
G1 X97.090 Y119.220 E6.70440 F600.000
G1 X97.325 Y118.650 E6.73564
G1 X97.391 Y118.494 E6.74425
G1 X97.870 Y117.870 E6.78409
G1 X98.494 Y117.391 E6.82393
G1 X99.183 Y117.104 E6.86175
G1 X100.000 Y116.988 E6.90357
G1 X100.780 Y117.090 E6.94341
G1 X101.350 Y117.325 E6.97464
G1 X101.506 Y117.391 E6.98325
G1 X102.130 Y117.870 E7.02310
G1 X102.609 Y118.494 E7.06294
G1 X102.910 Y119.220 E7.10278
G1 X102.967 Y119.647 E7.12457
G1 F1800.000 E2.62457
G92 E0
G1 Z1.100 F7800.000
G1 X102.498 Y119.761 F7800.000
G1 E4.50000 F1800.000
G1 X102.530 Y120.000 E4.50876 F600.000
G1 X102.443 Y120.655 E4.53278
G1 X102.191 Y121.265 E4.55680
G1 X101.789 Y121.789 E4.58083
G1 X101.265 Y122.191 E4.60485
G1 X100.655 Y122.443 E4.62887
G1 X100.000 Y122.530 E4.65289
G1 X99.464 Y122.459 E4.67255
G1 X99.345 Y122.443 E4.67691
G1 X98.735 Y122.191 E4.70094
G1 X98.211 Y121.789 E4.72496
G1 X97.809 Y121.265 E4.74898
G1 X97.557 Y120.655 E4.77300
G1 X97.470 Y120.000 E4.79702
G1 X97.541 Y119.464 E4.81668
G1 X97.557 Y119.345 E4.82105
G1 X97.809 Y118.735 E4.84507
G1 X98.211 Y118.211 E4.86909
G1 X98.735 Y117.809 E4.89311
G1 X99.345 Y117.557 E4.91713
G1 X100.000 Y117.470 E4.94116
G1 X100.536 Y117.541 E4.96081
G1 X100.655 Y117.557 E4.96518 F600.000
G1 X101.265 Y117.809 E4.98920
G1 X101.789 Y118.211 E5.01322
G1 X102.191 Y118.735 E5.03724
G1 X102.443 Y119.345 E5.06127
G1 X102.491 Y119.709 E5.07462
G1 X102.151 Y119.807 F7800.000
G1 X102.177 Y120.000 E5.08170 F600.000
G1 X102.102 Y120.563 E5.10237
G1 X101.885 Y121.088 E5.12304
G1 X101.539 Y121.539 E5.14371
G1 X101.088 Y121.885 E5.16438
G1 X100.563 Y122.102 E5.18505
G1 X100.000 Y122.177 E5.20572
G1 X99.510 Y122.112 E5.22370
G1 X99.437 Y122.102 E5.22639
G1 X98.912 Y121.885 E5.24706
G1 X98.461 Y121.539 E5.26773
G1 X98.115 Y121.088 E5.28840
G1 X97.898 Y120.563 E5.30907
G1 X97.823 Y120.000 E5.32974
G1 X97.898 Y119.437 E5.35041
G1 X98.115 Y118.912 E5.37108
G1 X98.461 Y118.461 E5.39175
G1 X98.912 Y118.115 E5.41241
G1 X99.437 Y117.898 E5.43308
G1 X99.927 Y117.833 E5.45106
G1 X100.000 Y117.823 E5.45375 F600.000
G1 X100.563 Y117.898 E5.47442
G1 X101.088 Y118.115 E5.49509
G1 X101.539 Y118.461 E5.51576
G1 X101.885 Y118.912 E5.53643
G1 X102.102 Y119.437 E5.55710
G1 X102.144 Y119.755 E5.56878
G1 F1800.000 E1.06878
G92 E0
G1 X99.898 Y117.765 F7800.000
G1 X103.709 Y119.602 F7800.000
G1 E4.50000 F1800.000
G1 X103.761 Y120.000 E4.51461 F600.000
G1 X103.633 Y120.973 E4.55032
G1 X103.257 Y121.881 E4.58604
G1 X102.659 Y122.659 E4.62176
G1 X101.881 Y123.257 E4.65748
G1 X100.973 Y123.633 E4.69319
G1 X100.000 Y123.761 E4.72891
G1 X99.027 Y123.633 E4.76463
G1 X98.119 Y123.257 E4.80034
G1 X97.341 Y122.659 E4.83606
G1 X96.743 Y121.881 E4.87178
G1 X96.497 Y121.288 E4.89511
G1 X96.367 Y120.973 E4.90750
G1 X96.239 Y120.000 E4.94321
G1 X96.367 Y119.027 E4.97893
G1 X96.743 Y118.119 E5.01465
G1 X97.341 Y117.341 E5.05036
G1 X98.119 Y116.743 E5.08608
G1 X99.027 Y116.367 E5.12180
G1 X99.364 Y116.323 E5.13419
G1 X100.000 Y116.239 E5.15752 F600.000
G1 X100.973 Y116.367 E5.19323
G1 X101.881 Y116.743 E5.22895
G1 X102.659 Y117.341 E5.26467
G1 X103.257 Y118.119 E5.30038
G1 X103.633 Y119.027 E5.33610
G1 X103.702 Y119.550 E5.35530
G1 X104.056 Y119.556 F7800.000
G1 X104.114 Y120.000 E5.37158 F600.000
G1 X103.974 Y121.065 E5.41065
G1 X103.563 Y122.057 E5.44972
G1 X102.909 Y122.909 E5.48879
G1 X102.057 Y123.563 E5.52786
G1 X101.065 Y123.974 E5.56693
G1 X100.000 Y124.114 E5.60600
G1 X98.935 Y123.974 E5.64507
