; generated by Slic3r 1.1.7 on 2014-09-19 at 12:35:28

; perimeters extrusion width = 0.35mm
; infill extrusion width = 0.39mm
; solid infill extrusion width = 0.39mm
; top infill extrusion width = 0.39mm

G21 ; set units to millimeters
M107
M84 S0 ; don't let go of motors
M108 S155 ; make sure extruder and electronics fans are running
M140 S70
M104 S210
G28 X0 Y0; home X and Y
G1 F10800 ; set high speed
G1 Y20 ; move into the platform along Y
G1 X205 ; move off the platform end along X
G28 Z0 ; home Z now - blobs won't hit the platform
G1 F400
G1 Z10 ; lift Z a little
M190 S70
M109 S210 ; wait for temperature to be reached
G28 Z0 ; home Z
G92 E0 ; reset extruder position to 0
G1 F300 ; set suitable speed
G1 E25 ; extrude 25mm
G92 E0 ; reset extruder position to 0 - needed for cura/SF
G1 F10800 ; set wipe speed
G1 X0 ; wipe nozzle and move to X0
G90 ; use absolute coordinates
G92 E0
M82 ; use absolute distances for extrusion
G1 F1800.000 E-4.50000
G92 E0
G1 Z0.350 F7800.000
G1 X87.897 Y93.459 F7800.000
G1 E4.50000 F1800.000
G1 X87.926 Y93.432 E4.50356 F1080.000
G1 X90.032 Y92.524 E4.71210
G1 X91.561 Y92.346 E4.85204
G1 X108.439 Y92.346 E6.38681
G1 X110.698 Y92.742 E6.59535
G1 X112.686 Y93.886 E6.80389 F1080.000
G1 X113.745 Y95.003 E6.94383
G1 X125.745 Y111.050 E8.76587
G1 X126.780 Y113.097 E8.97441
G1 X127.056 Y114.681 E9.12060
G1 X127.565 Y124.683 E10.03130
G1 X127.283 Y126.959 E10.23985
G1 X126.254 Y128.988 E10.44666
G1 X114.254 Y145.035 E12.26869
G1 X112.584 Y146.606 E12.47724
G1 X110.477 Y147.514 E12.68578
G1 X108.949 Y147.693 E12.82572
G1 X91.051 Y147.693 E14.45311
G1 X88.793 Y147.296 E14.66165
G1 X86.804 Y146.152 E14.87020
G1 X85.746 Y145.035 E15.01014
G1 X73.746 Y128.988 E16.83218
G1 X72.711 Y126.941 E17.04072
G1 X72.435 Y124.683 E17.24753
G1 X72.944 Y114.681 E18.15824
G1 X73.456 Y112.445 E18.36678
G1 X74.255 Y111.050 E18.51296
G1 X86.255 Y95.003 E20.33500
G1 X87.859 Y93.495 E20.53521
G1 F1800.000 E16.03521
G92 E0
G1 X107.923 Y124.045 F7800.000
G1 E4.50000 F1800.000
G1 X104.077 Y124.045 E4.84969 F540.000
G1 X104.487 Y115.993 E5.58287
G1 X107.513 Y115.993 E5.85799
G1 X107.920 Y123.993 E6.58640
G1 X108.580 Y124.670 F7800.000
G1 X103.420 Y124.670 E7.05566 F378.000
G1 X103.893 Y115.368 E7.90264
G1 X108.107 Y115.368 E8.28576
G1 X108.578 Y124.618 E9.12796
G1 X108.274 Y124.500 F7800.000
G1 X104.535 Y123.573 F7800.000
G1 X104.574 Y123.612 E9.13298 F1080.000
G1 X105.541 Y123.612 E9.22095
G1 X104.582 Y122.653 E9.34436
G1 X104.629 Y121.732 E9.42819
G1 X106.509 Y123.612 E9.66999
G1 X107.451 Y123.587 E9.75571
G1 X104.675 Y120.811 E10.11267
G1 X104.722 Y119.891 E10.19649
G1 X107.415 Y122.583 E10.54273
G1 X107.363 Y121.564 E10.63554
G1 X104.769 Y118.970 E10.96908
G1 X104.816 Y118.050 E11.05290
G1 X107.311 Y120.544 E11.37374
G1 X107.259 Y119.525 E11.46655
G1 X104.863 Y117.129 E11.77468
G1 X105.127 Y116.426 E11.84299
G1 X107.207 Y118.506 E12.11046
G1 X107.155 Y117.486 E12.20328
G1 X106.095 Y116.426 E12.33966
G1 X107.103 Y116.467 E12.43144
G1 X107.062 Y116.426 E12.43673
G1 F1800.000 E7.93673
G92 E0
G1 X119.923 Y124.045 F7800.000
G1 E4.50000 F1800.000
G1 X116.077 Y124.045 E4.84969 F540.000
G1 X116.487 Y115.993 E5.58287
G1 X119.513 Y115.993 E5.85799
G1 X119.920 Y123.993 E6.58640
G1 X120.580 Y124.670 F7800.000
G1 X115.420 Y124.670 E7.05566 F378.000
G1 X115.893 Y115.368 E7.90264
G1 X120.107 Y115.368 E8.28576
G1 X120.578 Y124.618 E9.12796
G1 X120.274 Y124.500 F7800.000
G1 X116.535 Y123.573 F7800.000
G1 X116.574 Y123.612 E9.13298 F1080.000
G1 X117.541 Y123.612 E9.22095
G1 X116.582 Y122.653 E9.34436
G1 X116.629 Y121.732 E9.42819
G1 X118.509 Y123.612 E9.66999
G1 X119.451 Y123.587 E9.75571
G1 X116.675 Y120.811 E10.11267
G1 X116.722 Y119.891 E10.19649
G1 X119.415 Y122.583 E10.54273
G1 X119.363 Y121.564 E10.63554
G1 X116.769 Y118.970 E10.96908
G1 X116.816 Y118.050 E11.05290
G1 X119.311 Y120.544 E11.37374
G1 X119.259 Y119.525 E11.46655
G1 X116.863 Y117.129 E11.77468
G1 X117.127 Y116.426 E11.84299
G1 X119.207 Y118.506 E12.11046
G1 X119.155 Y117.486 E12.20328
G1 X118.095 Y116.426 E12.33966
G1 X119.103 Y116.467 E12.43144
G1 X119.062 Y116.426 E12.43673
G1 F1800.000 E7.93673
G92 E0
G1 X107.923 Y140.093 F7800.000
G1 E4.50000 F1800.000
G1 X104.077 Y140.093 E4.84969 F540.000
G1 X104.487 Y132.040 E5.58287
G1 X107.513 Y132.040 E5.85799
G1 X107.920 Y140.040 E6.58640
G1 X108.580 Y140.718 F7800.000
G1 X103.420 Y140.718 E7.05566 F378.000
G1 X103.893 Y131.415 E7.90264
G1 X108.107 Y131.415 E8.28576
G1 X108.578 Y140.665 E9.12796
G1 X108.274 Y140.548 F7800.000
G1 X104.535 Y139.621 F7800.000
G1 X104.574 Y139.660 E9.13298 F1080.000
G1 X105.541 Y139.660 E9.22095
G1 X104.582 Y138.700 E9.34436
G1 X104.629 Y137.779 E9.42819
G1 X106.509 Y139.660 E9.66999
G1 X107.451 Y139.635 E9.75571
G1 X104.675 Y136.859 E10.11267
G1 X104.722 Y135.938 E10.19649
G1 X107.415 Y138.631 E10.54273
G1 X107.363 Y137.611 E10.63554
G1 X104.769 Y135.017 E10.96908
G1 X104.816 Y134.097 E11.05290
G1 X107.311 Y136.592 E11.37374
G1 X107.259 Y135.572 E11.46655
G1 X104.863 Y133.176 E11.77468
G1 X105.127 Y132.473 E11.84299
G1 X107.207 Y134.553 E12.11046
G1 X107.155 Y133.534 E12.20328
G1 X106.095 Y132.473 E12.33966
G1 X107.103 Y132.514 E12.43144
G1 X107.062 Y132.473 E12.43673
G1 F1800.000 E7.93673
G92 E0
G1 X95.923 Y140.093 F7800.000
G1 E4.50000 F1800.000
G1 X92.077 Y140.093 E4.84969 F540.000
G1 X92.487 Y132.040 E5.58287
G1 X95.513 Y132.040 E5.85799
G1 X95.920 Y140.040 E6.58640
G1 X96.580 Y140.718 F7800.000
G1 X91.420 Y140.718 E7.05566 F378.000
G1 X91.893 Y131.415 E7.90264
G1 X96.107 Y131.415 E8.28576
G1 X96.578 Y140.665 E9.12796
G1 X96.274 Y140.548 F7800.000
G1 X92.535 Y139.621 F7800.000
G1 X92.574 Y139.660 E9.13298 F1080.000
G1 X93.541 Y139.660 E9.22095
G1 X92.582 Y138.700 E9.34436
G1 X92.629 Y137.779 E9.42819
G1 X94.509 Y139.660 E9.66999
G1 X95.451 Y139.635 E9.75571
G1 X92.675 Y136.859 E10.11267
G1 X92.722 Y135.938 E10.19649
G1 X95.415 Y138.631 E10.54273
G1 X95.363 Y137.611 E10.63554
G1 X92.769 Y135.017 E10.96908
G1 X92.816 Y134.097 E11.05290
G1 X95.311 Y136.592 E11.37374
G1 X95.259 Y135.572 E11.46655
G1 X92.863 Y133.176 E11.77468
G1 X93.127 Y132.473 E11.84299
G1 X95.207 Y134.553 E12.11046
G1 X95.155 Y133.534 E12.20328
G1 X94.095 Y132.473 E12.33966
G1 X95.103 Y132.514 E12.43144
G1 X95.062 Y132.473 E12.43673
G1 F1800.000 E7.93673
G92 E0
G1 X95.923 Y124.045 F7800.000
G1 E4.50000 F1800.000
G1 X92.077 Y124.045 E4.84969 F540.000
G1 X92.487 Y115.993 E5.58287
G1 X95.513 Y115.993 E5.85799
G1 X95.920 Y123.993 E6.58640
G1 X96.580 Y124.670 F7800.000
G1 X91.420 Y124.670 E7.05566 F378.000
G1 X91.893 Y115.368 E7.90264
G1 X96.107 Y115.368 E8.28576
G1 X96.578 Y124.618 E9.12796
G1 X96.274 Y124.500 F7800.000
G1 X92.535 Y123.573 F7800.000
G1 X92.574 Y123.612 E9.13298 F1080.000
G1 X93.541 Y123.612 E9.22095
G1 X92.582 Y122.653 E9.34436
G1 X92.629 Y121.732 E9.42819
G1 X94.509 Y123.612 E9.66999
G1 X95.451 Y123.587 E9.75571
G1 X92.675 Y120.811 E10.11267
G1 X92.722 Y119.891 E10.19649
G1 X95.415 Y122.583 E10.54273
G1 X95.363 Y121.564 E10.63554
G1 X92.769 Y118.970 E10.96908
G1 X92.816 Y118.050 E11.05290
G1 X95.311 Y120.544 E11.37374
G1 X95.259 Y119.525 E11.46655
G1 X92.863 Y117.129 E11.77468
G1 X93.127 Y116.426 E11.84299
G1 X95.207 Y118.506 E12.11046
G1 X95.155 Y117.486 E12.20328
G1 X94.095 Y116.426 E12.33966
G1 X95.103 Y116.467 E12.43144
G1 X95.062 Y116.426 E12.43673
G1 F1800.000 E7.93673
G92 E0
G1 X83.923 Y124.045 F7800.000
G1 E4.50000 F1800.000
G1 X80.077 Y124.045 E4.84969 F540.000
G1 X80.487 Y115.993 E5.58287
G1 X83.513 Y115.993 E5.85799
G1 X83.920 Y123.993 E6.58640
G1 X84.580 Y124.670 F7800.000
G1 X79.420 Y124.670 E7.05566 F378.000
G1 X79.893 Y115.368 E7.90264
G1 X84.107 Y115.368 E8.28576
G1 X84.578 Y124.618 E9.12796
G1 X84.274 Y124.500 F7800.000
G1 X80.535 Y123.573 F7800.000
G1 X80.574 Y123.612 E9.13298 F1080.000
G1 X81.541 Y123.612 E9.22095
G1 X80.582 Y122.653 E9.34436
G1 X80.629 Y121.732 E9.42819
G1 X82.509 Y123.612 E9.66999
G1 X83.451 Y123.587 E9.75571
G1 X80.675 Y120.811 E10.11267
G1 X80.722 Y119.891 E10.19649
G1 X83.415 Y122.583 E10.54273
G1 X83.363 Y121.564 E10.63554
G1 X80.769 Y118.970 E10.96908
G1 X80.816 Y118.050 E11.05290
G1 X83.311 Y120.544 E11.37374
G1 X83.259 Y119.525 E11.46655
G1 X80.863 Y117.129 E11.77468
G1 X81.127 Y116.426 E11.84299
G1 X83.207 Y118.506 E12.11046
G1 X83.155 Y117.486 E12.20328
G1 X82.095 Y116.426 E12.33966
G1 X83.103 Y116.467 E12.43144
G1 X83.062 Y116.426 E12.43673
G1 F1800.000 E7.93673
G92 E0
G1 X95.923 Y107.998 F7800.000
G1 E4.50000 F1800.000
G1 X92.077 Y107.998 E4.84969 F540.000
G1 X92.487 Y99.945 E5.58287
G1 X95.513 Y99.945 E5.85799
G1 X95.920 Y107.946 E6.58640
G1 X96.580 Y108.623 F7800.000
G1 X91.420 Y108.623 E7.05566 F378.000
G1 X91.893 Y99.320 E7.90264
G1 X96.107 Y99.320 E8.28576
G1 X96.578 Y108.571 E9.12796
G1 X96.274 Y108.453 F7800.000
G1 X92.535 Y107.526 F7800.000
G1 X92.574 Y107.565 E9.13298 F1080.000
G1 X93.541 Y107.565 E9.22095
G1 X92.582 Y106.605 E9.34436
G1 X92.629 Y105.685 E9.42819
G1 X94.509 Y107.565 E9.66999
G1 X95.451 Y107.540 E9.75571
G1 X92.675 Y104.764 E10.11267
G1 X92.722 Y103.843 E10.19649
G1 X95.415 Y106.536 E10.54273
G1 X95.363 Y105.517 E10.63554
G1 X92.769 Y102.923 E10.96908
G1 X92.816 Y102.002 E11.05290
G1 X95.311 Y104.497 E11.37374
G1 X95.259 Y103.478 E11.46655
G1 X92.863 Y101.082 E11.77468
G1 X93.127 Y100.378 E11.84299
G1 X95.207 Y102.458 E12.11046
G1 X95.155 Y101.439 E12.20328
G1 X94.095 Y100.378 E12.33966
G1 X95.103 Y100.419 E12.43144
G1 X95.062 Y100.378 E12.43673
G1 F1800.000 E7.93673
G92 E0
G1 X107.923 Y107.998 F7800.000
G1 E4.50000 F1800.000
G1 X104.077 Y107.998 E4.84969 F540.000
G1 X104.487 Y99.945 E5.58287
G1 X107.513 Y99.945 E5.85799
G1 X107.920 Y107.946 E6.58640
G1 X108.580 Y108.623 F7800.000
G1 X103.420 Y108.623 E7.05566 F378.000
G1 X103.893 Y99.320 E7.90264
G1 X108.107 Y99.320 E8.28576
G1 X108.578 Y108.571 E9.12796
G1 X108.274 Y108.453 F7800.000
G1 X104.535 Y107.526 F7800.000
G1 X104.574 Y107.565 E9.13298 F1080.000
G1 X105.541 Y107.565 E9.22095
G1 X104.582 Y106.605 E9.34436
G1 X104.629 Y105.685 E9.42819
G1 X106.509 Y107.565 E9.66999
G1 X107.451 Y107.540 E9.75571
G1 X104.675 Y104.764 E10.11267
G1 X104.722 Y103.843 E10.19649
G1 X107.415 Y106.536 E10.54273
G1 X107.363 Y105.517 E10.63554
G1 X104.769 Y102.923 E10.96908
G1 X104.816 Y102.002 E11.05290
G1 X107.311 Y104.497 E11.37374
G1 X107.259 Y103.478 E11.46655
G1 X104.863 Y101.082 E11.77468
G1 X105.127 Y100.378 E11.84299
G1 X107.207 Y102.458 E12.11046
G1 X107.155 Y101.439 E12.20328
G1 X106.095 Y100.378 E12.33966
G1 X107.103 Y100.419 E12.43144
G1 X107.062 Y100.378 E12.43673
M106 S253
M140 S60 ; set bed temperature
G1 F1800.000 E7.93673
G92 E0
G1 Z0.600 F7800.000
G1 X108.292 Y124.488 F7800.000
G1 E4.50000 F1800.000
G1 X103.708 Y124.488 E4.66677 F1800.000
G1 X104.164 Y115.536 E4.99287
G1 X107.836 Y115.536 E5.12648
G1 X108.290 Y124.436 E5.45067
G1 X108.660 Y124.838 F7800.000
G1 X103.340 Y124.838 E5.64423 F1260.000
G1 X103.831 Y115.186 E5.99583
G1 X108.169 Y115.186 E6.15364
G1 X108.658 Y124.786 E6.50332
G1 X108.354 Y124.669 F7800.000
G1 X108.036 Y124.208 F7800.000
G1 X107.997 Y124.247 E6.50553 F3600.000
G1 X107.450 Y124.247 E6.52741
G1 X108.010 Y123.687 E6.55907
G1 X107.983 Y123.167 E6.57991
G1 X106.903 Y124.247 E6.64101
G1 X106.356 Y124.247 E6.66289
G1 X107.956 Y122.646 E6.75343
G1 X107.930 Y122.126 E6.77428
G1 X105.809 Y124.247 E6.89426
G1 X105.262 Y124.247 E6.91614
G1 X107.903 Y121.605 E7.06557
G1 X107.877 Y121.085 E7.08642
G1 X104.715 Y124.247 E7.26529
G1 X104.168 Y124.247 E7.28717
G1 X107.850 Y120.564 E7.49549
G1 X107.824 Y120.044 E7.51634
G1 X103.980 Y123.888 E7.73377
G1 X104.010 Y123.311 E7.75685
G1 X107.797 Y119.523 E7.97112
G1 X107.771 Y119.003 E7.99197
G1 X104.039 Y122.735 E8.20308
G1 X104.068 Y122.158 E8.22617
G1 X107.744 Y118.482 E8.43412
G1 X107.718 Y117.962 E8.45496
G1 X104.098 Y121.582 E8.65976
G1 X104.127 Y121.006 E8.68284
G1 X107.691 Y117.441 E8.88447
G1 X107.665 Y116.921 E8.90532
G1 X104.156 Y120.429 E9.10380
G1 X104.186 Y119.853 E9.12688
G1 X107.638 Y116.400 E9.32219
G1 X107.612 Y115.880 E9.34304
G1 X104.215 Y119.277 E9.53520
G1 X104.244 Y118.700 E9.55828
G1 X107.167 Y115.777 E9.72362
G1 X106.620 Y115.777 E9.74550
G1 X104.274 Y118.124 E9.87824
G1 X104.303 Y117.548 E9.90132
G1 X106.073 Y115.777 E10.00146
G1 X105.526 Y115.777 E10.02334
G1 X104.332 Y116.971 E10.09087
G1 X104.362 Y116.395 E10.11396
G1 X104.979 Y115.777 E10.14888
G1 X104.432 Y115.777 E10.17076
G1 X104.391 Y115.819 E10.17309
G1 F1800.000 E5.67309
G92 E0
G1 X120.292 Y124.488 F7800.000
G1 E4.50000 F1800.000
G1 X115.708 Y124.488 E4.66677 F1800.000
G1 X116.164 Y115.536 E4.99287
G1 X119.836 Y115.536 E5.12648
G1 X120.290 Y124.436 E5.45067
G1 X120.660 Y124.838 F7800.000
G1 X115.340 Y124.838 E5.64423 F1260.000
G1 X115.831 Y115.186 E5.99583
G1 X120.169 Y115.186 E6.15364
G1 X120.658 Y124.786 E6.50332
G1 X120.354 Y124.669 F7800.000
G1 X120.036 Y124.208 F7800.000
G1 X119.997 Y124.247 E6.50553 F3600.000
G1 X119.450 Y124.247 E6.52741
G1 X120.010 Y123.687 E6.55907
G1 X119.983 Y123.167 E6.57991
G1 X118.903 Y124.247 E6.64101
G1 X118.356 Y124.247 E6.66289
G1 X119.956 Y122.646 E6.75343
G1 X119.930 Y122.126 E6.77428
G1 X117.809 Y124.247 E6.89426
G1 X117.262 Y124.247 E6.91614
G1 X119.903 Y121.605 E7.06557
G1 X119.877 Y121.085 E7.08642
G1 X116.715 Y124.247 E7.26529
G1 X116.168 Y124.247 E7.28717
G1 X119.850 Y120.564 E7.49549
G1 X119.824 Y120.044 E7.51634
G1 X115.980 Y123.888 E7.73377
G1 X116.010 Y123.311 E7.75685
G1 X119.797 Y119.523 E7.97112
G1 X119.771 Y119.003 E7.99197
G1 X116.039 Y122.735 E8.20308
G1 X116.068 Y122.158 E8.22617
G1 X119.744 Y118.482 E8.43412
G1 X119.718 Y117.962 E8.45496
G1 X116.098 Y121.582 E8.65976
G1 X116.127 Y121.006 E8.68284
G1 X119.691 Y117.441 E8.88447
G1 X119.665 Y116.921 E8.90532
G1 X116.156 Y120.429 E9.10380
G1 X116.186 Y119.853 E9.12688
G1 X119.638 Y116.400 E9.32219
G1 X119.612 Y115.880 E9.34304
G1 X116.215 Y119.277 E9.53520
G1 X116.244 Y118.700 E9.55828
G1 X119.167 Y115.777 E9.72362
G1 X118.620 Y115.777 E9.74550
G1 X116.274 Y118.124 E9.87824
G1 X116.303 Y117.548 E9.90132
G1 X118.073 Y115.777 E10.00146
G1 X117.526 Y115.777 E10.02334
G1 X116.332 Y116.971 E10.09087
G1 X116.362 Y116.395 E10.11396
G1 X116.979 Y115.777 E10.14888
G1 X116.432 Y115.777 E10.17076
G1 X116.391 Y115.819 E10.17309
G1 F1800.000 E5.67309
G92 E0
G1 X108.292 Y140.536 F7800.000
G1 E4.50000 F1800.000
G1 X103.708 Y140.536 E4.66677 F1800.000
G1 X104.164 Y131.583 E4.99287
G1 X107.836 Y131.583 E5.12648
G1 X108.290 Y140.483 E5.45067
G1 X108.660 Y140.886 F7800.000
G1 X103.340 Y140.886 E5.64423 F1260.000
G1 X103.831 Y131.233 E5.99583
G1 X108.169 Y131.233 E6.15364
G1 X108.658 Y140.833 E6.50332
G1 X108.354 Y140.716 F7800.000
G1 X108.036 Y140.255 F7800.000
G1 X107.997 Y140.294 E6.50553 F3600.000
G1 X107.450 Y140.294 E6.52741
G1 X108.010 Y139.735 E6.55907
G1 X107.983 Y139.214 E6.57991
G1 X106.903 Y140.294 E6.64101
G1 X106.356 Y140.294 E6.66289
G1 X107.956 Y138.694 E6.75343
G1 X107.930 Y138.173 E6.77428
G1 X105.809 Y140.294 E6.89426
G1 X105.262 Y140.294 E6.91614
G1 X107.903 Y137.653 E7.06557
G1 X107.877 Y137.132 E7.08642
G1 X104.715 Y140.294 E7.26529
G1 X104.168 Y140.294 E7.28717
G1 X107.850 Y136.612 E7.49549
G1 X107.824 Y136.091 E7.51634
G1 X103.980 Y139.935 E7.73377
G1 X104.010 Y139.359 E7.75685
G1 X107.797 Y135.571 E7.97112
G1 X107.771 Y135.050 E7.99197
G1 X104.039 Y138.782 E8.20308
G1 X104.068 Y138.206 E8.22617
G1 X107.744 Y134.530 E8.43412
G1 X107.718 Y134.009 E8.45496
G1 X104.098 Y137.629 E8.65976
G1 X104.127 Y137.053 E8.68284
G1 X107.691 Y133.489 E8.88447
G1 X107.665 Y132.968 E8.90532
G1 X104.156 Y136.477 E9.10380
G1 X104.186 Y135.900 E9.12688
G1 X107.638 Y132.448 E9.32219
G1 X107.612 Y131.927 E9.34304
G1 X104.215 Y135.324 E9.53520
G1 X104.244 Y134.748 E9.55828
G1 X107.167 Y131.825 E9.72362
G1 X106.620 Y131.825 E9.74550
G1 X104.274 Y134.171 E9.87824
G1 X104.303 Y133.595 E9.90132
G1 X106.073 Y131.825 E10.00146
G1 X105.526 Y131.825 E10.02334
G1 X104.332 Y133.019 E10.09087
G1 X104.362 Y132.442 E10.11396
G1 X104.979 Y131.825 E10.14888
G1 X104.432 Y131.825 E10.17076
G1 X104.391 Y131.866 E10.17309
G1 F1800.000 E5.67309
G92 E0
