; generated by Slic3r 1.0.1 on 2014-08-29 at 15:51:49

; layer_height = 0.25
; perimeters = 2
; top_solid_layers = 2
; bottom_solid_layers = 2
; fill_density = 0.2
; perimeter_speed = 30
; infill_speed = 60
; travel_speed = 130
; nozzle_diameter = 0.35
; filament_diameter = 1.75
; extrusion_multiplier = 1
; perimeters extrusion width = 0.35mm
; infill extrusion width = 0.39mm
; solid infill extrusion width = 0.39mm
; top infill extrusion width = 0.39mm
; first layer extrusion width = 0.70mm

G21 ; set units to millimeters
M107
M84 S0 ; don't let go of motors
M108 S155 ; make sure extruder and electronics fans are running
M140 S70
M104 S210
G28 X0 Y0; home X and Y
G1 F10800 ; set high speed
G1 Y20 ; move into the platform along Y
G1 X205 ; move off the platform end along X
G28 Z0 ; home Z now - blobs won't hit the platform
G1 F400
G1 Z10 ; lift Z a little
M190 S70
M109 S210 ; wait for temperature to be reached
G28 Z0 ; home Z
G92 E0 ; reset extruder position to 0
G1 F300 ; set suitable speed
G1 E25 ; extrude 25mm
G92 E0 ; reset extruder position to 0 - needed for cura/SF
G1 F10800 ; set wipe speed
G1 X0 ; wipe nozzle and move to X0
G90 ; use absolute coordinates
G92 E0
M82 ; use absolute distances for extrusion
G1 F1800.000 E-4.50000
G92 E0
G1 Z0.350 F7800.000
G1 X92.880 Y102.320 F7800.000
G1 E4.50000 F1800.000
G1 X93.880 Y101.490 E4.61817 F540.000
G1 X95.020 Y100.880 E4.73574
G1 X96.270 Y100.500 E4.85453
G1 X97.560 Y100.380 E4.97234
G1 X102.430 Y100.380 E5.41517
G1 X103.720 Y100.500 E5.53297
G1 X104.970 Y100.880 E5.65177
G1 X106.110 Y101.490 E5.76934
G1 X107.110 Y102.320 E5.88751
G1 X107.940 Y103.320 E6.00568
G1 X108.550 Y104.460 E6.12324
G1 X108.930 Y105.710 E6.24204
G1 X109.050 Y107.000 E6.35985
G1 X109.050 Y133.000 E8.72402
G1 X108.930 Y134.290 E8.84182
G1 X108.550 Y135.540 E8.96062
G1 X107.940 Y136.680 E9.07819
G1 X107.110 Y137.680 E9.19636
G1 X106.110 Y138.510 E9.31453
G1 X104.970 Y139.120 E9.43209
G1 X103.720 Y139.500 E9.55089
G1 X102.430 Y139.620 E9.66870
G1 X97.560 Y139.620 E10.11152
G1 X96.270 Y139.500 E10.22933
G1 X95.020 Y139.120 E10.34813
G1 X93.880 Y138.510 E10.46570
G1 X92.880 Y137.680 E10.58387
G1 X92.050 Y136.680 E10.70204
G1 X91.440 Y135.540 E10.81960
G1 X91.060 Y134.290 E10.93840
G1 X90.940 Y133.000 E11.05621
G1 X90.940 Y107.000 E13.42037
G1 X91.060 Y105.710 E13.53818
G1 X91.440 Y104.460 E13.65698
G1 X92.050 Y103.320 E13.77454
G1 X92.820 Y102.392 E13.88419
G1 F1800.000 E9.38419
G92 E0
G1 X98.536 Y123.975 F7800.000
G1 E4.50000 F1800.000
G1 X101.464 Y123.975 E4.76632 F540.000
G1 X101.464 Y132.025 E5.49832
G1 X98.536 Y132.025 E5.76464
G1 X98.536 Y124.069 E6.48812
G1 X97.911 Y123.350 F7800.000
G1 X102.089 Y123.350 E6.86809 F540.000
G1 X102.089 Y132.650 E7.71373
G1 X97.911 Y132.650 E8.09369
G1 X97.911 Y123.444 E8.93081
G1 X98.452 Y123.662 F7800.000
G1 X101.001 Y124.418 F7800.000
G1 X101.021 Y124.438 E8.93348 F1080.000
G1 X101.021 Y125.355 E9.01995
G1 X100.085 Y124.418 E9.14489
G1 X99.168 Y124.418 E9.23136
G1 X101.021 Y126.271 E9.47859
G1 X101.021 Y127.188 E9.56505
G1 X98.979 Y125.145 E9.83754
G1 X98.979 Y126.062 E9.92401
G1 X101.021 Y128.105 E10.19650
G1 X101.021 Y129.021 E10.28297
G1 X98.979 Y126.979 E10.55546
G1 X98.979 Y127.895 E10.64193
G1 X101.021 Y129.938 E10.91442
G1 X101.021 Y130.855 E11.00088
G1 X98.979 Y128.812 E11.27338
G1 X98.979 Y129.729 E11.35984
G1 X100.832 Y131.582 E11.60707
G1 X99.915 Y131.582 E11.69354
G1 X98.979 Y130.645 E11.81848
G1 X98.979 Y131.562 E11.90495
G1 X98.999 Y131.582 E11.90762
G1 F1800.000 E7.40762
G92 E0
G1 X98.536 Y116.025 F7800.000
G1 E4.50000 F1800.000
G1 X98.536 Y107.975 E5.23200 F540.000
G1 X101.464 Y107.975 E5.49832
G1 X101.464 Y116.025 E6.23033
G1 X98.629 Y116.025 E6.48812
G1 X97.911 Y116.650 F7800.000
G1 X97.911 Y107.350 E7.33377 F540.000
G1 X102.089 Y107.350 E7.71373
G1 X102.089 Y116.650 E8.55938
G1 X98.004 Y116.650 E8.93081
G1 X98.223 Y116.109 F7800.000
G1 X98.999 Y115.582 F7800.000
G1 X98.979 Y115.562 E8.93348 F1080.000
G1 X98.979 Y114.645 E9.01995
G1 X99.915 Y115.582 E9.14490
G1 X100.832 Y115.582 E9.23136
G1 X98.979 Y113.729 E9.47859
G1 X98.979 Y112.812 E9.56505
G1 X101.021 Y114.855 E9.83755
G1 X101.021 Y113.938 E9.92401
G1 X98.979 Y111.895 E10.19651
G1 X98.979 Y110.979 E10.28297
G1 X101.021 Y113.021 E10.55546
G1 X101.021 Y112.105 E10.64193
G1 X98.979 Y110.062 E10.91442
G1 X98.979 Y109.145 E11.00089
G1 X101.021 Y111.188 E11.27338
G1 X101.021 Y110.271 E11.35985
G1 X99.168 Y108.418 E11.60707
G1 X100.085 Y108.418 E11.69354
G1 X101.021 Y109.355 E11.81849
G1 X101.021 Y108.438 E11.90495
G1 X101.001 Y108.418 E11.90762
M106 S255
M140 S60 ; set bed temperature
G1 F1800.000 E7.40762
G92 E0
G1 Z0.600 F7800.000
G1 X101.810 Y123.525 F7800.000
G1 E4.50000 F1800.000
G1 X101.810 Y132.475 E4.82559 F600.000
G1 X98.190 Y132.475 E4.95730
G1 X98.190 Y123.525 E5.28288
G1 X101.758 Y123.525 E5.41268
G1 X102.160 Y123.175 F7800.000
G1 X102.160 Y132.825 E5.76373 F600.000
G1 X97.840 Y132.825 E5.92091
G1 X97.840 Y123.175 E6.27196
G1 X102.108 Y123.175 E6.42722
G1 X101.985 Y123.478 F7800.000
G1 X98.461 Y123.777 F7800.000
G1 X98.441 Y123.797 E6.42837 F740.174
G1 X98.441 Y124.345 E6.45050
G1 X99.010 Y123.777 E6.48294
G1 X99.559 Y123.777 E6.50507
G1 X98.441 Y124.894 E6.56882
G1 X98.441 Y125.443 E6.59095
G1 X100.108 Y123.777 E6.68600
G1 X100.656 Y123.777 E6.70813
G1 X98.441 Y125.992 E6.83448
G1 X98.441 Y126.540 E6.85661
G1 X101.205 Y123.777 E7.01426
G1 X101.559 Y123.972 E7.03055
G1 X98.441 Y127.089 E7.20836
G1 X98.441 Y127.638 E7.23050
G1 X101.559 Y124.521 E7.40831
G1 X101.559 Y125.069 E7.43045
G1 X98.441 Y128.187 E7.60826
G1 X98.441 Y128.736 E7.63039
G1 X101.559 Y125.618 E7.80821
G1 X101.559 Y126.167 E7.83034
G1 X98.441 Y129.284 E8.00816
G1 X98.441 Y129.833 E8.03029
G1 X101.559 Y126.716 E8.20811
G1 X101.559 Y127.264 E8.23024
G1 X98.441 Y130.382 E8.40806
G1 X98.441 Y130.931 E8.43019
G1 X101.559 Y127.813 E8.60801
G1 X101.559 Y128.362 E8.63014
G1 X98.441 Y131.479 E8.80795
G1 X98.441 Y132.028 E8.83009
G1 X101.559 Y128.911 E9.00790
G1 X101.559 Y129.460 E9.03004
G1 X98.795 Y132.223 E9.18769
G1 X99.344 Y132.223 E9.20982
G1 X101.559 Y130.008 E9.33617
G1 X101.559 Y130.557 E9.35830
G1 X99.892 Y132.223 E9.45334
G1 X100.441 Y132.223 E9.47548
G1 X101.559 Y131.106 E9.53922
G1 X101.559 Y131.655 E9.56136
G1 X100.990 Y132.223 E9.59380
G1 X101.539 Y132.223 E9.61593
G1 X101.559 Y132.203 E9.61707
G1 F1800.000 E5.11707
G92 E0
G1 X101.810 Y116.475 F7800.000
G1 E4.50000 F1800.000
G1 X98.190 Y116.475 E4.63171 F600.000
G1 X98.190 Y107.525 E4.95730
G1 X101.810 Y107.525 E5.08901
G1 X101.810 Y116.423 E5.41268
G1 X102.160 Y116.825 F7800.000
G1 X97.840 Y116.825 E5.56986 F600.000
G1 X97.840 Y107.175 E5.92091
G1 X102.160 Y107.175 E6.07808
G1 X102.160 Y116.772 E6.42722
G1 X101.857 Y116.650 F7800.000
G1 X101.559 Y116.203 F7800.000
G1 X101.539 Y116.223 E6.42837 F740.174
G1 X100.990 Y116.223 E6.45050
G1 X101.559 Y115.655 E6.48294
G1 X101.559 Y115.106 E6.50508
G1 X100.441 Y116.223 E6.56882
G1 X99.892 Y116.223 E6.59095
G1 X101.559 Y114.557 E6.68600
G1 X101.559 Y114.008 E6.70813
G1 X99.344 Y116.223 E6.83448
G1 X98.795 Y116.223 E6.85661
G1 X101.559 Y113.460 E7.01426
G1 X101.559 Y112.911 E7.03639
G1 X98.441 Y116.028 E7.21421
G1 X98.441 Y115.479 E7.23634
G1 X101.559 Y112.362 E7.41416
G1 X101.559 Y111.813 E7.43629
G1 X98.441 Y114.931 E7.61411
G1 X98.441 Y114.382 E7.63624
G1 X101.559 Y111.264 E7.81406
G1 X101.559 Y110.716 E7.83619
G1 X98.441 Y113.833 E8.01400
G1 X98.441 Y113.284 E8.03614
G1 X101.559 Y110.167 E8.21395
G1 X101.559 Y109.618 E8.23609
G1 X98.441 Y112.736 E8.41390
G1 X98.441 Y112.187 E8.43604
G1 X101.559 Y109.069 E8.61385
G1 X101.559 Y108.521 E8.63598
G1 X98.441 Y111.638 E8.81380
G1 X98.441 Y111.089 E8.83593
G1 X101.559 Y107.972 E9.01375
G1 X101.205 Y107.777 E9.03004
G1 X98.441 Y110.540 E9.18769
G1 X98.441 Y109.992 E9.20982
G1 X100.656 Y107.777 E9.33617
G1 X100.108 Y107.777 E9.35830
G1 X98.441 Y109.443 E9.45335
G1 X98.441 Y108.894 E9.47548
G1 X99.559 Y107.777 E9.53922
G1 X99.010 Y107.777 E9.56136
G1 X98.441 Y108.345 E9.59380
G1 X98.441 Y107.797 E9.61593
G1 X98.461 Y107.777 E9.61707
G1 F1800.000 E5.11707
G92 E0
G1 Z0.850 F7800.000
G1 X98.327 Y123.525 F7800.000
G1 E4.50000 F1800.000
G1 X101.673 Y123.525 E4.62173 F600.000
G1 X101.673 Y132.475 E4.94731
G1 X98.327 Y132.475 E5.06904
G1 X98.327 Y123.578 E5.39271
G1 X97.977 Y123.175 F7800.000
G1 X102.023 Y123.175 E5.53990 F600.000
G1 X102.023 Y132.825 E5.89095
G1 X97.977 Y132.825 E6.03814
G1 X97.977 Y123.228 E6.38728
G1 X98.280 Y123.350 F7800.000
G1 X101.401 Y123.777 F7800.000
G1 X101.421 Y123.797 E6.38845 F701.415
G1 X101.421 Y124.359 E6.41171
G1 X100.839 Y123.777 E6.44576
G1 X100.276 Y123.777 E6.46901
G1 X101.421 Y124.922 E6.53595
G1 X101.421 Y125.484 E6.55921
G1 X99.714 Y123.777 E6.65903
G1 X99.152 Y123.777 E6.68229
G1 X101.421 Y126.047 E6.81500
G1 X101.421 Y126.609 E6.83825
G1 X98.594 Y123.781 E7.00357
G1 X98.579 Y124.329 E7.02620
G1 X101.421 Y127.172 E7.19241
G1 X101.421 Y127.734 E7.21566
G1 X98.579 Y124.891 E7.38187
G1 X98.579 Y125.454 E7.40513
G1 X101.421 Y128.296 E7.57134
G1 X101.421 Y128.859 E7.59459
G1 X98.579 Y126.016 E7.76080
G1 X98.579 Y126.579 E7.78405
G1 X101.421 Y129.421 E7.95026
G1 X101.421 Y129.984 E7.97352
G1 X98.579 Y127.141 E8.13973
G1 X98.579 Y127.704 E8.16298
G1 X101.421 Y130.546 E8.32919
G1 X101.421 Y131.109 E8.35244
G1 X98.579 Y128.266 E8.51865
G1 X98.579 Y128.828 E8.54191
G1 X101.421 Y131.671 E8.70811
G1 X101.406 Y132.219 E8.73075
G1 X98.579 Y129.391 E8.89606
G1 X98.579 Y129.953 E8.91932
G1 X100.848 Y132.223 E9.05203
G1 X100.286 Y132.223 E9.07528
G1 X98.579 Y130.516 E9.17511
G1 X98.579 Y131.078 E9.19836
G1 X99.724 Y132.223 E9.26530
G1 X99.161 Y132.223 E9.28855
G1 X98.579 Y131.641 E9.32261
G1 X98.579 Y132.203 E9.34586
G1 X98.599 Y132.223 E9.34703
G1 F1800.000 E4.84703
G92 E0
G1 X98.327 Y116.475 F7800.000
G1 E4.50000 F1800.000
G1 X98.327 Y107.525 E4.82559 F600.000
G1 X101.673 Y107.525 E4.94731
G1 X101.673 Y116.475 E5.27290
G1 X98.379 Y116.475 E5.39271
G1 X97.977 Y116.825 F7800.000
G1 X97.977 Y107.175 E5.74376 F600.000
G1 X102.023 Y107.175 E5.89095
G1 X102.023 Y116.825 E6.24200
G1 X98.029 Y116.825 E6.38728
G1 X98.152 Y116.522 F7800.000
G1 X98.599 Y116.223 F7800.000
G1 X98.579 Y116.203 E6.38845 F701.415
G1 X98.579 Y115.641 E6.41171
G1 X99.161 Y116.223 E6.44576
G1 X99.724 Y116.223 E6.46901
G1 X98.579 Y115.078 E6.53595
G1 X98.579 Y114.516 E6.55921
G1 X100.286 Y116.223 E6.65903
G1 X100.848 Y116.223 E6.68229
G1 X98.579 Y113.953 E6.81500
G1 X98.579 Y113.391 E6.83825
G1 X101.406 Y116.219 E7.00357
G1 X101.421 Y115.671 E7.02620
G1 X98.579 Y112.828 E7.19241
G1 X98.579 Y112.266 E7.21566
G1 X101.421 Y115.109 E7.38187
G1 X101.421 Y114.546 E7.40513
G1 X98.579 Y111.704 E7.57134
G1 X98.579 Y111.141 E7.59459
G1 X101.421 Y113.984 E7.76080
G1 X101.421 Y113.421 E7.78405
G1 X98.579 Y110.579 E7.95026
G1 X98.579 Y110.016 E7.97352
G1 X101.421 Y112.859 E8.13973
G1 X101.421 Y112.296 E8.16298
G1 X98.579 Y109.454 E8.32919
G1 X98.579 Y108.891 E8.35244
G1 X101.421 Y111.734 E8.51865
G1 X101.421 Y111.172 E8.54191
G1 X98.579 Y108.329 E8.70812
G1 X98.594 Y107.781 E8.73075
G1 X101.421 Y110.609 E8.89607
G1 X101.421 Y110.047 E8.91932
G1 X99.152 Y107.777 E9.05203
G1 X99.714 Y107.777 E9.07528
G1 X101.421 Y109.484 E9.17511
G1 X101.421 Y108.922 E9.19836
G1 X100.276 Y107.777 E9.26530
G1 X100.839 Y107.777 E9.28856
G1 X101.421 Y108.359 E9.32261
G1 X101.421 Y107.797 E9.34586
G1 X101.401 Y107.777 E9.34703
G1 F1800.000 E4.84703
G92 E0
G1 Z1.100 F7800.000
G1 X101.517 Y123.525 F7800.000
G1 E4.50000 F1800.000
G1 X101.517 Y132.475 E4.82559 F600.000
G1 X98.483 Y132.475 E4.93594
G1 X98.483 Y123.525 E5.26153
G1 X101.464 Y123.525 E5.36997
G1 X101.867 Y123.175 F7800.000
G1 X101.867 Y132.825 E5.72102 F600.000
G1 X98.133 Y132.825 E5.85684
G1 X98.133 Y123.175 E6.20789
G1 X101.814 Y123.175 E6.34180
G1 X101.692 Y123.478 F7800.000
G1 X98.735 Y123.797 F7800.000
G1 X98.755 Y123.777 E6.34294 F668.007
G1 X99.302 Y123.777 E6.36492
G1 X98.735 Y124.343 E6.39714
G1 X98.735 Y124.890 E6.41912
G1 X99.849 Y123.777 E6.48242
G1 X100.395 Y123.777 E6.50440
G1 X98.735 Y125.437 E6.59879
G1 X98.735 Y125.984 E6.62077
G1 X100.942 Y123.777 E6.74624
G1 X101.265 Y124.000 E6.76203
G1 X98.735 Y126.531 E6.90586
G1 X98.735 Y127.078 E6.92784
G1 X101.265 Y124.547 E7.07166
G1 X101.265 Y125.094 E7.09364
G1 X98.735 Y127.625 E7.23747
G1 X98.735 Y128.171 E7.25945
G1 X101.265 Y125.641 E7.40327
G1 X101.265 Y126.188 E7.42525
G1 X98.735 Y128.718 E7.56908
G1 X98.735 Y129.265 E7.59106
G1 X101.265 Y126.735 E7.73488
G1 X101.265 Y127.282 E7.75686
G1 X98.735 Y129.812 E7.90069
G1 X98.735 Y130.359 E7.92267
G1 X101.265 Y127.829 E8.06650
G1 X101.265 Y128.375 E8.08847
G1 X98.735 Y130.906 E8.23230
G1 X98.735 Y131.453 E8.25428
G1 X101.265 Y128.922 E8.39811
G1 X101.265 Y129.469 E8.42009
G1 X98.735 Y131.999 E8.56391
G1 X99.058 Y132.223 E8.57971
G1 X101.265 Y130.016 E8.70518
G1 X101.265 Y130.563 E8.72716
G1 X99.605 Y132.223 E8.82154
G1 X100.151 Y132.223 E8.84352
G1 X101.265 Y131.110 E8.90683
G1 X101.265 Y131.657 E8.92880
G1 X100.698 Y132.223 E8.96102
G1 X101.245 Y132.223 E8.98300
G1 X101.265 Y132.203 E8.98414
G1 F1800.000 E4.48414
G92 E0
G1 X101.517 Y116.475 F7800.000
G1 E4.50000 F1800.000
G1 X98.483 Y116.475 E4.61036 F600.000
G1 X98.483 Y107.525 E4.93594
G1 X101.517 Y107.525 E5.04630
G1 X101.517 Y116.423 E5.36997
G1 X101.867 Y116.825 F7800.000
G1 X98.133 Y116.825 E5.50579 F600.000
G1 X98.133 Y107.175 E5.85684
G1 X101.867 Y107.175 E5.99266
G1 X101.867 Y116.772 E6.34180
G1 X101.564 Y116.650 F7800.000
G1 X101.265 Y116.203 F7800.000
G1 X101.245 Y116.223 E6.34294 F668.007
G1 X100.698 Y116.223 E6.36492
G1 X101.265 Y115.657 E6.39714
G1 X101.265 Y115.110 E6.41912
G1 X100.151 Y116.223 E6.48242
G1 X99.605 Y116.223 E6.50440
G1 X101.265 Y114.563 E6.59879
G1 X101.265 Y114.016 E6.62077
G1 X99.058 Y116.223 E6.74624
G1 X98.735 Y115.999 E6.76203
G1 X101.265 Y113.469 E6.90586
G1 X101.265 Y112.922 E6.92784
G1 X98.735 Y115.453 E7.07166
G1 X98.735 Y114.906 E7.09364
G1 X101.265 Y112.375 E7.23747
G1 X101.265 Y111.829 E7.25945
G1 X98.735 Y114.359 E7.40327
G1 X98.735 Y113.812 E7.42525
G1 X101.265 Y111.282 E7.56908
G1 X101.265 Y110.735 E7.59106
G1 X98.735 Y113.265 E7.73489
G1 X98.735 Y112.718 E7.75686
G1 X101.265 Y110.188 E7.90069
G1 X101.265 Y109.641 E7.92267
G1 X98.735 Y112.171 E8.06650
G1 X98.735 Y111.625 E8.08848
G1 X101.265 Y109.094 E8.23230
G1 X101.265 Y108.547 E8.25428
G1 X98.735 Y111.078 E8.39811
G1 X98.735 Y110.531 E8.42009
G1 X101.265 Y108.000 E8.56391
G1 X100.942 Y107.777 E8.57971
G1 X98.735 Y109.984 E8.70518
G1 X98.735 Y109.437 E8.72716
G1 X100.395 Y107.777 E8.82154
G1 X99.849 Y107.777 E8.84352
G1 X98.735 Y108.890 E8.90683
G1 X98.735 Y108.343 E8.92881
G1 X99.302 Y107.777 E8.96103
G1 X98.755 Y107.777 E8.98300
G1 X98.735 Y107.797 E8.98414
G1 F1800.000 E4.48414
G92 E0
G1 Z1.350 F7800.000
G1 X98.712 Y123.525 F7800.000
G1 E4.50000 F1800.000
G1 X101.288 Y123.525 E4.59375 F600.000
G1 X101.288 Y132.475 E4.91933
G1 X98.712 Y132.475 E5.01308
G1 X98.712 Y123.578 E5.33675
G1 X98.362 Y123.175 F7800.000
G1 X101.638 Y123.175 E5.45596 F600.000
G1 X101.638 Y132.825 E5.80701
G1 X98.362 Y132.825 E5.92623
G1 X98.362 Y123.228 E6.27537
G1 X98.665 Y123.350 F7800.000
G1 X101.037 Y123.797 F7800.000
G1 X101.017 Y123.777 E6.27651 F610.974
G1 X100.465 Y123.777 E6.29888
G1 X101.037 Y124.348 E6.33165
G1 X101.037 Y124.900 E6.35401
G1 X99.914 Y123.777 E6.41841
G1 X99.362 Y123.777 E6.44077
G1 X101.037 Y125.451 E6.53680
G1 X101.037 Y126.003 E6.55916
G1 X98.963 Y123.929 E6.67806
G1 X98.963 Y124.481 E6.70042
G1 X101.037 Y126.555 E6.81932
G1 X101.037 Y127.106 E6.84168
G1 X98.963 Y125.032 E6.96058
G1 X98.963 Y125.584 E6.98295
G1 X101.037 Y127.658 E7.10185
G1 X101.037 Y128.209 E7.12421
G1 X98.963 Y126.136 E7.24311
G1 X98.963 Y126.687 E7.26547
G1 X101.037 Y128.761 E7.38437
G1 X101.037 Y129.313 E7.40673
G1 X98.963 Y127.239 E7.52563
G1 X98.963 Y127.791 E7.54800
G1 X101.037 Y129.864 E7.66690
G1 X101.037 Y130.416 E7.68926
G1 X98.963 Y128.342 E7.80816
G1 X98.963 Y128.894 E7.83052
G1 X101.037 Y130.968 E7.94942
G1 X101.037 Y131.519 E7.97178
G1 X98.963 Y129.445 E8.09068
G1 X98.963 Y129.997 E8.11305
