; generated by Slic3r 1.1.7 on 2014-09-19 at 09:58:13

; perimeters extrusion width = 0.35mm
; infill extrusion width = 0.39mm
; solid infill extrusion width = 0.39mm
; top infill extrusion width = 0.39mm

G21 ; set units to millimeters
M107
M84 S0 ; don't let go of motors
M108 S155 ; make sure extruder and electronics fans are running
M140 S70
M104 S210
G28 X0 Y0; home X and Y
G1 F10800 ; set high speed
G1 Y20 ; move into the platform along Y
G1 X205 ; move off the platform end along X
G28 Z0 ; home Z now - blobs won't hit the platform
G1 F400
G1 Z10 ; lift Z a little
M190 S70
M109 S210 ; wait for temperature to be reached
G28 Z0 ; home Z
G92 E0 ; reset extruder position to 0
G1 F300 ; set suitable speed
G1 E25 ; extrude 25mm
G92 E0 ; reset extruder position to 0 - needed for cura/SF
G1 F10800 ; set wipe speed
G1 X0 ; wipe nozzle and move to X0
G90 ; use absolute coordinates
G92 E0
M82 ; use absolute distances for extrusion
G1 F1800.000 E-4.50000
G92 E0
G1 Z0.350 F7800.000
G1 X60.386 Y84.056 F7800.000
G1 E4.50000 F1800.000
G1 X62.646 Y83.409 E4.71374 F1080.000
G1 X89.750 Y80.709 E7.19050
G1 X111.750 Y80.709 E9.19095
G1 X113.139 Y80.856 E9.31792
G1 X125.578 Y83.522 E10.47472 F1080.000
G1 X127.703 Y84.384 E10.68326
G1 X129.970 Y86.763 E10.98203
G1 X143.970 Y111.763 E13.58745
G1 X144.814 Y115.000 E13.89163
G1 X144.814 Y125.000 E14.80093
G1 X143.970 Y128.237 E15.10512
G1 X129.970 Y153.237 E17.71053
G1 X128.520 Y155.014 E17.91908
G1 X126.551 Y156.190 E18.12762
G1 X124.854 Y156.591 E18.28614
G1 X97.750 Y159.291 E20.76290
G1 X89.085 Y159.258 E21.55079
G1 X62.646 Y156.591 E23.96710
G1 X60.438 Y155.970 E24.17565
G1 X58.575 Y154.633 E24.38419
G1 X57.279 Y152.740 E24.59273
G1 X56.702 Y150.462 E24.80647
G1 X55.125 Y127.666 E26.88419
G1 X55.141 Y111.872 E28.32041
G1 X56.702 Y89.538 E30.35613
G1 X57.255 Y87.313 E30.56468
G1 X58.535 Y85.409 E30.77322
G1 X60.344 Y84.087 E30.97699
G1 F1800.000 E26.47699
G92 E0
G1 X97.400 Y127.316 F7800.000
G1 E4.50000 F1800.000
G1 X96.200 Y127.316 E4.60912 F378.000
G1 X96.200 Y112.684 E5.93969
G1 X97.400 Y112.684 E6.04880
G1 X97.400 Y127.264 E7.37460
G1 X97.097 Y127.141 F7800.000
G1 X96.800 Y127.004 F7800.000
G1 X96.800 Y112.996 E8.08803 F360.000
G1 F1800.000 E3.58803
G92 E0
G1 X91.300 Y127.316 F7800.000
G1 E4.50000 F1800.000
G1 X90.100 Y127.316 E4.60912 F378.000
G1 X90.100 Y112.684 E5.93969
G1 X91.300 Y112.684 E6.04880
G1 X91.300 Y127.264 E7.37460
G1 X90.997 Y127.141 F7800.000
G1 X90.700 Y127.004 F7800.000
G1 X90.700 Y112.996 E8.08803 F360.000
G1 F1800.000 E3.58803
G92 E0
G1 X82.200 Y127.316 F7800.000
G1 E4.50000 F1800.000
G1 X82.200 Y112.684 E5.83057 F378.000
G1 X83.400 Y112.684 E5.93969
G1 X83.400 Y127.316 E7.27026
G1 X82.252 Y127.316 E7.37460
G1 X82.375 Y127.013 F7800.000
G1 X82.800 Y127.004 F7800.000
G1 X82.800 Y112.996 E8.08803 F360.000
G1 F1800.000 E3.58803
G92 E0
G1 X77.300 Y127.316 F7800.000
G1 E4.50000 F1800.000
G1 X76.100 Y127.316 E4.60912 F378.000
G1 X76.100 Y112.684 E5.93969
G1 X77.300 Y112.684 E6.04880
G1 X77.300 Y127.264 E7.37460
G1 X76.997 Y127.141 F7800.000
G1 X76.700 Y127.004 F7800.000
G1 X76.700 Y112.996 E8.08803 F360.000
G1 F1800.000 E3.58803
G92 E0
G1 X68.200 Y127.316 F7800.000
G1 E4.50000 F1800.000
G1 X68.200 Y112.684 E5.83057 F378.000
G1 X69.400 Y112.684 E5.93969
G1 X69.400 Y127.316 E7.27026
G1 X68.252 Y127.316 E7.37460
G1 X68.375 Y127.013 F7800.000
G1 X68.800 Y127.004 F7800.000
G1 X68.800 Y112.996 E8.08803 F360.000
G1 F1800.000 E3.58803
G92 E0
G1 X63.300 Y127.316 F7800.000
G1 E4.50000 F1800.000
G1 X62.100 Y127.316 E4.60912 F378.000
G1 X62.100 Y112.684 E5.93969
G1 X63.300 Y112.684 E6.04880
G1 X63.300 Y127.264 E7.37460
G1 X62.997 Y127.141 F7800.000
G1 X62.700 Y127.004 F7800.000
G1 X62.700 Y112.996 E8.08803 F360.000
G1 F1800.000 E3.58803
G92 E0
G1 X96.200 Y102.316 F7800.000
G1 E4.50000 F1800.000
G1 X96.200 Y87.684 E5.83057 F378.000
G1 X97.400 Y87.684 E5.93969
G1 X97.400 Y102.316 E7.27026
G1 X96.252 Y102.316 E7.37460
G1 X96.375 Y102.013 F7800.000
G1 X96.800 Y102.004 F7800.000
G1 X96.800 Y87.996 E8.08803 F360.000
G1 F1800.000 E3.58803
G92 E0
G1 X91.300 Y102.316 F7800.000
G1 E4.50000 F1800.000
G1 X90.100 Y102.316 E4.60912 F378.000
G1 X90.100 Y87.684 E5.93969
G1 X91.300 Y87.684 E6.04880
G1 X91.300 Y102.264 E7.37460
G1 X90.997 Y102.141 F7800.000
G1 X90.700 Y102.004 F7800.000
G1 X90.700 Y87.996 E8.08803 F360.000
G1 F1800.000 E3.58803
G92 E0
G1 X110.200 Y102.316 F7800.000
G1 E4.50000 F1800.000
G1 X110.200 Y87.684 E5.83057 F378.000
G1 X111.400 Y87.684 E5.93969
G1 X111.400 Y102.316 E7.27026
G1 X110.253 Y102.316 E7.37460
G1 X110.375 Y102.013 F7800.000
G1 X110.800 Y102.004 F7800.000
G1 X110.800 Y87.996 E8.08803 F360.000
G1 F1800.000 E3.58803
G92 E0
G1 X105.300 Y102.316 F7800.000
G1 E4.50000 F1800.000
G1 X104.100 Y102.316 E4.60912 F378.000
G1 X104.100 Y87.684 E5.93969
G1 X105.300 Y87.684 E6.04880
G1 X105.300 Y102.264 E7.37460
G1 X104.997 Y102.141 F7800.000
G1 X104.700 Y102.004 F7800.000
G1 X104.700 Y87.996 E8.08803 F360.000
G1 F1800.000 E3.58803
G92 E0
G1 X110.200 Y127.316 F7800.000
G1 E4.50000 F1800.000
G1 X110.200 Y112.684 E5.83057 F378.000
G1 X111.400 Y112.684 E5.93969
G1 X111.400 Y127.316 E7.27026
G1 X110.253 Y127.316 E7.37460
G1 X110.375 Y127.013 F7800.000
G1 X110.800 Y127.004 F7800.000
G1 X110.800 Y112.996 E8.08803 F360.000
G1 F1800.000 E3.58803
G92 E0
G1 X105.300 Y127.316 F7800.000
G1 E4.50000 F1800.000
G1 X104.100 Y127.316 E4.60912 F378.000
G1 X104.100 Y112.684 E5.93969
G1 X105.300 Y112.684 E6.04880
G1 X105.300 Y127.264 E7.37460
G1 X104.997 Y127.141 F7800.000
G1 X104.700 Y127.004 F7800.000
G1 X104.700 Y112.996 E8.08803 F360.000
G1 F1800.000 E3.58803
G92 E0
G1 X124.200 Y127.316 F7800.000
G1 E4.50000 F1800.000
G1 X124.200 Y112.684 E5.83057 F378.000
G1 X125.400 Y112.684 E5.93969
G1 X125.400 Y127.316 E7.27026
G1 X124.253 Y127.316 E7.37460
G1 X124.375 Y127.013 F7800.000
G1 X124.800 Y127.004 F7800.000
G1 X124.800 Y112.996 E8.08803 F360.000
G1 F1800.000 E3.58803
G92 E0
G1 X119.300 Y127.316 F7800.000
G1 E4.50000 F1800.000
G1 X118.100 Y127.316 E4.60912 F378.000
G1 X118.100 Y112.684 E5.93969
G1 X119.300 Y112.684 E6.04880
G1 X119.300 Y127.264 E7.37460
G1 X118.997 Y127.141 F7800.000
G1 X118.700 Y127.004 F7800.000
G1 X118.700 Y112.996 E8.08803 F360.000
G1 F1800.000 E3.58803
G92 E0
G1 X96.200 Y152.316 F7800.000
G1 E4.50000 F1800.000
G1 X96.200 Y137.684 E5.83057 F378.000
G1 X97.400 Y137.684 E5.93969
G1 X97.400 Y152.316 E7.27026
G1 X96.252 Y152.316 E7.37460
G1 X96.375 Y152.013 F7800.000
G1 X96.800 Y152.004 F7800.000
G1 X96.800 Y137.996 E8.08803 F360.000
G1 F1800.000 E3.58803
G92 E0
G1 X91.300 Y152.316 F7800.000
G1 E4.50000 F1800.000
G1 X90.100 Y152.316 E4.60912 F378.000
G1 X90.100 Y137.684 E5.93969
G1 X91.300 Y137.684 E6.04880
G1 X91.300 Y152.264 E7.37460
G1 X90.997 Y152.141 F7800.000
G1 X90.700 Y152.004 F7800.000
G1 X90.700 Y137.996 E8.08803 F360.000
G1 F1800.000 E3.58803
G92 E0
G1 X81.214 Y140.975 F7800.000
G1 E4.50000 F1800.000
G1 X81.214 Y149.025 E5.23200 F540.000
G1 X78.286 Y149.025 E5.49832
G1 X78.286 Y140.975 E6.23033
G1 X81.162 Y140.975 E6.49187
G1 X81.839 Y140.350 F7800.000
G1 X81.839 Y149.650 E7.33752 F378.000
G1 X77.661 Y149.650 E7.71748
G1 X77.661 Y140.350 E8.56313
G1 X81.787 Y140.350 E8.93831
G1 X81.664 Y140.653 F7800.000
G1 X80.741 Y141.408 F7800.000
G1 X80.781 Y141.448 E8.94346 F1080.000
G1 X80.781 Y142.365 E9.02681
G1 X79.825 Y141.408 E9.14984
G1 X78.908 Y141.408 E9.23319
G1 X80.781 Y143.281 E9.47410
G1 X80.781 Y144.198 E9.55746
G1 X78.719 Y142.135 E9.82272
G1 X78.719 Y143.052 E9.90608
G1 X80.781 Y145.115 E10.17134
G1 X80.781 Y146.031 E10.25470
G1 X78.719 Y143.969 E10.51996
G1 X78.719 Y144.885 E10.60332
G1 X80.781 Y146.948 E10.86858
G1 X80.781 Y147.865 E10.95194
G1 X78.719 Y145.802 E11.21720
G1 X78.719 Y146.719 E11.30056
G1 X80.592 Y148.592 E11.54146
G1 X79.675 Y148.592 E11.62482
G1 X78.719 Y147.635 E11.74784
G1 X78.719 Y148.552 E11.83120
G1 X78.759 Y148.592 E11.83634
G1 F1800.000 E7.33634
G92 E0
G1 X67.214 Y140.975 F7800.000
G1 E4.50000 F1800.000
G1 X67.214 Y149.025 E5.23200 F540.000
G1 X64.286 Y149.025 E5.49832
G1 X64.286 Y140.975 E6.23033
G1 X67.162 Y140.975 E6.49187
G1 X67.839 Y140.350 F7800.000
G1 X67.839 Y149.650 E7.33752 F378.000
G1 X63.661 Y149.650 E7.71748
G1 X63.661 Y140.350 E8.56313
G1 X67.787 Y140.350 E8.93831
G1 X67.664 Y140.653 F7800.000
G1 X66.741 Y141.408 F7800.000
G1 X66.781 Y141.448 E8.94346 F1080.000
G1 X66.781 Y142.365 E9.02681
G1 X65.825 Y141.408 E9.14984
G1 X64.908 Y141.408 E9.23319
G1 X66.781 Y143.281 E9.47410
G1 X66.781 Y144.198 E9.55746
G1 X64.719 Y142.135 E9.82272
G1 X64.719 Y143.052 E9.90608
G1 X66.781 Y145.115 E10.17134
G1 X66.781 Y146.031 E10.25470
G1 X64.719 Y143.969 E10.51996
G1 X64.719 Y144.885 E10.60332
G1 X66.781 Y146.948 E10.86858
G1 X66.781 Y147.865 E10.95194
G1 X64.719 Y145.802 E11.21720
G1 X64.719 Y146.719 E11.30056
G1 X66.592 Y148.592 E11.54146
G1 X65.675 Y148.592 E11.62482
G1 X64.719 Y147.635 E11.74784
G1 X64.719 Y148.552 E11.83120
G1 X64.759 Y148.592 E11.83634
G1 F1800.000 E7.33634
G92 E0
G1 X109.214 Y140.975 F7800.000
G1 E4.50000 F1800.000
G1 X109.214 Y149.025 E5.23200 F540.000
G1 X106.286 Y149.025 E5.49832
G1 X106.286 Y140.975 E6.23033
G1 X109.162 Y140.975 E6.49187
G1 X109.839 Y140.350 F7800.000
G1 X109.839 Y149.650 E7.33752 F378.000
G1 X105.661 Y149.650 E7.71748
G1 X105.661 Y140.350 E8.56313
G1 X109.787 Y140.350 E8.93831
G1 X109.664 Y140.653 F7800.000
G1 X108.741 Y141.408 F7800.000
G1 X108.781 Y141.448 E8.94346 F1080.000
G1 X108.781 Y142.365 E9.02681
G1 X107.825 Y141.408 E9.14984
G1 X106.908 Y141.408 E9.23319
G1 X108.781 Y143.281 E9.47410
G1 X108.781 Y144.198 E9.55746
G1 X106.719 Y142.135 E9.82272
G1 X106.719 Y143.052 E9.90608
G1 X108.781 Y145.115 E10.17134
G1 X108.781 Y146.031 E10.25470
G1 X106.719 Y143.969 E10.51996
G1 X106.719 Y144.885 E10.60332
G1 X108.781 Y146.948 E10.86858
G1 X108.781 Y147.865 E10.95194
G1 X106.719 Y145.802 E11.21720
G1 X106.719 Y146.719 E11.30056
G1 X108.592 Y148.592 E11.54146
G1 X107.675 Y148.592 E11.62482
G1 X106.719 Y147.635 E11.74784
G1 X106.719 Y148.552 E11.83120
G1 X106.759 Y148.592 E11.83634
G1 F1800.000 E7.33634
G92 E0
G1 X123.214 Y140.975 F7800.000
G1 E4.50000 F1800.000
G1 X123.214 Y149.025 E5.23200 F540.000
G1 X120.286 Y149.025 E5.49832
G1 X120.286 Y140.975 E6.23033
G1 X123.162 Y140.975 E6.49187
G1 X123.839 Y140.350 F7800.000
G1 X123.839 Y149.650 E7.33752 F378.000
G1 X119.661 Y149.650 E7.71748
G1 X119.661 Y140.350 E8.56313
G1 X123.787 Y140.350 E8.93831
G1 X123.664 Y140.653 F7800.000
G1 X122.741 Y141.408 F7800.000
G1 X122.781 Y141.448 E8.94346 F1080.000
G1 X122.781 Y142.365 E9.02681
G1 X121.825 Y141.408 E9.14984
G1 X120.908 Y141.408 E9.23319
G1 X122.781 Y143.281 E9.47410
G1 X122.781 Y144.198 E9.55746
G1 X120.719 Y142.135 E9.82272
G1 X120.719 Y143.052 E9.90608
G1 X122.781 Y145.115 E10.17134
G1 X122.781 Y146.031 E10.25470
G1 X120.719 Y143.969 E10.51996
G1 X120.719 Y144.885 E10.60332
G1 X122.781 Y146.948 E10.86858
G1 X122.781 Y147.865 E10.95194
G1 X120.719 Y145.802 E11.21720
G1 X120.719 Y146.719 E11.30056
G1 X122.592 Y148.592 E11.54146
G1 X121.675 Y148.592 E11.62482
G1 X120.719 Y147.635 E11.74784
G1 X120.719 Y148.552 E11.83120
G1 X120.759 Y148.592 E11.83634
G1 F1800.000 E7.33634
G92 E0
G1 X137.214 Y115.975 F7800.000
G1 E4.50000 F1800.000
G1 X137.214 Y124.025 E5.23200 F540.000
G1 X134.286 Y124.025 E5.49832
G1 X134.286 Y115.975 E6.23033
G1 X137.162 Y115.975 E6.49187
G1 X137.839 Y115.350 F7800.000
G1 X137.839 Y124.650 E7.33752 F378.000
G1 X133.661 Y124.650 E7.71748
G1 X133.661 Y115.350 E8.56313
G1 X137.787 Y115.350 E8.93831
G1 X137.664 Y115.653 F7800.000
G1 X136.741 Y116.408 F7800.000
G1 X136.781 Y116.448 E8.94346 F1080.000
G1 X136.781 Y117.365 E9.02681
G1 X135.825 Y116.408 E9.14984
G1 X134.908 Y116.408 E9.23319
G1 X136.781 Y118.281 E9.47410
G1 X136.781 Y119.198 E9.55746
G1 X134.719 Y117.135 E9.82272
G1 X134.719 Y118.052 E9.90608
G1 X136.781 Y120.115 E10.17134
G1 X136.781 Y121.031 E10.25470
G1 X134.719 Y118.969 E10.51996
G1 X134.719 Y119.885 E10.60332
G1 X136.781 Y121.948 E10.86858
G1 X136.781 Y122.865 E10.95194
G1 X134.719 Y120.802 E11.21720
G1 X134.719 Y121.719 E11.30056
G1 X136.592 Y123.592 E11.54146
G1 X135.675 Y123.592 E11.62482
G1 X134.719 Y122.635 E11.74784
G1 X134.719 Y123.552 E11.83120
G1 X134.759 Y123.592 E11.83634
G1 F1800.000 E7.33634
G92 E0
G1 X123.214 Y90.975 F7800.000
G1 E4.50000 F1800.000
G1 X123.214 Y99.025 E5.23200 F540.000
G1 X120.286 Y99.025 E5.49832
G1 X120.286 Y90.975 E6.23033
G1 X123.162 Y90.975 E6.49187
G1 X123.839 Y90.350 F7800.000
G1 X123.839 Y99.650 E7.33752 F378.000
G1 X119.661 Y99.650 E7.71748
G1 X119.661 Y90.350 E8.56313
G1 X123.787 Y90.350 E8.93831
G1 X123.664 Y90.653 F7800.000
G1 X122.741 Y91.408 F7800.000
G1 X122.781 Y91.448 E8.94346 F1080.000
G1 X122.781 Y92.365 E9.02681
G1 X121.825 Y91.408 E9.14984
G1 X120.908 Y91.408 E9.23319
G1 X122.781 Y93.281 E9.47410
G1 X122.781 Y94.198 E9.55746
G1 X120.719 Y92.135 E9.82272
G1 X120.719 Y93.052 E9.90608
G1 X122.781 Y95.115 E10.17134
G1 X122.781 Y96.031 E10.25470
G1 X120.719 Y93.969 E10.51996
G1 X120.719 Y94.885 E10.60332
G1 X122.781 Y96.948 E10.86858
G1 X122.781 Y97.865 E10.95194
G1 X120.719 Y95.802 E11.21720
G1 X120.719 Y96.719 E11.30056
G1 X122.592 Y98.592 E11.54146
G1 X121.675 Y98.592 E11.62482
G1 X120.719 Y97.635 E11.74784
G1 X120.719 Y98.552 E11.83120
G1 X120.759 Y98.592 E11.83634
G1 F1800.000 E7.33634
G92 E0
G1 X81.214 Y90.975 F7800.000
G1 E4.50000 F1800.000
G1 X81.214 Y99.025 E5.23200 F540.000
G1 X78.286 Y99.025 E5.49832
G1 X78.286 Y90.975 E6.23033
G1 X81.162 Y90.975 E6.49187
G1 X81.839 Y90.350 F7800.000
G1 X81.839 Y99.650 E7.33752 F378.000
G1 X77.661 Y99.650 E7.71748
G1 X77.661 Y90.350 E8.56313
G1 X81.787 Y90.350 E8.93831
G1 X81.664 Y90.653 F7800.000
G1 X80.741 Y91.408 F7800.000
G1 X80.781 Y91.448 E8.94346 F1080.000
G1 X80.781 Y92.365 E9.02681
G1 X79.825 Y91.408 E9.14984
G1 X78.908 Y91.408 E9.23319
G1 X80.781 Y93.281 E9.47410
G1 X80.781 Y94.198 E9.55746
G1 X78.719 Y92.135 E9.82272
G1 X78.719 Y93.052 E9.90608
G1 X80.781 Y95.115 E10.17134
G1 X80.781 Y96.031 E10.25470
G1 X78.719 Y93.969 E10.51996
G1 X78.719 Y94.885 E10.60332
G1 X80.781 Y96.948 E10.86858
G1 X80.781 Y97.865 E10.95194
G1 X78.719 Y95.802 E11.21720
G1 X78.719 Y96.719 E11.30056
G1 X80.592 Y98.592 E11.54146
G1 X79.675 Y98.592 E11.62482
G1 X78.719 Y97.635 E11.74784
G1 X78.719 Y98.552 E11.83120
G1 X78.759 Y98.592 E11.83634
G1 F1800.000 E7.33634
G92 E0
G1 X67.214 Y90.975 F7800.000
G1 E4.50000 F1800.000
G1 X67.214 Y99.025 E5.23200 F540.000
G1 X64.286 Y99.025 E5.49832
G1 X64.286 Y90.975 E6.23033
G1 X67.162 Y90.975 E6.49187
G1 X67.839 Y90.350 F7800.000
G1 X67.839 Y99.650 E7.33752 F378.000
G1 X63.661 Y99.650 E7.71748
G1 X63.661 Y90.350 E8.56313
G1 X67.787 Y90.350 E8.93831
G1 X67.664 Y90.653 F7800.000
G1 X66.741 Y91.408 F7800.000
G1 X66.781 Y91.448 E8.94346 F1080.000
G1 X66.781 Y92.365 E9.02681
G1 X65.825 Y91.408 E9.14984
G1 X64.908 Y91.408 E9.23319
G1 X66.781 Y93.281 E9.47410
G1 X66.781 Y94.198 E9.55746
G1 X64.719 Y92.135 E9.82272
G1 X64.719 Y93.052 E9.90608
G1 X66.781 Y95.115 E10.17134
G1 X66.781 Y96.031 E10.25470
G1 X64.719 Y93.969 E10.51996
G1 X64.719 Y94.885 E10.60332
G1 X66.781 Y96.948 E10.86858
G1 X66.781 Y97.865 E10.95194
G1 X64.719 Y95.802 E11.21720
G1 X64.719 Y96.719 E11.30056
G1 X66.592 Y98.592 E11.54146
G1 X65.675 Y98.592 E11.62482
G1 X64.719 Y97.635 E11.74784
G1 X64.719 Y98.552 E11.83120
G1 X64.759 Y98.592 E11.83634
M140 S60 ; set bed temperature
G1 F1800.000 E7.33634
G92 E0
G1 Z0.600 F7800.000
G1 X96.375 Y127.255 F7800.000
G1 E4.50000 F1800.000
G1 X96.375 Y112.745 E5.02788 F1800.000
G1 X97.225 Y112.745 E5.05881
G1 X97.225 Y127.255 E5.58669
G1 X96.427 Y127.255 E5.61570
G1 X96.025 Y127.605 F7800.000
G1 X96.025 Y112.395 E6.16905 F1260.000
G1 X97.575 Y112.395 E6.22544
G1 X97.575 Y127.605 E6.77879
G1 X96.078 Y127.605 E6.83327
G1 X96.200 Y127.302 F7800.000
G1 X96.800 Y127.080 F7800.000
G1 X96.800 Y112.920 E7.55072 F1200.000
G1 F1800.000 E3.05072
G92 E0
G1 X91.125 Y127.255 F7800.000
G1 E4.50000 F1800.000
G1 X90.275 Y127.255 E4.53092 F1800.000
G1 X90.275 Y112.745 E5.05881
G1 X91.125 Y112.745 E5.08973
G1 X91.125 Y127.203 E5.61570
