; generated by Slic3r 1.1.7 on 2014-10-01 at 14:18:49

; perimeters extrusion width = 0.35mm
; infill extrusion width = 0.39mm
; solid infill extrusion width = 0.39mm
; top infill extrusion width = 0.39mm

G21 ; set units to millimeters
M107
M84 S0 ; don't let go of motors
M108 S155 ; make sure extruder and electronics fans are running
M140 S70
M104 S210
G28 X0 Y0; home X and Y
G1 F10800 ; set high speed
G1 Y20 ; move into the platform along Y
G1 X205 ; move off the platform end along X
G28 Z0 ; home Z now - blobs won't hit the platform
G1 F400
G1 Z10 ; lift Z a little
M190 S70
M109 S210 ; wait for temperature to be reached
G28 Z0 ; home Z
G92 E0 ; reset extruder position to 0
G1 F300 ; set suitable speed
G1 E25 ; extrude 25mm
G92 E0 ; reset extruder position to 0 - needed for cura/SF
G1 F10800 ; set wipe speed
G1 X0 ; wipe nozzle and move to X0
G90 ; use absolute coordinates
G92 E0
M82 ; use absolute distances for extrusion
G1 F1800.000 E-4.50000
G92 E0
G1 Z0.350 F7800.000
G1 X94.795 Y94.795 F7800.000
G1 E4.50000 F1800.000
G1 X94.906 Y94.683 E4.51434 F1080.000
G1 X95.218 Y94.444 E4.55003
G1 X96.715 Y93.580 E4.70720
G1 X97.077 Y93.431 E4.74280
G1 X98.747 Y92.983 E4.90006
G1 X99.126 Y92.933 E4.93484
G1 X100.865 Y92.932 E5.09292
G1 X101.253 Y92.983 E5.12852 F1080.000
G1 X102.923 Y93.431 E5.28578
G1 X103.286 Y93.581 E5.32142
G1 X104.783 Y94.445 E5.47864
G1 X105.094 Y94.683 E5.51425
G1 X106.317 Y95.906 E5.67151
G1 X106.555 Y96.217 E5.70712
G1 X107.200 Y97.238 E5.81690
G1 X110.901 Y104.488 E6.55707
G1 X111.625 Y107.500 E6.83877
G1 X111.625 Y137.835 E9.59708
G1 X111.228 Y140.093 E9.80562
G1 X110.085 Y142.082 E10.01416
G1 X108.332 Y143.561 E10.22270
G1 X106.180 Y144.354 E10.43125
G1 X105.000 Y144.459 E10.53895
G1 X95.000 Y144.459 E11.44825
G1 X92.741 Y144.062 E11.65679
G1 X90.753 Y142.919 E11.86533
G1 X89.274 Y141.166 E12.07388
G1 X88.481 Y139.014 E12.28242
G1 X88.375 Y137.835 E12.39013
G1 X88.375 Y107.500 E15.14844
G1 X89.099 Y104.488 E15.43014
G1 X92.800 Y97.238 E16.17030
G1 X93.444 Y96.218 E16.27999
G1 X93.683 Y95.906 E16.31569
G1 X94.758 Y94.832 E16.45385
G1 F1800.000 E11.95385
G92 E0
G1 X103.125 Y132.025 F7800.000
G1 E4.50000 F1800.000
G1 X96.875 Y132.025 E5.06829 F540.000
G1 X96.875 Y136.860 E5.50790
G1 X95.975 Y136.860 E5.58975
G1 X95.975 Y131.519 E6.07535
G1 X96.683 Y130.966 E6.15705
G1 X97.208 Y130.458 E6.22348
G1 X97.687 Y129.906 E6.28993
G1 X98.115 Y129.314 E6.35637
G1 X98.490 Y128.687 E6.42282
G1 X98.807 Y128.029 E6.48925
G1 X99.066 Y127.345 E6.55570
G1 X99.263 Y126.642 E6.62214
G1 X99.398 Y125.924 E6.68858
G1 X99.469 Y125.196 E6.75502
G1 X99.474 Y124.568 E6.81214
G1 X99.501 Y124.366 E6.83066
G1 X99.553 Y124.242 E6.84293
G1 X99.635 Y124.135 E6.85519
G1 X99.742 Y124.053 E6.86745
G1 X99.866 Y124.001 E6.87972
G1 X100.000 Y123.983 E6.89199
G1 X100.134 Y124.001 E6.90425
G1 X100.258 Y124.053 E6.91652
G1 X100.365 Y124.135 E6.92878
G1 X100.447 Y124.242 E6.94105
G1 X100.499 Y124.366 E6.95331
G1 X100.526 Y124.568 E6.97183
G1 X100.531 Y125.196 E7.02895
G1 X100.602 Y125.924 E7.09539
G1 X100.737 Y126.642 E7.16183
G1 X100.934 Y127.345 E7.22827
G1 X101.193 Y128.029 E7.29472
G1 X101.510 Y128.687 E7.36116
G1 X101.885 Y129.314 E7.42760
G1 X102.313 Y129.906 E7.49405
G1 X102.792 Y130.458 E7.56048
G1 X103.317 Y130.966 E7.62693
G1 X104.025 Y131.519 E7.70862
G1 X104.025 Y136.860 E8.19422
G1 X103.125 Y136.860 E8.27608
G1 X103.125 Y132.078 E8.71091
G1 X102.500 Y132.650 F7800.000
G1 X97.500 Y132.650 E9.16556 F378.000
G1 X97.500 Y137.485 E9.60516
G1 X95.350 Y137.485 E9.80066
G1 X95.350 Y131.186 E10.37335
G1 X95.743 Y130.922 E10.41641
G1 X96.268 Y130.497 E10.47784
G1 X96.754 Y130.028 E10.53927
G1 X97.197 Y129.518 E10.60070
G1 X97.593 Y128.970 E10.66212
G1 X97.939 Y128.390 E10.72355
G1 X98.233 Y127.782 E10.78498
G1 X98.472 Y127.150 E10.84641
G1 X98.654 Y126.500 E10.90784
G1 X98.779 Y125.836 E10.96926
G1 X98.844 Y125.163 E11.03069
G1 X98.850 Y124.524 E11.08877
G1 X98.892 Y124.203 E11.11824
G1 X99.007 Y123.927 E11.14547
G1 X99.189 Y123.689 E11.17270
G1 X99.427 Y123.507 E11.19992
G1 X99.703 Y123.392 E11.22715
G1 X100.000 Y123.353 E11.25437
G1 X100.297 Y123.392 E11.28160
G1 X100.573 Y123.507 E11.30883
G1 X100.811 Y123.689 E11.33605
G1 X100.993 Y123.927 E11.36328
G1 X101.108 Y124.203 E11.39051
G1 X101.150 Y124.524 E11.41998
G1 X101.156 Y125.163 E11.47806
G1 X101.221 Y125.836 E11.53949
G1 X101.346 Y126.500 E11.60091
G1 X101.528 Y127.150 E11.66234
G1 X101.767 Y127.782 E11.72377
G1 X102.061 Y128.390 E11.78519
G1 X102.407 Y128.970 E11.84662
G1 X102.803 Y129.518 E11.90805
G1 X103.246 Y130.028 E11.96948
G1 X103.732 Y130.497 E12.03091
G1 X104.257 Y130.922 E12.09233
G1 X104.650 Y131.186 E12.13540
G1 X104.650 Y137.485 E12.70809
G1 X102.500 Y137.485 E12.90359
G1 X102.500 Y132.703 E13.33842
G1 X102.500 Y132.300 F7800.000
G1 X102.577 Y131.592 F7800.000
G1 X99.199 Y128.214 E13.77284 F1080.000
G1 X100.212 Y126.390 F7800.000
G1 X100.257 Y126.435 E13.77863 F1080.000
G1 X99.670 Y126.794 E13.84119
G1 X100.623 Y127.746 E13.96366
G1 X99.460 Y127.529 E14.07125
G1 X101.626 Y129.695 E14.34981
G1 X101.631 Y131.592 F7800.000
G1 X98.891 Y128.852 E14.70222 F1080.000
G1 X98.540 Y129.447 E14.76503
G1 X100.686 Y131.592 E15.04089
G1 X99.740 Y131.592 E15.12689
G1 X98.151 Y130.003 E15.33119
G1 X97.725 Y130.523 E15.39230
G1 X98.794 Y131.592 E15.52975
G1 X97.848 Y131.592 E15.61575
G1 X97.263 Y131.007 E15.69097
G1 X96.850 Y131.540 E15.75226
G1 X96.903 Y131.592 E15.75898
G1 X100.000 Y125.957 F7800.000
G1 X100.000 Y124.500 E15.83319 F360.000
G1 X99.889 Y124.333 E15.84339
G1 F1800.000 E11.34339
G92 E0
G1 X103.125 Y108.525 F7800.000
G1 E4.50000 F1800.000
G1 X96.875 Y108.525 E5.06829 F540.000
G1 X96.875 Y113.360 E5.50790
G1 X95.975 Y113.360 E5.58975
G1 X95.975 Y108.019 E6.07535
G1 X96.683 Y107.466 E6.15705
G1 X97.208 Y106.958 E6.22348
G1 X97.687 Y106.406 E6.28993
G1 X98.115 Y105.814 E6.35637
G1 X98.490 Y105.187 E6.42282
G1 X98.807 Y104.529 E6.48925
G1 X99.066 Y103.845 E6.55570
G1 X99.263 Y103.142 E6.62214
G1 X99.398 Y102.424 E6.68858
G1 X99.469 Y101.696 E6.75502
G1 X99.474 Y101.068 E6.81214
G1 X99.501 Y100.866 E6.83066
G1 X99.553 Y100.742 E6.84293
G1 X99.635 Y100.635 E6.85519
G1 X99.742 Y100.553 E6.86745
G1 X99.866 Y100.501 E6.87972
G1 X100.000 Y100.483 E6.89199
G1 X100.134 Y100.501 E6.90425
G1 X100.258 Y100.553 E6.91652
G1 X100.365 Y100.635 E6.92878
G1 X100.447 Y100.742 E6.94105
G1 X100.499 Y100.866 E6.95331
G1 X100.526 Y101.068 E6.97183
G1 X100.531 Y101.696 E7.02895
G1 X100.602 Y102.424 E7.09539
G1 X100.737 Y103.142 E7.16183
G1 X100.934 Y103.845 E7.22827
G1 X101.193 Y104.529 E7.29472
G1 X101.510 Y105.187 E7.36116
G1 X101.885 Y105.814 E7.42760
G1 X102.313 Y106.406 E7.49405
G1 X102.792 Y106.958 E7.56048
G1 X103.317 Y107.466 E7.62693
G1 X104.025 Y108.019 E7.70862
G1 X104.025 Y113.360 E8.19422
G1 X103.125 Y113.360 E8.27608
G1 X103.125 Y108.578 E8.71091
G1 X102.500 Y109.150 F7800.000
G1 X97.500 Y109.150 E9.16556 F378.000
G1 X97.500 Y113.985 E9.60516
G1 X95.350 Y113.985 E9.80066
G1 X95.350 Y107.686 E10.37335
G1 X95.743 Y107.422 E10.41641
G1 X96.268 Y106.997 E10.47784
G1 X96.754 Y106.528 E10.53927
G1 X97.197 Y106.018 E10.60070
G1 X97.593 Y105.470 E10.66212
G1 X97.939 Y104.890 E10.72355
G1 X98.233 Y104.282 E10.78498
G1 X98.472 Y103.650 E10.84641
G1 X98.654 Y103.000 E10.90784
G1 X98.779 Y102.336 E10.96926
G1 X98.844 Y101.663 E11.03069
G1 X98.850 Y101.024 E11.08877
G1 X98.892 Y100.703 E11.11824
G1 X99.007 Y100.427 E11.14547
G1 X99.189 Y100.189 E11.17270
G1 X99.427 Y100.007 E11.19992
G1 X99.703 Y99.892 E11.22715
G1 X100.000 Y99.853 E11.25437
G1 X100.297 Y99.892 E11.28160
G1 X100.573 Y100.007 E11.30883
G1 X100.811 Y100.189 E11.33605
G1 X100.993 Y100.427 E11.36328
G1 X101.108 Y100.703 E11.39051
G1 X101.150 Y101.024 E11.41998
G1 X101.156 Y101.663 E11.47806
G1 X101.221 Y102.336 E11.53949
G1 X101.346 Y103.000 E11.60091
G1 X101.528 Y103.650 E11.66234
G1 X101.767 Y104.282 E11.72377
G1 X102.061 Y104.890 E11.78519
G1 X102.407 Y105.470 E11.84662
G1 X102.803 Y106.018 E11.90805
G1 X103.246 Y106.528 E11.96948
G1 X103.732 Y106.997 E12.03091
G1 X104.257 Y107.422 E12.09233
G1 X104.650 Y107.686 E12.13540
G1 X104.650 Y113.985 E12.70809
G1 X102.500 Y113.985 E12.90359
G1 X102.500 Y109.203 E13.33842
G1 X102.500 Y108.800 F7800.000
G1 X102.577 Y108.092 F7800.000
G1 X99.199 Y104.714 E13.77284 F1080.000
G1 X100.212 Y102.890 F7800.000
G1 X100.257 Y102.935 E13.77863 F1080.000
G1 X99.670 Y103.294 E13.84119
G1 X100.623 Y104.246 E13.96366
G1 X99.460 Y104.029 E14.07125
G1 X101.626 Y106.195 E14.34981
G1 X101.631 Y108.092 F7800.000
G1 X98.891 Y105.352 E14.70222 F1080.000
G1 X98.540 Y105.947 E14.76503
G1 X100.686 Y108.092 E15.04089
G1 X99.740 Y108.092 E15.12689
G1 X98.151 Y106.503 E15.33119
G1 X97.725 Y107.023 E15.39230
G1 X98.794 Y108.092 E15.52975
G1 X97.848 Y108.092 E15.61575
G1 X97.263 Y107.507 E15.69097
G1 X96.850 Y108.040 E15.75226
G1 X96.903 Y108.092 E15.75898
G1 X100.000 Y102.457 F7800.000
G1 X100.000 Y101.000 E15.83319 F360.000
G1 X99.889 Y100.833 E15.84339
M106 S255
M140 S60 ; set bed temperature
G1 F1800.000 E11.34339
G92 E0
G1 Z0.600 F7800.000
G1 X102.675 Y132.475 F7800.000
G1 E4.50000 F1800.000
G1 X97.325 Y132.475 E4.69462 F773.319
G1 X97.325 Y138.010 E4.89596
M106 S255
G1 X97.325 Y138.034 E4.89693 F3600.000
G1 X95.525 Y138.034 E4.96893
G1 X95.525 Y138.010 E4.96990
M106 S255
G1 X95.525 Y131.280 E5.21473 F773.319
G1 X95.847 Y131.063 E5.22885
G1 X96.384 Y130.629 E5.25398
G1 X96.881 Y130.149 E5.27912
G1 X97.334 Y129.626 E5.30426
G1 X97.739 Y129.067 E5.32939
G1 X98.093 Y128.473 E5.35453
G1 X98.394 Y127.851 E5.37967
G1 X98.638 Y127.205 E5.40481
G1 X98.825 Y126.539 E5.42994
G1 X98.952 Y125.860 E5.45508
G1 X99.019 Y125.172 E5.48022
G1 X99.025 Y124.537 E5.50334
G1 X99.063 Y124.249 E5.51391
G1 X99.160 Y124.015 E5.52313
G1 X99.314 Y123.814 E5.53234
G1 X99.515 Y123.660 E5.54156
G1 X99.749 Y123.563 E5.55077
G1 X100.000 Y123.530 E5.55999
G1 X100.251 Y123.563 E5.56921
G1 X100.485 Y123.660 E5.57842
G1 X100.686 Y123.814 E5.58764
G1 X100.840 Y124.015 E5.59685
G1 X100.937 Y124.249 E5.60607
G1 X100.975 Y124.537 E5.61664
G1 X100.981 Y125.172 E5.63976
G1 X101.048 Y125.860 E5.66490
G1 X101.175 Y126.539 E5.69004
G1 X101.362 Y127.205 E5.71518
G1 X101.606 Y127.851 E5.74031
G1 X101.907 Y128.473 E5.76545
G1 X102.261 Y129.067 E5.79059
G1 X102.666 Y129.626 E5.81572
G1 X103.119 Y130.149 E5.84086
G1 X103.616 Y130.629 E5.86600
G1 X104.153 Y131.063 E5.89114
G1 X104.475 Y131.280 E5.90526
G1 X104.475 Y138.010 E6.15008
M106 S255
G1 X104.475 Y138.034 E6.15105 F3600.000
G1 X102.675 Y138.034 E6.22305
G1 X102.675 Y138.010 E6.22402
M106 S255
G1 X102.675 Y132.528 E6.42345 F773.319
G1 X102.325 Y132.825 F7800.000
G1 X97.675 Y132.825 E6.59261 F600.000
G1 X97.675 Y138.010 E6.78121
M106 S255
G1 X97.675 Y138.384 E6.79618 F3600.000
G1 X95.175 Y138.384 E6.89618
G1 X95.175 Y138.010 E6.91115
M106 S255
G1 X95.175 Y131.093 E7.16276 F600.000
G1 X95.639 Y130.781 E7.18310
G1 X96.152 Y130.366 E7.20711
G1 X96.627 Y129.908 E7.23113
G1 X97.060 Y129.409 E7.25514
G1 X97.446 Y128.874 E7.27915
G1 X97.785 Y128.307 E7.30317
G1 X98.072 Y127.713 E7.32718
G1 X98.305 Y127.095 E7.35119
G1 X98.484 Y126.460 E7.37521
G1 X98.605 Y125.811 E7.39922
G1 X98.669 Y125.154 E7.42323
G1 X98.675 Y124.512 E7.44658
G1 X98.722 Y124.157 E7.45960
G1 X98.854 Y123.838 E7.47217
G1 X99.064 Y123.564 E7.48473
G1 X99.338 Y123.354 E7.49730
G1 X99.657 Y123.222 E7.50987
G1 X100.000 Y123.177 E7.52244
G1 X100.343 Y123.222 E7.53501
G1 X100.662 Y123.354 E7.54758
G1 X100.936 Y123.564 E7.56015
G1 X101.146 Y123.838 E7.57272
G1 X101.278 Y124.157 E7.58528
G1 X101.325 Y124.512 E7.59830
G1 X101.331 Y125.154 E7.62165
G1 X101.395 Y125.811 E7.64566
G1 X101.516 Y126.460 E7.66967
G1 X101.695 Y127.095 E7.69369
G1 X101.928 Y127.713 E7.71770
G1 X102.215 Y128.307 E7.74171
G1 X102.554 Y128.874 E7.76573
G1 X102.940 Y129.409 E7.78974
G1 X103.373 Y129.908 E7.81375
G1 X103.848 Y130.366 E7.83777
G1 X104.361 Y130.781 E7.86178
G1 X104.825 Y131.093 E7.88212
G1 X104.825 Y138.010 E8.13373
M106 S255
G1 X104.825 Y138.384 E8.14870 F3600.000
G1 X102.325 Y138.384 E8.24870
G1 X102.325 Y138.010 E8.26367
M106 S255
G1 X102.325 Y132.878 E8.45037 F600.000
G1 X102.628 Y137.835 F7800.000
G1 X104.233 Y136.828 F7800.000
G1 X104.193 Y136.868 E8.45263 F1546.639
G1 X103.645 Y136.868 E8.47458
G1 X104.233 Y136.279 E8.50789
G1 X104.233 Y135.730 E8.52984
G1 X103.096 Y136.868 E8.59419
G1 X102.917 Y136.499 E8.61061
G1 X104.233 Y135.182 E8.68511
G1 X104.233 Y134.633 E8.70706
G1 X102.917 Y135.950 E8.78155
G1 X102.917 Y135.401 E8.80350
G1 X104.233 Y134.084 E8.87799
G1 X104.233 Y133.535 E8.89994
G1 X102.917 Y134.852 E8.97444
G1 X102.917 Y134.303 E8.99639
G1 X104.233 Y132.987 E9.07088
G1 X104.233 Y132.438 E9.09283
G1 X102.917 Y133.755 E9.16733
G1 X102.917 Y133.206 E9.18928
G1 X104.233 Y131.889 E9.26377
G1 X104.193 Y131.381 E9.28416
G1 X102.917 Y132.657 E9.35634
G1 X102.791 Y132.233 E9.37401
G1 X103.875 Y131.149 E9.43533
G1 X103.572 Y130.904 E9.45094
G1 X102.243 Y132.233 E9.52614
G1 X101.694 Y132.233 E9.54809
G1 X103.284 Y130.644 E9.63801
G1 X103.004 Y130.374 E9.65354
G1 X101.145 Y132.233 E9.75872
G1 X100.596 Y132.233 E9.78067
G1 X102.744 Y130.086 E9.90217
G1 X102.489 Y129.792 E9.91773
G1 X100.048 Y132.233 E10.05586
G1 X99.499 Y132.233 E10.07781
G1 X102.258 Y129.474 E10.23388
G1 X102.031 Y129.153 E10.24963
G1 X98.950 Y132.233 E10.42391
G1 X98.401 Y132.233 E10.44586
G1 X101.826 Y128.809 E10.63959
G1 X101.630 Y128.456 E10.65573
G1 X97.853 Y132.233 E10.86943
G1 X97.304 Y132.233 E10.89138
G1 X101.451 Y128.086 E11.12601
G1 X101.290 Y127.698 E11.14280
G1 X95.767 Y133.222 E11.45527
G1 X95.767 Y132.673 E11.47722
G1 X101.140 Y127.300 E11.78117
G1 X101.018 Y126.873 E11.79893
G1 X95.767 Y132.124 E12.09599
G1 X95.767 Y131.576 E12.11794
G1 X96.480 Y130.862 E12.15831
G1 X97.251 Y130.091 F7800.000
G1 X100.909 Y126.433 E12.36528 F1546.639
G1 X100.823 Y125.970 E12.38409
G1 X98.400 Y128.393 E12.52114
G1 X98.809 Y127.435 F7800.000
G1 X100.768 Y125.477 E12.63195 F1546.639
G1 X100.737 Y124.958 E12.65272
G1 X99.044 Y126.652 E12.74851
G1 X99.177 Y125.970 E12.77630
G1 X100.718 Y124.429 E12.86343
G1 X100.549 Y124.049 E12.88006
G1 X99.244 Y125.354 E12.95387
G1 X99.264 Y124.785 E12.97663
G1 X100.233 Y123.817 E13.03144
G1 X99.609 Y123.892 E13.05659
G1 X99.392 Y124.109 E13.06885
G1 X97.083 Y132.454 F7800.000
G1 X95.767 Y133.771 E13.14334 F1546.639
G1 X95.767 Y134.319 E13.16529
G1 X97.083 Y133.003 E13.23978
G1 X97.083 Y133.551 E13.26173
G1 X95.767 Y134.868 E13.33623
G1 X95.767 Y135.417 E13.35818
G1 X97.083 Y134.100 E13.43267
G1 X97.083 Y134.649 E13.45462
G1 X95.767 Y135.966 E13.52912
G1 X95.767 Y136.514 E13.55107
G1 X97.083 Y135.198 E13.62556
G1 X97.083 Y135.746 E13.64751
G1 X95.962 Y136.868 E13.71096
G1 X96.511 Y136.868 E13.73291
G1 X97.083 Y136.295 E13.76531
G1 X97.083 Y136.844 E13.78727
G1 X97.059 Y136.868 E13.78863
G1 F1800.000 E9.28863
G92 E0
G1 X102.937 Y137.021 F7800.000
G1 E4.50000 F1800.000
M106 S255
G1 X104.213 Y137.021 E4.55107 F3600.000
G1 X104.213 Y137.772 E4.58112
G1 X102.937 Y137.772 E4.63219
M106 S255
G1 F1800.000 E0.13219
G92 E0
G1 X95.787 Y137.772 F7800.000
G1 E4.50000 F1800.000
M106 S255
G1 X97.063 Y137.772 E4.55107 F3600.000
G1 X97.063 Y137.021 E4.58112
G1 X95.787 Y137.021 E4.63219
M106 S255
G1 F1800.000 E0.13219
G92 E0
G1 X102.675 Y108.975 F7800.000
G1 E4.50000 F1800.000
G1 X97.325 Y108.975 E4.69462 F773.319
G1 X97.325 Y114.510 E4.89596
M106 S255
G1 X97.325 Y114.534 E4.89693 F3600.000
G1 X95.525 Y114.534 E4.96893
G1 X95.525 Y114.510 E4.96990
M106 S255
G1 X95.525 Y107.780 E5.21473 F773.319
G1 X95.847 Y107.563 E5.22885
G1 X96.384 Y107.129 E5.25398
G1 X96.881 Y106.649 E5.27912
G1 X97.334 Y106.126 E5.30426
G1 X97.739 Y105.567 E5.32939
G1 X98.093 Y104.973 E5.35453
G1 X98.394 Y104.351 E5.37967
G1 X98.638 Y103.705 E5.40481
G1 X98.825 Y103.039 E5.42994
G1 X98.952 Y102.360 E5.45508
G1 X99.019 Y101.672 E5.48022
G1 X99.025 Y101.037 E5.50334
G1 X99.063 Y100.749 E5.51391
G1 X99.160 Y100.515 E5.52313
G1 X99.314 Y100.314 E5.53234
G1 X99.515 Y100.160 E5.54156
G1 X99.749 Y100.063 E5.55077
G1 X100.000 Y100.030 E5.55999
G1 X100.251 Y100.063 E5.56921
