; generated by Slic3r 1.1.7 on 2014-09-19 at 12:23:43

; perimeters extrusion width = 0.35mm
; infill extrusion width = 0.39mm
; solid infill extrusion width = 0.39mm
; top infill extrusion width = 0.39mm

G21 ; set units to millimeters
M107
M84 S0 ; don't let go of motors
M108 S155 ; make sure extruder and electronics fans are running
M140 S70
M104 S210
G28 X0 Y0; home X and Y
G1 F10800 ; set high speed
G1 Y20 ; move into the platform along Y
G1 X205 ; move off the platform end along X
G28 Z0 ; home Z now - blobs won't hit the platform
G1 F400
G1 Z10 ; lift Z a little
M190 S70
M109 S210 ; wait for temperature to be reached
G28 Z0 ; home Z
G92 E0 ; reset extruder position to 0
G1 F300 ; set suitable speed
G1 E25 ; extrude 25mm
G92 E0 ; reset extruder position to 0 - needed for cura/SF
G1 F10800 ; set wipe speed
G1 X0 ; wipe nozzle and move to X0
G90 ; use absolute coordinates
G92 E0
M82 ; use absolute distances for extrusion
G1 F1800.000 E-4.50000
G92 E0
G1 Z0.350 F7800.000
G1 X86.699 Y110.518 F7800.000
G1 E4.50000 F1800.000
G1 X88.524 Y109.130 E4.70854 F840.856
G1 X91.561 Y108.393 E4.99264
G1 X108.439 Y108.393 E6.52741
G1 X110.698 Y108.790 E6.73595
G1 X112.686 Y109.933 E6.94449 F840.856
G1 X114.165 Y111.686 E7.15304
G1 X115.056 Y114.681 E7.43714
G1 X115.565 Y124.683 E8.34785
G1 X115.283 Y126.959 E8.55639
G1 X114.243 Y129.003 E8.76493
G1 X112.567 Y130.570 E8.97347
G1 X110.458 Y131.471 E9.18202
G1 X108.949 Y131.645 E9.32021
G1 X91.051 Y131.645 E10.94760
G1 X88.793 Y131.248 E11.15615
G1 X86.804 Y130.105 E11.36469
G1 X85.325 Y128.352 E11.57323
G1 X84.532 Y126.200 E11.78177
G1 X84.435 Y124.683 E11.91997
G1 X84.944 Y114.681 E12.83068
G1 X85.456 Y112.445 E13.03922
G1 X86.670 Y110.562 E13.24299
G1 F1800.000 E8.74299
G92 E0
G1 X107.923 Y124.045 F7800.000
G1 E4.50000 F1800.000
G1 X104.077 Y124.045 E4.84969 F600.000
G1 X104.487 Y115.993 E5.58287
G1 X107.513 Y115.993 E5.85799
G1 X107.920 Y123.993 E6.58640
G1 X108.580 Y124.670 F7800.000
G1 X103.420 Y124.670 E7.05566 F600.000
G1 X103.893 Y115.368 E7.90264
G1 X108.107 Y115.368 E8.28576
G1 X108.578 Y124.618 E9.12796
G1 X108.274 Y124.500 F7800.000
G1 X104.535 Y123.573 F7800.000
G1 X104.574 Y123.612 E9.13298 F840.856
G1 X105.541 Y123.612 E9.22096
G1 X104.582 Y122.653 E9.34437
G1 X104.629 Y121.732 E9.42819
G1 X106.509 Y123.612 E9.66999
G1 X107.451 Y123.587 E9.75571
G1 X104.675 Y120.811 E10.11267
G1 X104.722 Y119.891 E10.19649
G1 X107.415 Y122.583 E10.54273
G1 X107.363 Y121.564 E10.63555
G1 X104.769 Y118.970 E10.96909
G1 X104.816 Y118.050 E11.05291
G1 X107.311 Y120.544 E11.37374
G1 X107.259 Y119.525 E11.46656
G1 X104.863 Y117.129 E11.77469
G1 X105.127 Y116.426 E11.84300
G1 X107.207 Y118.506 E12.11047
G1 X107.155 Y117.486 E12.20328
G1 X106.095 Y116.426 E12.33966
G1 X107.103 Y116.467 E12.43145
G1 X107.062 Y116.426 E12.43673
G1 F1800.000 E7.93673
G92 E0
G1 X95.923 Y124.045 F7800.000
G1 E4.50000 F1800.000
G1 X92.077 Y124.045 E4.84969 F600.000
G1 X92.487 Y115.993 E5.58287
G1 X95.513 Y115.993 E5.85799
G1 X95.920 Y123.993 E6.58640
G1 X96.580 Y124.670 F7800.000
G1 X91.420 Y124.670 E7.05566 F600.000
G1 X91.893 Y115.368 E7.90264
G1 X96.107 Y115.368 E8.28576
G1 X96.578 Y124.618 E9.12796
G1 X96.274 Y124.500 F7800.000
G1 X92.535 Y123.573 F7800.000
G1 X92.574 Y123.612 E9.13298 F840.856
G1 X93.541 Y123.612 E9.22096
G1 X92.582 Y122.653 E9.34437
G1 X92.629 Y121.732 E9.42819
G1 X94.509 Y123.612 E9.66999
G1 X95.451 Y123.587 E9.75571
G1 X92.675 Y120.811 E10.11267
G1 X92.722 Y119.891 E10.19649
G1 X95.415 Y122.583 E10.54273
G1 X95.363 Y121.564 E10.63555
G1 X92.769 Y118.970 E10.96909
G1 X92.816 Y118.050 E11.05291
G1 X95.311 Y120.544 E11.37374
G1 X95.259 Y119.525 E11.46656
G1 X92.863 Y117.129 E11.77469
G1 X93.127 Y116.426 E11.84300
G1 X95.207 Y118.506 E12.11047
G1 X95.155 Y117.486 E12.20328
G1 X94.095 Y116.426 E12.33966
G1 X95.103 Y116.467 E12.43145
G1 X95.062 Y116.426 E12.43673
M106 S255
M140 S60 ; set bed temperature
G1 F1800.000 E7.93673
G92 E0
G1 Z0.600 F7800.000
G1 X108.292 Y124.488 F7800.000
G1 E4.50000 F1800.000
G1 X103.708 Y124.488 E4.66677 F600.000
G1 X104.164 Y115.536 E4.99287
G1 X107.836 Y115.536 E5.12648
G1 X108.290 Y124.436 E5.45067
G1 X108.660 Y124.838 F7800.000
G1 X103.340 Y124.838 E5.64423 F600.000
G1 X103.831 Y115.186 E5.99583
G1 X108.169 Y115.186 E6.15364
G1 X108.658 Y124.786 E6.50332
G1 X108.354 Y124.669 F7800.000
G1 X108.036 Y124.208 F7800.000
G1 X107.997 Y124.247 E6.50553 F906.741
G1 X107.450 Y124.247 E6.52741
G1 X108.010 Y123.687 E6.55907
G1 X107.983 Y123.167 E6.57991
G1 X106.903 Y124.247 E6.64101
G1 X106.356 Y124.247 E6.66289
G1 X107.956 Y122.646 E6.75343
G1 X107.930 Y122.126 E6.77428
G1 X105.809 Y124.247 E6.89426
G1 X105.262 Y124.247 E6.91614
G1 X107.903 Y121.605 E7.06557
G1 X107.877 Y121.085 E7.08642
G1 X104.715 Y124.247 E7.26529
G1 X104.168 Y124.247 E7.28717
G1 X107.850 Y120.564 E7.49549
G1 X107.824 Y120.044 E7.51634
G1 X103.980 Y123.888 E7.73377
G1 X104.010 Y123.311 E7.75685
G1 X107.797 Y119.523 E7.97112
G1 X107.771 Y119.003 E7.99197
G1 X104.039 Y122.735 E8.20308
G1 X104.068 Y122.158 E8.22617
G1 X107.744 Y118.482 E8.43412
G1 X107.718 Y117.962 E8.45496
G1 X104.098 Y121.582 E8.65976
G1 X104.127 Y121.006 E8.68284
G1 X107.691 Y117.441 E8.88447
G1 X107.665 Y116.921 E8.90532
G1 X104.156 Y120.429 E9.10380
G1 X104.186 Y119.853 E9.12688
G1 X107.638 Y116.400 E9.32219
G1 X107.612 Y115.880 E9.34304
G1 X104.215 Y119.277 E9.53520
G1 X104.244 Y118.700 E9.55828
G1 X107.167 Y115.777 E9.72362
G1 X106.620 Y115.777 E9.74550
G1 X104.274 Y118.124 E9.87824
G1 X104.303 Y117.548 E9.90132
G1 X106.073 Y115.777 E10.00146
G1 X105.526 Y115.777 E10.02334
G1 X104.332 Y116.971 E10.09087
G1 X104.362 Y116.395 E10.11396
G1 X104.979 Y115.777 E10.14888
G1 X104.432 Y115.777 E10.17076
G1 X104.391 Y115.819 E10.17309
G1 F1800.000 E5.67309
G92 E0
G1 X96.292 Y124.488 F7800.000
G1 E4.50000 F1800.000
G1 X91.708 Y124.488 E4.66677 F600.000
G1 X92.164 Y115.536 E4.99287
G1 X95.836 Y115.536 E5.12648
G1 X96.290 Y124.436 E5.45067
G1 X96.660 Y124.838 F7800.000
G1 X91.340 Y124.838 E5.64423 F600.000
G1 X91.831 Y115.186 E5.99583
G1 X96.169 Y115.186 E6.15364
G1 X96.658 Y124.786 E6.50332
G1 X96.354 Y124.669 F7800.000
G1 X96.036 Y124.208 F7800.000
G1 X95.997 Y124.247 E6.50553 F906.741
G1 X95.450 Y124.247 E6.52741
G1 X96.010 Y123.687 E6.55907
G1 X95.983 Y123.167 E6.57991
G1 X94.903 Y124.247 E6.64101
G1 X94.356 Y124.247 E6.66289
G1 X95.956 Y122.646 E6.75343
G1 X95.930 Y122.126 E6.77428
G1 X93.809 Y124.247 E6.89426
G1 X93.262 Y124.247 E6.91614
G1 X95.903 Y121.605 E7.06557
G1 X95.877 Y121.085 E7.08642
G1 X92.715 Y124.247 E7.26529
G1 X92.168 Y124.247 E7.28717
G1 X95.850 Y120.564 E7.49549
G1 X95.824 Y120.044 E7.51634
G1 X91.980 Y123.888 E7.73377
G1 X92.010 Y123.311 E7.75685
G1 X95.797 Y119.523 E7.97112
G1 X95.771 Y119.003 E7.99197
G1 X92.039 Y122.735 E8.20308
G1 X92.068 Y122.158 E8.22617
G1 X95.744 Y118.482 E8.43412
G1 X95.718 Y117.962 E8.45496
G1 X92.098 Y121.582 E8.65976
G1 X92.127 Y121.006 E8.68284
G1 X95.691 Y117.441 E8.88447
G1 X95.665 Y116.921 E8.90532
G1 X92.156 Y120.429 E9.10380
G1 X92.186 Y119.853 E9.12688
G1 X95.638 Y116.400 E9.32219
G1 X95.612 Y115.880 E9.34304
G1 X92.215 Y119.277 E9.53520
G1 X92.244 Y118.700 E9.55828
G1 X95.167 Y115.777 E9.72362
G1 X94.620 Y115.777 E9.74550
G1 X92.274 Y118.124 E9.87824
G1 X92.303 Y117.548 E9.90132
G1 X94.073 Y115.777 E10.00146
G1 X93.526 Y115.777 E10.02334
G1 X92.332 Y116.971 E10.09087
G1 X92.362 Y116.395 E10.11396
G1 X92.979 Y115.777 E10.14888
G1 X92.432 Y115.777 E10.17076
G1 X92.391 Y115.819 E10.17309
G1 F1800.000 E5.67309
G92 E0
G1 Z0.850 F7800.000
G1 X108.191 Y124.483 F7800.000
G1 E4.50000 F1800.000
G1 X103.809 Y124.483 E4.65938 F600.000
G1 X104.299 Y115.530 E4.98554
G1 X107.701 Y115.530 E5.10929
G1 X108.188 Y124.430 E5.43355
G1 X108.560 Y124.833 F7800.000
G1 X103.440 Y124.833 E5.61982 F600.000
G1 X103.968 Y115.180 E5.97149
G1 X108.032 Y115.180 E6.11935
G1 X108.557 Y124.780 E6.46910
G1 X108.254 Y124.663 F7800.000
G1 X104.067 Y124.202 F7800.000
G1 X104.106 Y124.241 E6.47131 F867.516
G1 X104.668 Y124.241 E6.49378
G1 X104.096 Y123.670 E6.52612
G1 X104.125 Y123.137 E6.54745
G1 X105.229 Y124.241 E6.60992
G1 X105.791 Y124.241 E6.63239
G1 X104.154 Y122.604 E6.72498
G1 X104.183 Y122.072 E6.74632
G1 X106.353 Y124.241 E6.86904
G1 X106.915 Y124.241 E6.89151
G1 X104.212 Y121.539 E7.04437
G1 X104.242 Y121.007 E7.06570
G1 X107.476 Y124.241 E7.24869
G1 X107.929 Y124.133 E7.26733
G1 X104.271 Y120.474 E7.47430
G1 X104.300 Y119.941 E7.49564
G1 X107.897 Y123.538 E7.69912
G1 X107.864 Y122.944 E7.72293
G1 X104.329 Y119.409 E7.92292
G1 X104.358 Y118.876 E7.94426
G1 X107.832 Y122.350 E8.14077
G1 X107.799 Y121.756 E8.16458
G1 X104.387 Y118.343 E8.35760
G1 X104.416 Y117.811 E8.37894
G1 X107.767 Y121.161 E8.56847
G1 X107.734 Y120.567 E8.59228
G1 X104.445 Y117.278 E8.77833
G1 X104.475 Y116.746 E8.79967
G1 X107.702 Y119.973 E8.98223
G1 X107.669 Y119.379 E9.00604
G1 X104.504 Y116.213 E9.18512
G1 X104.624 Y115.772 E9.20341
G1 X107.637 Y118.784 E9.37382
G1 X107.604 Y118.190 E9.39762
G1 X105.186 Y115.772 E9.53442
G1 X105.748 Y115.772 E9.55689
G1 X107.572 Y117.596 E9.66007
G1 X107.539 Y117.002 E9.68388
G1 X106.310 Y115.772 E9.75344
G1 X106.871 Y115.772 E9.77591
G1 X107.507 Y116.407 E9.81185
G1 X107.474 Y115.813 E9.83566
G1 X107.433 Y115.772 E9.83799
G1 F1800.000 E5.33799
G92 E0
G1 X96.191 Y124.483 F7800.000
G1 E4.50000 F1800.000
G1 X91.809 Y124.483 E4.65938 F600.000
G1 X92.299 Y115.530 E4.98554
G1 X95.701 Y115.530 E5.10929
G1 X96.188 Y124.430 E5.43355
G1 X96.560 Y124.833 F7800.000
G1 X91.440 Y124.833 E5.61982 F600.000
G1 X91.968 Y115.180 E5.97149
G1 X96.032 Y115.180 E6.11935
G1 X96.557 Y124.780 E6.46910
G1 X96.254 Y124.663 F7800.000
G1 X92.067 Y124.202 F7800.000
G1 X92.106 Y124.241 E6.47131 F867.516
G1 X92.668 Y124.241 E6.49378
G1 X92.096 Y123.670 E6.52612
G1 X92.125 Y123.137 E6.54745
G1 X93.229 Y124.241 E6.60992
G1 X93.791 Y124.241 E6.63239
G1 X92.154 Y122.604 E6.72498
G1 X92.183 Y122.072 E6.74632
G1 X94.353 Y124.241 E6.86904
G1 X94.915 Y124.241 E6.89151
G1 X92.212 Y121.539 E7.04437
G1 X92.242 Y121.007 E7.06570
G1 X95.476 Y124.241 E7.24869
G1 X95.929 Y124.133 E7.26733
G1 X92.271 Y120.474 E7.47430
G1 X92.300 Y119.941 E7.49564
G1 X95.897 Y123.538 E7.69912
G1 X95.864 Y122.944 E7.72293
G1 X92.329 Y119.409 E7.92292
G1 X92.358 Y118.876 E7.94426
G1 X95.832 Y122.350 E8.14077
G1 X95.799 Y121.756 E8.16458
G1 X92.387 Y118.343 E8.35760
G1 X92.416 Y117.811 E8.37894
G1 X95.767 Y121.161 E8.56847
G1 X95.734 Y120.567 E8.59228
G1 X92.445 Y117.278 E8.77833
G1 X92.475 Y116.746 E8.79967
G1 X95.702 Y119.973 E8.98223
G1 X95.669 Y119.379 E9.00604
G1 X92.504 Y116.213 E9.18512
G1 X92.624 Y115.772 E9.20341
G1 X95.637 Y118.784 E9.37382
G1 X95.604 Y118.190 E9.39762
G1 X93.186 Y115.772 E9.53442
G1 X93.748 Y115.772 E9.55689
G1 X95.572 Y117.596 E9.66007
G1 X95.539 Y117.002 E9.68388
G1 X94.310 Y115.772 E9.75344
G1 X94.871 Y115.772 E9.77591
G1 X95.507 Y116.407 E9.81185
G1 X95.474 Y115.813 E9.83566
G1 X95.433 Y115.772 E9.83799
G1 F1800.000 E5.33799
G92 E0
G1 Z1.100 F7800.000
G1 X108.034 Y124.477 F7800.000
G1 E4.50000 F1800.000
G1 X103.966 Y124.477 E4.64800 F600.000
G1 X104.455 Y115.525 E4.97417
G1 X107.545 Y115.525 E5.08654
G1 X108.031 Y124.425 E5.41080
G1 X108.404 Y124.827 F7800.000
G1 X103.596 Y124.827 E5.58570 F600.000
G1 X104.124 Y115.175 E5.93737
G1 X107.876 Y115.175 E6.07385
G1 X108.401 Y124.775 E6.42361
G1 X108.098 Y124.658 F7800.000
G1 X107.777 Y124.197 F7800.000
G1 X107.738 Y124.236 E6.42582 F834.499
G1 X107.191 Y124.236 E6.44769
G1 X107.749 Y123.678 E6.47923
G1 X107.720 Y123.160 E6.50000
G1 X106.644 Y124.236 E6.56087
G1 X106.097 Y124.236 E6.58274
G1 X107.692 Y122.641 E6.67294
G1 X107.663 Y122.123 E6.69371
G1 X105.550 Y124.236 E6.81324
G1 X105.004 Y124.236 E6.83512
G1 X107.635 Y121.604 E6.98398
G1 X107.607 Y121.086 E7.00475
G1 X104.457 Y124.236 E7.18295
G1 X104.239 Y123.906 E7.19873
G1 X107.578 Y120.567 E7.38764
G1 X107.550 Y120.049 E7.40841
G1 X104.271 Y123.328 E7.59392
G1 X104.302 Y122.749 E7.61710
G1 X107.522 Y119.530 E7.79922
G1 X107.493 Y119.011 E7.81999
G1 X104.334 Y122.171 E7.99872
G1 X104.366 Y121.592 E8.02189
G1 X107.465 Y118.493 E8.19722
G1 X107.437 Y117.974 E8.21799
G1 X104.397 Y121.014 E8.38993
G1 X104.429 Y120.435 E8.41311
G1 X107.408 Y117.456 E8.58165
G1 X107.380 Y116.937 E8.60242
G1 X104.460 Y119.857 E8.76757
G1 X104.492 Y119.278 E8.79074
G1 X107.352 Y116.419 E8.95250
G1 X107.323 Y115.900 E8.97327
G1 X104.524 Y118.700 E9.13163
G1 X104.555 Y118.121 E9.15481
G1 X106.911 Y115.766 E9.28804
G1 X106.364 Y115.766 E9.30991
G1 X104.587 Y117.543 E9.41042
G1 X104.619 Y116.964 E9.43359
G1 X105.817 Y115.766 E9.50138
G1 X105.270 Y115.766 E9.52325
G1 X104.650 Y116.386 E9.55831
G1 X104.682 Y115.807 E9.58148
G1 X104.723 Y115.766 E9.58381
G1 F1800.000 E5.08381
G92 E0
G1 X96.034 Y124.477 F7800.000
G1 E4.50000 F1800.000
G1 X91.966 Y124.477 E4.64800 F600.000
G1 X92.455 Y115.525 E4.97417
G1 X95.545 Y115.525 E5.08654
G1 X96.031 Y124.425 E5.41080
G1 X96.404 Y124.827 F7800.000
G1 X91.596 Y124.827 E5.58570 F600.000
G1 X92.124 Y115.175 E5.93737
G1 X95.876 Y115.175 E6.07385
G1 X96.401 Y124.775 E6.42361
G1 X96.098 Y124.658 F7800.000
G1 X95.777 Y124.197 F7800.000
G1 X95.738 Y124.236 E6.42582 F834.499
G1 X95.191 Y124.236 E6.44769
G1 X95.749 Y123.678 E6.47923
G1 X95.720 Y123.160 E6.50000
G1 X94.644 Y124.236 E6.56087
G1 X94.097 Y124.236 E6.58274
G1 X95.692 Y122.641 E6.67294
G1 X95.663 Y122.123 E6.69371
G1 X93.550 Y124.236 E6.81324
G1 X93.004 Y124.236 E6.83512
G1 X95.635 Y121.604 E6.98398
G1 X95.607 Y121.086 E7.00475
G1 X92.457 Y124.236 E7.18295
G1 X92.239 Y123.906 E7.19873
G1 X95.578 Y120.567 E7.38764
G1 X95.550 Y120.049 E7.40841
G1 X92.271 Y123.328 E7.59392
G1 X92.302 Y122.749 E7.61710
G1 X95.522 Y119.530 E7.79922
G1 X95.493 Y119.011 E7.81999
G1 X92.334 Y122.171 E7.99872
G1 X92.366 Y121.592 E8.02189
G1 X95.465 Y118.493 E8.19722
G1 X95.437 Y117.974 E8.21799
G1 X92.397 Y121.014 E8.38993
G1 X92.429 Y120.435 E8.41311
G1 X95.408 Y117.456 E8.58165
G1 X95.380 Y116.937 E8.60242
G1 X92.460 Y119.857 E8.76757
G1 X92.492 Y119.278 E8.79074
G1 X95.352 Y116.419 E8.95250
G1 X95.323 Y115.900 E8.97327
G1 X92.524 Y118.700 E9.13163
G1 X92.555 Y118.121 E9.15481
G1 X94.911 Y115.766 E9.28804
G1 X94.364 Y115.766 E9.30991
G1 X92.587 Y117.543 E9.41042
G1 X92.619 Y116.964 E9.43359
G1 X93.817 Y115.766 E9.50138
G1 X93.270 Y115.766 E9.52325
G1 X92.650 Y116.386 E9.55831
G1 X92.682 Y115.807 E9.58148
G1 X92.723 Y115.766 E9.58381
G1 F1800.000 E5.08381
G92 E0
G1 Z1.350 F7800.000
G1 X107.878 Y124.471 F7800.000
G1 E4.50000 F1800.000
G1 X104.122 Y124.471 E4.63663 F600.000
G1 X104.680 Y115.519 E4.96294
G1 X107.320 Y115.519 E5.05900
G1 X107.875 Y124.419 E5.38340
G1 X108.248 Y124.821 F7800.000
G1 X103.752 Y124.821 E5.54693 F600.000
G1 X104.351 Y115.169 E5.89875
G1 X107.649 Y115.169 E6.01872
G1 X108.245 Y124.769 E6.36863
G1 X107.941 Y124.653 F7800.000
G1 X104.420 Y124.230 F7800.000
G1 X104.382 Y124.191 E6.37082 F781.607
G1 X104.414 Y123.668 E6.39177
G1 X104.976 Y124.230 E6.42353
G1 X105.531 Y124.230 E6.44574
G1 X104.447 Y123.146 E6.50707
G1 X104.479 Y122.623 E6.52802
G1 X106.086 Y124.230 E6.61891
G1 X106.641 Y124.230 E6.64112
G1 X104.512 Y122.100 E6.76158
G1 X104.544 Y121.578 E6.78252
G1 X107.196 Y124.230 E6.93255
G1 X107.612 Y124.091 E6.95009
G1 X104.577 Y121.055 E7.12179
G1 X104.609 Y120.533 E7.14274
G1 X107.576 Y123.499 E7.31053
G1 X107.539 Y122.907 E7.33425
G1 X104.642 Y120.010 E7.49813
G1 X104.675 Y119.487 E7.51907
G1 X107.502 Y122.315 E7.67903
G1 X107.466 Y121.723 E7.70275
G1 X104.707 Y118.965 E7.85880
G1 X104.740 Y118.442 E7.87975
G1 X107.429 Y121.131 E8.03188
G1 X107.392 Y120.540 E8.05560
G1 X104.772 Y117.919 E8.20382
G1 X104.805 Y117.397 E8.22477
G1 X107.356 Y119.948 E8.36907
G1 X107.319 Y119.356 E8.39279
G1 X104.837 Y116.874 E8.53318
G1 X104.870 Y116.351 E8.55413
G1 X107.282 Y118.764 E8.69060
G1 X107.246 Y118.172 E8.71432
G1 X104.902 Y115.829 E8.84689
G1 X105.389 Y115.760 E8.86655
G1 X107.209 Y117.580 E8.96949
G1 X107.171 Y116.987 E8.99324
G1 X105.944 Y115.760 E9.06264
G1 X106.500 Y115.760 E9.08485
G1 X107.134 Y116.395 E9.12072
G1 X107.096 Y115.802 E9.14448
