; generated by Slic3r 1.1.7 on 2014-10-06 at 17:33:06

; perimeters extrusion width = 0.35mm
; infill extrusion width = 0.39mm
; solid infill extrusion width = 0.39mm
; top infill extrusion width = 0.39mm

G21 ; set units to millimeters
M107
M84 S0 ; don't let go of motors
M108 S155 ; make sure extruder and electronics fans are running
M140 S70
M104 S210
G28 X0 Y0; home X and Y
G1 F10800 ; set high speed
G1 Y20 ; move into the platform along Y
G1 X205 ; move off the platform end along X
G28 Z0 ; home Z now - blobs won't hit the platform
G1 F400
G1 Z10 ; lift Z a little
M190 S70
M109 S210 ; wait for temperature to be reached
G28 Z0 ; home Z
G92 E0 ; reset extruder position to 0
G1 F300 ; set suitable speed
G1 E25 ; extrude 25mm
G92 E0 ; reset extruder position to 0 - needed for cura/SF
G1 F10800 ; set wipe speed
G1 X0 ; wipe nozzle and move to X0
G90 ; use absolute coordinates
G92 E0
M82 ; use absolute distances for extrusion
G1 F1800.000 E-4.50000
G92 E0
G1 Z0.350 F7800.000
G1 X84.535 Y97.562 F7800.000
G1 E4.50000 F1800.000
G1 X85.394 Y96.903 E4.59843 F1080.000
G1 X86.891 Y96.038 E4.75569
G1 X87.892 Y95.624 E4.85412
G1 X89.562 Y95.176 E5.01138
G1 X90.635 Y95.035 E5.10981
G1 X92.365 Y95.035 E5.26706
G1 X93.438 Y95.176 E5.36549
G1 X95.108 Y95.624 E5.52275 F1080.000
G1 X96.109 Y96.038 E5.62119
G1 X97.606 Y96.903 E5.77844
G1 X98.465 Y97.562 E5.87687
G1 X99.381 Y98.413 E5.99054
G1 X116.877 Y118.096 E8.38518
G1 X117.354 Y118.717 E8.45639
G1 X118.219 Y120.215 E8.61364
G1 X118.762 Y121.635 E8.75191
G1 X120.865 Y128.911 E9.44061
G1 X121.125 Y130.750 E9.60948
G1 X121.125 Y137.585 E10.23094
G1 X120.728 Y139.843 E10.43948
G1 X119.585 Y141.832 E10.64803
G1 X117.832 Y143.311 E10.85657
G1 X115.680 Y144.104 E11.06511
G1 X114.500 Y144.209 E11.17282
G1 X86.500 Y144.209 E13.71885
G1 X84.241 Y143.812 E13.92739
G1 X82.253 Y142.669 E14.13593
G1 X80.774 Y140.916 E14.34448
G1 X79.981 Y138.764 E14.55302
G1 X79.875 Y137.585 E14.66073
G1 X79.879 Y130.524 E15.30274
G1 X80.785 Y104.885 E17.63551
G1 X80.926 Y103.812 E17.73394
G1 X81.374 Y102.142 E17.89120
G1 X81.788 Y101.141 E17.98964
G1 X82.653 Y99.644 E18.14689
G1 X83.312 Y98.785 E18.24532
G1 X84.498 Y97.599 E18.39781
G1 F1800.000 E13.89781
G92 E0
G1 X94.625 Y131.775 F7800.000
G1 E4.50000 F1800.000
G1 X88.375 Y131.775 E5.06829 F540.000
G1 X88.375 Y136.610 E5.50790
G1 X87.475 Y136.610 E5.58975
G1 X87.475 Y131.269 E6.07535
G1 X88.183 Y130.716 E6.15705
G1 X88.708 Y130.208 E6.22348
G1 X89.187 Y129.656 E6.28993
G1 X89.615 Y129.064 E6.35637
G1 X89.990 Y128.437 E6.42282
G1 X90.307 Y127.779 E6.48925
G1 X90.566 Y127.095 E6.55571
G1 X90.806 Y126.238 E6.63666
G1 X90.074 Y125.676 E6.72060
G1 X89.753 Y125.258 E6.76847
G1 X89.552 Y124.772 E6.81635
G1 X89.483 Y124.250 E6.86422
G1 X89.552 Y123.728 E6.91209
G1 X89.753 Y123.242 E6.95996
G1 X90.074 Y122.824 E7.00783
G1 X90.492 Y122.503 E7.05570
G1 X90.978 Y122.302 E7.10357
G1 X91.500 Y122.233 E7.15144
G1 X92.022 Y122.302 E7.19931
G1 X92.508 Y122.503 E7.24719
G1 X92.926 Y122.824 E7.29506
G1 X93.247 Y123.242 E7.34293
G1 X93.448 Y123.728 E7.39080
G1 X93.517 Y124.250 E7.43867
G1 X93.448 Y124.772 E7.48654
G1 X93.247 Y125.258 E7.53441
G1 X92.926 Y125.676 E7.58229
G1 X92.194 Y126.238 E7.66623
G1 X92.434 Y127.095 E7.74720
G1 X92.693 Y127.779 E7.81364
G1 X93.010 Y128.437 E7.88008
G1 X93.385 Y129.064 E7.94652
G1 X93.813 Y129.656 E8.01297
G1 X94.292 Y130.208 E8.07941
G1 X94.817 Y130.716 E8.14585
G1 X95.525 Y131.269 E8.22755
G1 X95.525 Y136.610 E8.71314
G1 X94.625 Y136.610 E8.79500
G1 X94.625 Y131.828 E9.22983
G1 X94.000 Y132.400 F7800.000
G1 X89.000 Y132.400 E9.68448 F378.000
G1 X89.000 Y137.235 E10.12408
G1 X86.850 Y137.235 E10.31958
G1 X86.850 Y130.936 E10.89227
G1 X87.243 Y130.672 E10.93534
G1 X87.768 Y130.247 E10.99677
G1 X88.254 Y129.778 E11.05819
G1 X88.697 Y129.268 E11.11962
G1 X89.093 Y128.720 E11.18105
G1 X89.439 Y128.140 E11.24248
G1 X89.733 Y127.532 E11.30390
G1 X89.972 Y126.900 E11.36533
G1 X90.091 Y126.476 E11.40534
G1 X89.628 Y126.122 E11.45831
G1 X89.208 Y125.573 E11.52115
G1 X88.943 Y124.935 E11.58398
G1 X88.853 Y124.250 E11.64681
G1 X88.943 Y123.565 E11.70964
G1 X89.208 Y122.926 E11.77248
G1 X89.628 Y122.378 E11.83531
G1 X90.177 Y121.958 E11.89814
G1 X90.815 Y121.693 E11.96097
G1 X91.500 Y121.603 E12.02381
G1 X92.185 Y121.693 E12.08664
G1 X92.823 Y121.958 E12.14947
G1 X93.372 Y122.378 E12.21230
G1 X93.792 Y122.927 E12.27514
G1 X94.057 Y123.565 E12.33797
G1 X94.147 Y124.250 E12.40080
G1 X94.057 Y124.935 E12.46363
G1 X93.792 Y125.574 E12.52647
G1 X93.372 Y126.122 E12.58930
G1 X92.909 Y126.476 E12.64228
G1 X93.028 Y126.900 E12.68229
G1 X93.267 Y127.532 E12.74371
G1 X93.561 Y128.140 E12.80514
G1 X93.907 Y128.720 E12.86657
G1 X94.303 Y129.268 E12.92800
G1 X94.746 Y129.778 E12.98942
G1 X95.232 Y130.247 E13.05085
G1 X95.757 Y130.672 E13.11228
G1 X96.150 Y130.936 E13.15535
G1 X96.150 Y137.235 E13.72803
G1 X94.000 Y137.235 E13.92353
G1 X94.000 Y132.453 E14.35836
G1 X94.000 Y132.050 F7800.000
G1 X92.482 Y128.339 F7800.000
G1 X91.065 Y126.921 E14.54064 F1080.000
G1 X91.930 Y126.901 E14.61934
G1 X91.259 Y126.230 E14.70566
G1 X91.861 Y125.947 E14.76620
G1 X89.948 Y124.034 E15.01218
G1 X90.187 Y123.388 E15.07486
G1 X92.362 Y125.563 E15.35456
G1 X92.806 Y125.121 E15.41148
G1 X90.629 Y122.944 E15.69144
G1 X91.271 Y122.700 E15.75386
G1 X93.050 Y124.479 E15.98264
G1 X92.711 Y123.255 E16.09810
G1 X92.495 Y123.039 E16.12597
G1 X90.339 Y125.310 F7800.000
G1 X90.440 Y125.411 E16.13893 F1080.000
G1 X90.844 Y127.585 F7800.000
G1 X94.599 Y131.341 E16.62184 F1080.000
G1 X93.715 Y131.342 E16.70223
G1 X90.581 Y128.208 E17.10523
G1 X90.281 Y128.794 E17.16504
G1 X92.829 Y131.342 E17.49276
G1 X91.944 Y131.342 E17.57327
G1 X89.947 Y129.345 E17.83011
G1 X89.575 Y129.859 E17.88777
G1 X91.059 Y131.342 E18.07855
G1 X90.173 Y131.342 E18.15905
G1 X89.169 Y130.338 E18.28819
G1 X88.733 Y130.787 E18.34513
G1 X89.288 Y131.342 E18.41653
G1 X88.403 Y131.342 E18.49704
G1 X88.350 Y131.290 E18.50376
G1 F1800.000 E14.00376
G92 E0
G1 X112.625 Y131.775 F7800.000
G1 E4.50000 F1800.000
G1 X106.375 Y131.775 E5.06829 F540.000
G1 X106.375 Y136.610 E5.50790
G1 X105.475 Y136.610 E5.58975
G1 X105.475 Y131.269 E6.07535
G1 X106.183 Y130.716 E6.15705
G1 X106.708 Y130.208 E6.22348
G1 X107.187 Y129.656 E6.28993
G1 X107.615 Y129.064 E6.35637
G1 X107.990 Y128.437 E6.42282
G1 X108.307 Y127.779 E6.48925
G1 X108.566 Y127.095 E6.55571
G1 X108.806 Y126.238 E6.63666
G1 X108.074 Y125.676 E6.72060
G1 X107.753 Y125.258 E6.76847
G1 X107.552 Y124.772 E6.81635
G1 X107.483 Y124.250 E6.86422
G1 X107.552 Y123.728 E6.91209
G1 X107.753 Y123.242 E6.95996
G1 X108.074 Y122.824 E7.00783
G1 X108.492 Y122.503 E7.05570
G1 X108.978 Y122.302 E7.10357
G1 X109.500 Y122.233 E7.15144
G1 X110.022 Y122.302 E7.19931
G1 X110.508 Y122.503 E7.24719
G1 X110.926 Y122.824 E7.29506
G1 X111.247 Y123.242 E7.34293
G1 X111.448 Y123.728 E7.39080
G1 X111.517 Y124.250 E7.43867
G1 X111.448 Y124.772 E7.48654
G1 X111.247 Y125.258 E7.53441
G1 X110.926 Y125.676 E7.58229
G1 X110.194 Y126.238 E7.66623
G1 X110.434 Y127.095 E7.74720
G1 X110.693 Y127.779 E7.81364
G1 X111.010 Y128.437 E7.88008
G1 X111.385 Y129.064 E7.94652
G1 X111.813 Y129.656 E8.01297
G1 X112.292 Y130.208 E8.07941
G1 X112.817 Y130.716 E8.14585
G1 X113.525 Y131.269 E8.22755
G1 X113.525 Y136.610 E8.71314
G1 X112.625 Y136.610 E8.79500
G1 X112.625 Y131.828 E9.22983
G1 X112.000 Y132.400 F7800.000
G1 X107.000 Y132.400 E9.68448 F378.000
G1 X107.000 Y137.235 E10.12408
G1 X104.850 Y137.235 E10.31958
G1 X104.850 Y130.936 E10.89227
G1 X105.243 Y130.672 E10.93534
G1 X105.768 Y130.247 E10.99677
G1 X106.254 Y129.778 E11.05819
G1 X106.697 Y129.268 E11.11962
G1 X107.093 Y128.720 E11.18105
G1 X107.439 Y128.140 E11.24248
G1 X107.733 Y127.532 E11.30390
G1 X107.972 Y126.900 E11.36533
G1 X108.091 Y126.476 E11.40534
G1 X107.628 Y126.122 E11.45831
G1 X107.208 Y125.573 E11.52115
G1 X106.943 Y124.935 E11.58398
G1 X106.853 Y124.250 E11.64681
G1 X106.943 Y123.565 E11.70964
G1 X107.208 Y122.926 E11.77248
G1 X107.628 Y122.378 E11.83531
G1 X108.177 Y121.958 E11.89814
G1 X108.815 Y121.693 E11.96097
G1 X109.500 Y121.603 E12.02381
G1 X110.185 Y121.693 E12.08664
G1 X110.823 Y121.958 E12.14947
G1 X111.372 Y122.378 E12.21230
G1 X111.792 Y122.927 E12.27514
G1 X112.057 Y123.565 E12.33797
G1 X112.147 Y124.250 E12.40080
G1 X112.057 Y124.935 E12.46363
G1 X111.792 Y125.574 E12.52647
G1 X111.372 Y126.122 E12.58930
G1 X110.909 Y126.476 E12.64228
G1 X111.028 Y126.900 E12.68229
G1 X111.267 Y127.532 E12.74371
G1 X111.561 Y128.140 E12.80514
G1 X111.907 Y128.720 E12.86657
G1 X112.303 Y129.268 E12.92800
G1 X112.746 Y129.778 E12.98942
G1 X113.232 Y130.247 E13.05085
G1 X113.757 Y130.672 E13.11228
G1 X114.150 Y130.936 E13.15535
G1 X114.150 Y137.235 E13.72803
G1 X112.000 Y137.235 E13.92353
G1 X112.000 Y132.453 E14.35836
G1 X112.000 Y132.050 F7800.000
G1 X110.482 Y128.339 F7800.000
G1 X109.065 Y126.921 E14.54064 F1080.000
G1 X109.930 Y126.901 E14.61934
G1 X109.259 Y126.230 E14.70566
G1 X109.861 Y125.947 E14.76620
G1 X107.948 Y124.034 E15.01218
G1 X108.187 Y123.388 E15.07486
G1 X110.362 Y125.563 E15.35456
G1 X110.806 Y125.121 E15.41148
G1 X108.629 Y122.944 E15.69144
G1 X109.271 Y122.700 E15.75386
G1 X111.050 Y124.479 E15.98264
G1 X110.711 Y123.255 E16.09810
G1 X110.495 Y123.039 E16.12597
G1 X108.339 Y125.310 F7800.000
G1 X108.440 Y125.411 E16.13893 F1080.000
G1 X108.844 Y127.585 F7800.000
G1 X112.599 Y131.341 E16.62184 F1080.000
G1 X111.715 Y131.342 E16.70223
G1 X108.581 Y128.208 E17.10523
G1 X108.281 Y128.794 E17.16504
G1 X110.829 Y131.342 E17.49276
G1 X109.944 Y131.342 E17.57327
G1 X107.947 Y129.345 E17.83011
G1 X107.575 Y129.859 E17.88777
G1 X109.059 Y131.342 E18.07855
G1 X108.173 Y131.342 E18.15905
G1 X107.169 Y130.338 E18.28819
G1 X106.733 Y130.787 E18.34513
G1 X107.288 Y131.342 E18.41653
G1 X106.403 Y131.342 E18.49704
G1 X106.350 Y131.290 E18.50376
G1 F1800.000 E14.00376
G92 E0
G1 X92.677 Y107.788 F7800.000
G1 E4.50000 F1800.000
G1 X92.109 Y108.023 E4.55586 F378.000
G1 X91.500 Y108.103 E4.61171
G1 X90.891 Y108.023 E4.66757
G1 X90.323 Y107.788 E4.72342
G1 X89.836 Y107.414 E4.77928
G1 X89.462 Y106.927 E4.83513
G1 X89.227 Y106.359 E4.89098
G1 X89.147 Y105.750 E4.94684
G1 X89.227 Y105.141 E5.00269
G1 X89.462 Y104.574 E5.05855
G1 X89.836 Y104.086 E5.11440
G1 X90.323 Y103.712 E5.17025
G1 X90.891 Y103.477 E5.22611
G1 X91.500 Y103.397 E5.28197
G1 X92.045 Y103.469 E5.33197
G1 X92.109 Y103.477 E5.33782 F378.000
G1 X92.677 Y103.712 E5.39368
G1 X93.164 Y104.086 E5.44954
G1 X93.538 Y104.573 E5.50539
G1 X93.773 Y105.141 E5.56124
G1 X93.867 Y105.857 E5.62692
G1 X93.981 Y105.857 E5.63725
G1 X93.538 Y106.926 E5.74250
G1 X93.164 Y107.414 E5.79836
G1 X92.718 Y107.756 E5.84944
G1 F1800.000 E1.34944
G92 E0
G1 X92.045 Y103.404 F7800.000
G1 X93.546 Y108.921 F7800.000
G1 E4.50000 F1800.000
G1 X93.397 Y109.035 E4.51710 F378.000
G1 X92.482 Y109.414 E4.60715
G1 X91.500 Y109.544 E4.69721
G1 X90.518 Y109.414 E4.78726
G1 X89.603 Y109.035 E4.87731
G1 X88.817 Y108.433 E4.96736
G1 X88.215 Y107.647 E5.05741
G1 X87.836 Y106.732 E5.14746
G1 X87.706 Y105.750 E5.23752
G1 X87.836 Y104.768 E5.32757
G1 X88.215 Y103.853 E5.41762
G1 X88.817 Y103.067 E5.50767
G1 X89.603 Y102.465 E5.59772
G1 X90.518 Y102.086 E5.68777
G1 X91.500 Y101.956 E5.77783
G1 X91.750 Y101.989 E5.80071
G1 X92.482 Y102.086 E5.86788 F378.000
G1 X93.397 Y102.465 E5.95793
G1 X94.183 Y103.067 E6.04798
G1 X94.785 Y103.853 E6.13803
G1 X95.164 Y104.768 E6.22808
G1 X95.294 Y105.750 E6.31814
G1 X95.164 Y106.732 E6.40819
G1 X94.785 Y107.647 E6.49824
G1 X94.183 Y108.433 E6.58829
G1 X93.588 Y108.889 E6.65647
G1 F1800.000 E2.15647
G92 E0
G1 X92.058 Y102.154 F7800.000
G1 X94.546 Y105.545 F7800.000
G1 E4.50000 F1800.000
G1 X94.467 Y104.955 E4.58440 F360.000
G1 X94.160 Y104.214 E4.69815
G1 X93.672 Y103.578 E4.81190
G1 X93.079 Y103.121 E4.91818
G1 X92.344 Y102.802 E5.03175
G1 X92.243 Y102.774 E5.04664
G1 X91.500 Y102.678 E5.15291
G1 X90.705 Y102.783 E5.26666
G1 X89.921 Y103.121 E5.38772
G1 X89.328 Y103.578 E5.49398
G1 X88.840 Y104.214 E5.60773
G1 X88.533 Y104.955 E5.72148
G1 X88.434 Y105.697 E5.82775
G1 X88.434 Y105.802 E5.84263
G1 X88.552 Y106.594 E5.95621
G1 X88.840 Y107.286 E6.06249
G1 X89.295 Y107.881 E6.16874
G1 X89.921 Y108.379 E6.28234
G1 X90.705 Y108.717 E6.40338
G1 X91.552 Y108.816 E6.52441
G1 X92.295 Y108.717 E6.63070
G1 X92.988 Y108.432 E6.73699
G1 X93.672 Y107.922 E6.85802
G1 X94.160 Y107.286 E6.97177
G1 X94.469 Y106.545 E7.08555
G1 X94.662 Y105.825 E7.19140
G1 X94.580 Y105.803 F7800.000
G1 X94.657 Y106.382 E7.27426 F360.000
G1 X94.737 Y105.545 F7800.000
G1 X94.881 Y105.007 E7.35317 F360.000
M106 S255
M140 S60 ; set bed temperature
G1 F1800.000 E2.85317
G92 E0
G1 Z0.600 F7800.000
G1 X94.175 Y132.225 F7800.000
G1 E4.50000 F1800.000
G1 X88.825 Y132.225 E4.69462 F1136.446
G1 X88.825 Y137.760 E4.89596
M106 S255
G1 X88.825 Y137.784 E4.89693 F3600.000
G1 X87.025 Y137.784 E4.96893
G1 X87.025 Y137.760 E4.96990
M106 S255
G1 X87.025 Y131.030 E5.21473 F1136.446
G1 X87.347 Y130.813 E5.22885
G1 X87.884 Y130.379 E5.25398
G1 X88.381 Y129.899 E5.27912
G1 X88.834 Y129.376 E5.30426
G1 X89.239 Y128.817 E5.32939
G1 X89.593 Y128.223 E5.35453
G1 X89.894 Y127.601 E5.37967
G1 X90.138 Y126.955 E5.40480
G1 X90.291 Y126.410 E5.42540
G1 X89.753 Y125.997 E5.45006
G1 X89.361 Y125.485 E5.47352
G1 X89.114 Y124.889 E5.49699
G1 X89.030 Y124.250 E5.52045
G1 X89.114 Y123.611 E5.54391
G1 X89.361 Y123.015 E5.56737
G1 X89.753 Y122.503 E5.59083
G1 X90.265 Y122.111 E5.61429
G1 X90.861 Y121.864 E5.63775
G1 X91.500 Y121.780 E5.66121
G1 X92.139 Y121.864 E5.68468
G1 X92.735 Y122.111 E5.70814
G1 X93.247 Y122.503 E5.73160
G1 X93.639 Y123.015 E5.75506
G1 X93.886 Y123.611 E5.77852
G1 X93.902 Y123.726 E5.78277
G1 X93.970 Y124.250 E5.80198
G1 X93.886 Y124.889 E5.82544
G1 X93.639 Y125.485 E5.84890
G1 X93.247 Y125.997 E5.87237
G1 X92.709 Y126.410 E5.89703
G1 X92.862 Y126.955 E5.91762
G1 X93.106 Y127.601 E5.94276
G1 X93.407 Y128.223 E5.96790
G1 X93.761 Y128.817 E5.99304
G1 X94.166 Y129.376 E6.01817
G1 X94.619 Y129.899 E6.04331
G1 X95.116 Y130.379 E6.06845
G1 X95.653 Y130.813 E6.09358
G1 X95.975 Y131.030 E6.10770
G1 X95.975 Y137.760 E6.35253
M106 S255
G1 X95.975 Y137.784 E6.35350 F3600.000
G1 X94.175 Y137.784 E6.42550
G1 X94.175 Y137.760 E6.42647
M106 S255
G1 X94.175 Y132.278 E6.62590 F1136.446
G1 X93.825 Y132.575 F7800.000
G1 X89.175 Y132.575 E6.79506 F795.512
G1 X89.175 Y137.760 E6.98366
M106 S255
G1 X89.175 Y138.134 E6.99863 F3600.000
G1 X86.675 Y138.134 E7.09863
G1 X86.675 Y137.760 E7.11360
M106 S255
G1 X86.675 Y130.843 E7.36521 F795.512
G1 X87.139 Y130.531 E7.38555
G1 X87.652 Y130.116 E7.40956
G1 X88.127 Y129.658 E7.43358
G1 X88.560 Y129.159 E7.45759
G1 X88.946 Y128.624 E7.48160
G1 X89.285 Y128.057 E7.50562
G1 X89.572 Y127.463 E7.52963
G1 X89.805 Y126.845 E7.55364
G1 X89.890 Y126.543 E7.56506
G1 X89.503 Y126.247 E7.58279
G1 X89.055 Y125.662 E7.60960
G1 X88.773 Y124.981 E7.63641
G1 X88.677 Y124.250 E7.66323
G1 X88.773 Y123.519 E7.69004
G1 X89.055 Y122.838 E7.71685
G1 X89.503 Y122.253 E7.74367
G1 X90.088 Y121.805 E7.77048
G1 X90.769 Y121.523 E7.79730
G1 X91.500 Y121.427 E7.82411
G1 X92.231 Y121.523 E7.85092
G1 X92.912 Y121.805 E7.87774
G1 X93.367 Y122.154 E7.89862
G1 X93.497 Y122.253 E7.90455
G1 X93.945 Y122.838 E7.93136
G1 X94.227 Y123.519 E7.95818
G1 X94.323 Y124.250 E7.98499
G1 X94.227 Y124.981 E8.01180
G1 X93.945 Y125.662 E8.03862
G1 X93.497 Y126.247 E8.06543
G1 X93.110 Y126.543 E8.08316
G1 X93.195 Y126.845 E8.09457
G1 X93.428 Y127.463 E8.11859
G1 X93.715 Y128.057 E8.14260
G1 X94.054 Y128.624 E8.16662
G1 X94.440 Y129.159 E8.19063
G1 X94.873 Y129.658 E8.21464
G1 X95.348 Y130.116 E8.23866
G1 X95.861 Y130.531 E8.26267
G1 X96.325 Y130.843 E8.28301
G1 X96.325 Y137.760 E8.53462
M106 S255
G1 X96.325 Y138.134 E8.54959 F3600.000
G1 X93.825 Y138.134 E8.64959
G1 X93.825 Y137.760 E8.66456
M106 S255
G1 X93.825 Y132.628 E8.85125 F795.512
G1 X94.128 Y137.585 F7800.000
G1 X95.733 Y136.578 F7800.000
G1 X95.693 Y136.618 E8.85352 F2272.891
G1 X95.147 Y136.618 E8.87538
G1 X95.733 Y136.031 E8.90857
G1 X95.733 Y135.485 E8.93044
G1 X94.600 Y136.618 E8.99456
