; generated by Slic3r 1.0.1 on 2014-08-27 at 14:14:28

; layer_height = 0.25
; perimeters = 2
; top_solid_layers = 2
; bottom_solid_layers = 2
; fill_density = 0.2
; perimeter_speed = 30
; infill_speed = 60
; travel_speed = 130
; nozzle_diameter = 0.35
; filament_diameter = 1.75
; extrusion_multiplier = 1
; perimeters extrusion width = 0.35mm
; infill extrusion width = 0.39mm
; solid infill extrusion width = 0.39mm
; top infill extrusion width = 0.39mm
; first layer extrusion width = 0.70mm

G21 ; set units to millimeters
M107
M84 S0 ; don't let go of motors
M108 S155 ; make sure extruder and electronics fans are running
M140 S70
M104 S210
G28 X0 Y0; home X and Y
G1 F10800 ; set high speed
G1 Y20 ; move into the platform along Y
G1 X205 ; move off the platform end along X
G28 Z0 ; home Z now - blobs won't hit the platform
G1 F400
G1 Z10 ; lift Z a little
M190 S70
M109 S210 ; wait for temperature to be reached
G28 Z0 ; home Z
G92 E0 ; reset extruder position to 0
G1 F300 ; set suitable speed
G1 E25 ; extrude 25mm
G92 E0 ; reset extruder position to 0 - needed for cura/SF
G1 F10800 ; set wipe speed
G1 X0 ; wipe nozzle and move to X0
G90 ; use absolute coordinates
G92 E0
M82 ; use absolute distances for extrusion
G1 F1800.000 E-4.50000
G92 E0
G1 Z0.350 F7800.000
G1 X94.140 Y113.020 F7800.000
G1 E4.50000 F1800.000
G1 X94.650 Y112.620 E4.55894 F540.000
G1 X95.410 Y112.100 E4.64267
G1 X96.230 Y111.700 E4.72563
G1 X96.840 Y111.450 E4.78558
G1 X97.670 Y111.170 E4.86523
G1 X98.540 Y111.000 E4.94583
G1 X99.190 Y110.920 E5.00538
G1 X100.010 Y110.880 E5.08003
G1 X100.820 Y110.930 E5.15382
G1 X101.460 Y111.010 E5.21247
G1 X102.320 Y111.170 E5.29201
G1 X103.150 Y111.450 E5.37166
G1 X103.760 Y111.700 E5.43161
G1 X104.580 Y112.100 E5.51457
G1 X105.340 Y112.620 E5.59830
G1 X105.850 Y113.020 E5.65724
G1 X106.470 Y113.570 E5.73260
G1 X107.010 Y114.190 E5.80736
G1 X107.410 Y114.710 E5.86702
G1 X107.890 Y115.430 E5.94570
G1 X108.280 Y116.200 E6.02419
G1 X108.530 Y116.800 E6.08329
G1 X108.800 Y117.610 E6.16093
G1 X108.970 Y118.440 E6.23797
G1 X109.060 Y119.090 E6.29763
G1 X109.120 Y120.010 E6.38147
G1 X109.060 Y120.920 E6.46439
G1 X108.970 Y121.560 E6.52316
G1 X108.800 Y122.370 E6.59842
G1 X108.540 Y123.150 E6.67318
G1 X108.290 Y123.760 E6.73312
G1 X107.890 Y124.580 E6.81608
G1 X107.370 Y125.340 E6.89982
G1 X106.970 Y125.850 E6.95875
G1 X106.440 Y126.440 E7.03087
G1 X105.850 Y126.970 E7.10299
G1 X105.340 Y127.370 E7.16192
G1 X104.580 Y127.890 E7.24566
G1 X103.760 Y128.290 E7.32862
G1 X103.150 Y128.540 E7.38856
G1 X102.370 Y128.800 E7.46332
G1 X101.560 Y128.970 E7.53858
G1 X100.920 Y129.060 E7.59735
G1 X100.010 Y129.120 E7.68027
G1 X99.090 Y129.060 E7.76411
G1 X98.440 Y128.970 E7.82378
G1 X97.610 Y128.800 E7.90081
G1 X96.800 Y128.530 E7.97845
G1 X96.200 Y128.280 E8.03755
G1 X95.430 Y127.890 E8.11604
G1 X94.710 Y127.410 E8.19472
G1 X94.190 Y127.010 E8.25438
G1 X93.570 Y126.470 E8.32914
G1 X93.020 Y125.850 E8.40450
G1 X92.620 Y125.340 E8.46344
G1 X92.100 Y124.580 E8.54717
G1 X91.700 Y123.760 E8.63013
G1 X91.450 Y123.150 E8.69008
G1 X91.170 Y122.320 E8.76973
G1 X91.010 Y121.460 E8.84927
G1 X90.930 Y120.820 E8.90792
G1 X90.880 Y120.010 E8.98171
G1 X90.920 Y119.190 E9.05636
G1 X91.000 Y118.540 E9.11591
G1 X91.170 Y117.660 E9.19741
G1 X91.460 Y116.810 E9.27907
G1 X91.680 Y116.280 E9.33125
G1 X92.050 Y115.490 E9.41057
G1 X92.620 Y114.650 E9.50288
G1 X93.020 Y114.140 E9.56182
G1 X93.550 Y113.550 E9.63393
G1 X94.070 Y113.083 E9.69753
G1 F1800.000 E5.19753
G92 E0
G1 X98.928 Y118.928 F7800.000
G1 E4.50000 F1800.000
G1 X99.242 Y118.686 E4.53600 F540.000
G1 X99.607 Y118.535 E4.57200
G1 X100.000 Y118.483 E4.60801
G1 X100.393 Y118.535 E4.64401
G1 X100.758 Y118.687 E4.68001
G1 X101.072 Y118.928 E4.71601
G1 X101.313 Y119.242 E4.75202
G1 X101.465 Y119.607 E4.78802
G1 X101.517 Y120.000 E4.82402
G1 X101.465 Y120.393 E4.86002
G1 X101.313 Y120.758 E4.89603
G1 X101.072 Y121.072 E4.93203
G1 X100.758 Y121.313 E4.96803
G1 X100.393 Y121.465 E5.00403
G1 X100.000 Y121.517 E5.04004
G1 X99.607 Y121.465 E5.07604
G1 X99.242 Y121.313 E5.11204
G1 X98.928 Y121.072 E5.14804
G1 X98.686 Y120.758 E5.18405
G1 X98.535 Y120.393 E5.22005
G1 X98.483 Y120.000 E5.25605
G1 X98.535 Y119.607 E5.29205
G1 X98.686 Y119.242 E5.32806
G1 X98.870 Y119.002 E5.35554
G1 X98.482 Y118.482 F7800.000
G1 X98.927 Y118.141 E5.40650 F540.000
G1 X99.444 Y117.926 E5.45746
G1 X100.000 Y117.853 E5.50843
G1 X100.556 Y117.926 E5.55939
G1 X101.073 Y118.141 E5.61035
G1 X101.518 Y118.482 E5.66132
G1 X101.859 Y118.927 E5.71228
G1 X102.074 Y119.444 E5.76325
G1 X102.147 Y120.000 E5.81421
G1 X102.074 Y120.556 E5.86517
G1 X101.859 Y121.073 E5.91614
G1 X101.518 Y121.518 E5.96710
G1 X101.073 Y121.859 E6.01806
G1 X100.556 Y122.074 E6.06903
G1 X100.000 Y122.147 E6.11999
G1 X99.444 Y122.074 E6.17095
G1 X98.927 Y121.859 E6.22192
G1 X98.482 Y121.518 E6.27288
G1 X98.141 Y121.073 E6.32385
G1 X97.926 Y120.556 E6.37481
G1 X97.853 Y120.000 E6.42577
G1 X97.926 Y119.444 E6.47674
G1 X98.141 Y118.927 E6.52770
G1 X98.425 Y118.556 E6.57014
G1 X99.016 Y118.650 F7800.000
G1 X100.804 Y119.305 F7800.000
G1 X100.695 Y119.196 E6.58589 F1080.000
G1 X99.541 Y119.042 E6.70557
G1 X100.958 Y120.459 E6.91154
G1 X100.459 Y120.958 E6.98418
G1 X99.042 Y119.541 E7.19015
G1 X99.196 Y120.695 E7.30983
G1 X99.305 Y120.804 E7.32558
M106 S255
M140 S60 ; set bed temperature
G1 F1800.000 E2.82558
G92 E0
G1 Z0.600 F7800.000
G1 X98.906 Y121.623 F7800.000
G1 E4.50000 F1800.000
G1 X98.607 Y121.393 E4.51371 F600.000
G1 X98.161 Y120.813 E4.54033
G1 X98.222 Y120.813 E4.54254
G1 X98.097 Y120.510 E4.55447
G1 X98.030 Y120.000 E4.57318
G1 X98.097 Y119.490 E4.59189
G1 X98.294 Y119.015 E4.61060
G1 X98.607 Y118.607 E4.62932
G1 X99.015 Y118.294 E4.64803
G1 X99.490 Y118.097 E4.66674
G1 X100.000 Y118.030 E4.68546
G1 X100.136 Y118.047 E4.69046
G1 X100.510 Y118.097 E4.70417
G1 X100.985 Y118.294 E4.72288
G1 X101.393 Y118.607 E4.74159
G1 X101.706 Y119.015 E4.76031
G1 X101.903 Y119.490 E4.77902
G1 X101.970 Y120.000 E4.79773
G1 X101.903 Y120.510 E4.81645
G1 X101.706 Y120.985 E4.83516
G1 X101.393 Y121.393 E4.85387
G1 X100.985 Y121.706 E4.87258
G1 X100.510 Y121.903 E4.89130
G1 X100.000 Y121.970 E4.91001
G1 X99.490 Y121.903 E4.92872
G1 X99.015 Y121.706 E4.94744
G1 X98.947 Y121.655 E4.95053
G1 X98.693 Y121.900 F7800.000
G1 X98.357 Y121.643 E4.96592 F600.000
G1 X97.988 Y121.162 E4.98798
G1 X97.756 Y120.601 E5.01005
G1 X97.677 Y120.000 E5.03211
G1 X97.756 Y119.399 E5.05418
G1 X97.988 Y118.838 E5.07624
G1 X98.357 Y118.357 E5.09831
G1 X98.503 Y118.245 E5.10499
G1 X98.838 Y117.988 E5.12037
G1 X99.399 Y117.756 E5.14244
G1 X100.000 Y117.677 E5.16450
G1 X100.601 Y117.756 E5.18657
G1 X101.162 Y117.988 E5.20863
G1 X101.643 Y118.357 E5.23070
G1 X102.012 Y118.838 E5.25276
G1 X102.244 Y119.399 E5.27483
G1 X102.323 Y120.000 E5.29690
G1 X102.244 Y120.601 E5.31896
G1 X102.012 Y121.162 E5.34103
G1 X101.643 Y121.643 E5.36309
G1 X101.162 Y122.012 E5.38516
G1 X100.601 Y122.244 E5.40722
G1 X100.000 Y122.323 E5.42929
G1 X99.399 Y122.244 E5.45135
G1 X98.838 Y122.012 E5.47342
G1 X98.734 Y121.932 E5.47819
G1 X98.738 Y121.553 F7800.000
G1 X100.108 Y121.703 F7800.000
G1 X101.703 Y120.108 E5.57822 F600.000
G1 X101.656 Y119.551 E5.60300
G1 X99.551 Y121.656 E5.73505
G1 X99.127 Y121.476 E5.75544
G1 X101.476 Y119.128 E5.90272
G1 X101.207 Y118.793 E5.92175
G1 X98.793 Y121.207 E6.07312
G1 X98.524 Y120.872 E6.09215
G1 X100.872 Y118.524 E6.23943
G1 X100.449 Y118.344 E6.25983
G1 X98.344 Y120.449 E6.39187
G1 X98.297 Y119.892 E6.41666
G1 X99.892 Y118.297 E6.51669
G1 X98.847 Y118.739 F7800.000
G1 X98.739 Y118.847 E6.52348 F600.000
G1 X101.153 Y121.261 F7800.000
G1 X101.261 Y121.153 E6.53028 F600.000
G1 F1800.000 E2.03028
G92 E0
G1 Z0.850 F7800.000
G1 X101.393 Y121.393 F7800.000
G1 E4.50000 F1800.000
G1 X100.985 Y121.706 E4.51871 F600.000
G1 X100.510 Y121.903 E4.53743
G1 X100.000 Y121.970 E4.55614
G1 X99.490 Y121.903 E4.57485
G1 X99.015 Y121.706 E4.59356
G1 X98.607 Y121.393 E4.61228
G1 X98.294 Y120.985 E4.63099
G1 X98.191 Y120.738 E4.64074
G1 X98.097 Y120.510 E4.64970
G1 X98.030 Y120.000 E4.66842
G1 X98.097 Y119.490 E4.68713
G1 X98.199 Y119.242 E4.69688
G1 X98.294 Y119.015 E4.70584
G1 X98.607 Y118.607 E4.72455
G1 X99.015 Y118.294 E4.74327
G1 X99.255 Y118.194 E4.75271
G1 X99.490 Y118.097 E4.76198
G1 X100.000 Y118.030 E4.78069
G1 X100.510 Y118.097 E4.79941
G1 X100.738 Y118.191 E4.80837
G1 X100.985 Y118.294 E4.81812
G1 X101.393 Y118.607 E4.83683
G1 X101.706 Y119.015 E4.85554
G1 X101.903 Y119.490 E4.87426
G1 X101.970 Y120.000 E4.89297
G1 X101.903 Y120.510 E4.91168
G1 X101.706 Y120.985 E4.93040
G1 X101.425 Y121.352 E4.94720
G1 X101.643 Y121.643 F7800.000
G1 X101.162 Y122.012 E4.96926 F600.000
G1 X100.601 Y122.244 E4.99133
G1 X100.000 Y122.323 E5.01339
G1 X99.399 Y122.244 E5.03546
G1 X98.838 Y122.012 E5.05752
G1 X98.357 Y121.643 E5.07959
G1 X97.988 Y121.162 E5.10166
G1 X97.868 Y120.872 E5.11308
G1 X97.756 Y120.601 E5.12372
G1 X97.677 Y120.000 E5.14579
G1 X97.756 Y119.399 E5.16785
G1 X97.876 Y119.108 E5.17928
G1 X97.988 Y118.838 E5.18992
G1 X98.357 Y118.357 E5.21198
G1 X98.838 Y117.988 E5.23405
G1 X99.000 Y117.921 E5.24043
G1 X99.399 Y117.756 E5.25611
G1 X100.000 Y117.677 E5.27818
G1 X100.601 Y117.756 E5.30024
G1 X100.872 Y117.868 E5.31088
G1 X101.162 Y117.988 E5.32231
G1 X101.643 Y118.357 E5.34437
G1 X102.012 Y118.838 E5.36644
G1 X102.244 Y119.399 E5.38850
G1 X102.323 Y120.000 E5.41057
G1 X102.244 Y120.601 E5.43264
G1 X102.012 Y121.162 E5.45470
G1 X101.675 Y121.601 E5.47486
G1 X101.309 Y121.538 F7800.000
G1 X101.703 Y119.892 F7800.000
G1 X100.108 Y118.297 E5.57488 F600.000
G1 X99.551 Y118.344 E5.59967
G1 X101.656 Y120.449 E5.73171
G1 X101.476 Y120.872 E5.75211
G1 X99.128 Y118.524 E5.89939
G1 X98.793 Y118.793 E5.91842
G1 X101.207 Y121.207 E6.06978
G1 X100.872 Y121.476 E6.08881
G1 X98.524 Y119.128 E6.23609
G1 X98.344 Y119.551 E6.25649
G1 X100.449 Y121.656 E6.38853
G1 X99.892 Y121.703 E6.41332
G1 X98.297 Y120.108 E6.51334
G1 X98.739 Y121.153 F7800.000
G1 X98.847 Y121.261 E6.52014 F600.000
G1 X101.261 Y118.847 F7800.000
G1 X101.153 Y118.739 E6.52693 F600.000
G1 F1800.000 E2.02693
G92 E0
G1 Z1.100 F7800.000
G1 X101.267 Y118.510 F7800.000
G1 E4.50000 F1800.000
G1 X101.393 Y118.607 E4.50580 F600.000
G1 X101.706 Y119.015 E4.52451
G1 X101.903 Y119.490 E4.54322
G1 X101.970 Y120.000 E4.56193
G1 X101.903 Y120.510 E4.58065
G1 X101.706 Y120.985 E4.59936
G1 X101.393 Y121.393 E4.61807
G1 X100.985 Y121.706 E4.63678
G1 X100.510 Y121.903 E4.65550
G1 X100.000 Y121.970 E4.67421
G1 X99.490 Y121.903 E4.69292
G1 X99.015 Y121.706 E4.71164
G1 X98.607 Y121.393 E4.73035
G1 X98.294 Y120.985 E4.74906
G1 X98.233 Y120.838 E4.75486
G1 X98.097 Y120.510 E4.76777
G1 X98.030 Y120.000 E4.78649
G1 X98.097 Y119.490 E4.80520
G1 X98.294 Y119.015 E4.82391
G1 X98.607 Y118.607 E4.84263
G1 X99.015 Y118.294 E4.86134
G1 X99.490 Y118.097 E4.88005
G1 X100.000 Y118.030 E4.89876
G1 X100.510 Y118.097 E4.91748
G1 X100.985 Y118.294 E4.93619
G1 X101.225 Y118.478 E4.94720
G1 X101.480 Y118.232 F7800.000
G1 X101.643 Y118.357 E4.95467 F600.000
G1 X102.012 Y118.838 E4.97673
G1 X102.244 Y119.399 E4.99880
G1 X102.323 Y120.000 E5.02087
G1 X102.244 Y120.601 E5.04293
G1 X102.012 Y121.162 E5.06500
G1 X101.643 Y121.643 E5.08706
G1 X101.162 Y122.012 E5.10913
G1 X100.601 Y122.244 E5.13119
G1 X100.000 Y122.323 E5.15326
G1 X99.399 Y122.244 E5.17532
G1 X98.838 Y122.012 E5.19739
G1 X98.357 Y121.643 E5.21945
G1 X97.988 Y121.162 E5.24152
G1 X97.909 Y120.972 E5.24899
G1 X97.756 Y120.601 E5.26358
G1 X97.677 Y120.000 E5.28565
G1 X97.756 Y119.399 E5.30771
G1 X97.988 Y118.838 E5.32978
G1 X98.357 Y118.357 E5.35185
G1 X98.838 Y117.988 E5.37391
G1 X99.451 Y117.734 E5.39803
G1 X99.451 Y117.749 E5.39857
G1 X100.000 Y117.677 E5.41872
G1 X100.601 Y117.756 E5.44078
G1 X101.162 Y117.988 E5.46285
G1 X101.438 Y118.200 E5.47553
G1 X101.453 Y118.436 F7800.000
G1 X99.892 Y118.297 F7800.000
G1 X98.297 Y119.892 E5.57556 F600.000
G1 X98.344 Y120.449 E5.60034
G1 X100.449 Y118.344 E5.73239
G1 X100.872 Y118.524 E5.75279
G1 X98.524 Y120.872 E5.90006
G1 X98.793 Y121.207 E5.91909
G1 X101.207 Y118.793 E6.07046
G1 X101.476 Y119.128 E6.08949
G1 X99.128 Y121.476 E6.23677
G1 X99.551 Y121.656 E6.25716
G1 X101.656 Y119.551 E6.38921
G1 X101.703 Y120.108 E6.41399
G1 X100.108 Y121.703 E6.51402
G1 X101.153 Y121.261 F7800.000
G1 X101.261 Y121.153 E6.52082 F600.000
G1 X98.847 Y118.739 F7800.000
G1 X98.739 Y118.847 E6.52761 F600.000
G1 F1800.000 E2.02761
G92 E0
G1 Z1.350 F7800.000
G1 X98.607 Y118.607 F7800.000
G1 E4.50000 F1800.000
G1 X99.015 Y118.294 E4.51871 F600.000
G1 X99.490 Y118.097 E4.53743
G1 X100.000 Y118.030 E4.55614
G1 X100.510 Y118.097 E4.57485
G1 X100.985 Y118.294 E4.59356
G1 X101.393 Y118.607 E4.61228
G1 X101.726 Y119.061 E4.63277
G1 X101.903 Y119.490 E4.64965
G1 X101.970 Y120.000 E4.66836
G1 X101.903 Y120.510 E4.68707
G1 X101.706 Y120.985 E4.70578
G1 X101.393 Y121.393 E4.72450
G1 X100.985 Y121.706 E4.74321
G1 X100.510 Y121.903 E4.76192
G1 X100.000 Y121.970 E4.78064
G1 X99.490 Y121.903 E4.79935
G1 X99.061 Y121.726 E4.81622
G1 X98.607 Y121.393 E4.83672
G1 X98.274 Y120.939 E4.85721
G1 X98.097 Y120.510 E4.87409
G1 X98.030 Y120.000 E4.89280
G1 X98.097 Y119.490 E4.91151
G1 X98.294 Y119.015 E4.93022
G1 X98.575 Y118.648 E4.94703
G1 X98.357 Y118.357 F7800.000
G1 X98.838 Y117.988 E4.96909 F600.000
G1 X99.399 Y117.756 E4.99116
G1 X100.000 Y117.677 E5.01322
G1 X100.601 Y117.756 E5.03529
G1 X101.162 Y117.988 E5.05735
G1 X101.643 Y118.357 E5.07942
G1 X102.012 Y118.838 E5.10148
G1 X102.244 Y119.399 E5.12355
G1 X102.323 Y120.000 E5.14561
G1 X102.244 Y120.601 E5.16768
G1 X102.012 Y121.162 E5.18975
G1 X101.643 Y121.643 E5.21181
G1 X101.162 Y122.012 E5.23388
G1 X100.601 Y122.244 E5.25594
G1 X100.000 Y122.323 E5.27801
G1 X99.399 Y122.244 E5.30007
G1 X98.838 Y122.012 E5.32214
G1 X98.357 Y121.643 E5.34420
G1 X97.988 Y121.162 E5.36627
G1 X97.756 Y120.601 E5.38833
G1 X97.677 Y120.000 E5.41040
G1 X97.756 Y119.399 E5.43246
G1 X97.988 Y118.838 E5.45453
G1 X98.325 Y118.399 E5.47469
G1 X98.691 Y118.462 F7800.000
G1 X98.297 Y120.106 F7800.000
G1 X99.894 Y121.703 E5.57476 F600.000
G1 X100.450 Y121.656 E5.59951
G1 X98.344 Y119.550 E5.73153
G1 X98.524 Y119.127 E5.75191
G1 X100.873 Y121.476 E5.89913
G1 X101.207 Y121.207 E5.91815
G1 X98.793 Y118.793 E6.06946
G1 X99.128 Y118.524 E6.08848
G1 X101.476 Y120.872 E6.23570
G1 X101.656 Y120.449 E6.25608
G1 X99.551 Y118.344 E6.38808
G1 X100.107 Y118.297 E6.41284
G1 X101.703 Y119.893 E6.51286
G1 X101.250 Y118.837 F7800.000
G1 X101.150 Y118.737 E6.51914 F600.000
G1 X98.748 Y121.160 F7800.000
G1 X98.840 Y121.252 E6.52492 F600.000
G1 F1800.000 E2.02492
G92 E0
G1 Z1.600 F7800.000
G1 X98.607 Y121.393 F7800.000
G1 E4.50000 F1800.000
G1 X98.294 Y120.985 E4.51871 F600.000
G1 X98.097 Y120.510 E4.53743
G1 X98.030 Y120.000 E4.55614
G1 X98.097 Y119.490 E4.57485
G1 X98.294 Y119.015 E4.59356
G1 X98.607 Y118.607 E4.61228
G1 X99.015 Y118.294 E4.63099
G1 X99.490 Y118.097 E4.64970
G1 X100.000 Y118.030 E4.66842
G1 X100.510 Y118.097 E4.68713
G1 X100.985 Y118.294 E4.70584
G1 X101.393 Y118.607 E4.72455
G1 X101.706 Y119.015 E4.74327
G1 X101.903 Y119.490 E4.76198
G1 X101.970 Y120.000 E4.78069
G1 X101.903 Y120.510 E4.79941
G1 X101.706 Y120.985 E4.81812
G1 X101.393 Y121.393 E4.83683
G1 X100.985 Y121.706 E4.85554
G1 X100.510 Y121.903 E4.87426
G1 X100.000 Y121.970 E4.89297
G1 X99.490 Y121.903 E4.91168
G1 X99.015 Y121.706 E4.93040
G1 X98.648 Y121.425 E4.94720
G1 X98.357 Y121.643 F7800.000
G1 X97.988 Y121.162 E4.96926 F600.000
G1 X97.756 Y120.601 E4.99133
G1 X97.677 Y120.000 E5.01339
G1 X97.756 Y119.399 E5.03546
G1 X97.988 Y118.838 E5.05752
G1 X98.357 Y118.357 E5.07959
G1 X98.838 Y117.988 E5.10166
G1 X99.399 Y117.756 E5.12372
G1 X100.000 Y117.677 E5.14579
G1 X100.601 Y117.756 E5.16785
G1 X101.162 Y117.988 E5.18992
G1 X101.643 Y118.357 E5.21198
G1 X102.012 Y118.838 E5.23405
G1 X102.244 Y119.399 E5.25611
G1 X102.323 Y120.000 E5.27818
G1 X102.244 Y120.601 E5.30024
G1 X102.012 Y121.162 E5.32231
G1 X101.643 Y121.643 E5.34437
G1 X101.162 Y122.012 E5.36644
G1 X100.601 Y122.244 E5.38850
G1 X100.000 Y122.323 E5.41057
