; generated by Slic3r 1.0.1 on 2014-08-27 at 15:06:06

; layer_height = 0.25
; perimeters = 2
; top_solid_layers = 2
; bottom_solid_layers = 2
; fill_density = 0.2
; perimeter_speed = 30
; infill_speed = 60
; travel_speed = 130
; nozzle_diameter = 0.35
; filament_diameter = 1.75
; extrusion_multiplier = 1
; perimeters extrusion width = 0.35mm
; infill extrusion width = 0.39mm
; solid infill extrusion width = 0.39mm
; top infill extrusion width = 0.39mm
; first layer extrusion width = 0.70mm

G21 ; set units to millimeters
M107
M84 S0 ; don't let go of motors
M108 S155 ; make sure extruder and electronics fans are running
M140 S70
M104 S210
G28 X0 Y0; home X and Y
G1 F10800 ; set high speed
G1 Y20 ; move into the platform along Y
G1 X205 ; move off the platform end along X
G28 Z0 ; home Z now - blobs won't hit the platform
G1 F400
G1 Z10 ; lift Z a little
M190 S70
M109 S210 ; wait for temperature to be reached
G28 Z0 ; home Z
G92 E0 ; reset extruder position to 0
G1 F300 ; set suitable speed
G1 E25 ; extrude 25mm
G92 E0 ; reset extruder position to 0 - needed for cura/SF
G1 F10800 ; set wipe speed
G1 X0 ; wipe nozzle and move to X0
G90 ; use absolute coordinates
G92 E0
M82 ; use absolute distances for extrusion
G1 F1800.000 E-4.50000
G92 E0
G1 Z0.350 F7800.000
G1 X88.640 Y107.520 F7800.000
G1 E4.50000 F1800.000
G1 X89.150 Y107.120 E4.55894 F540.000
G1 X89.910 Y106.600 E4.64267
G1 X90.730 Y106.200 E4.72563
G1 X91.340 Y105.950 E4.78558
G1 X92.170 Y105.670 E4.86523
G1 X93.040 Y105.500 E4.94583
G1 X93.690 Y105.420 E5.00538
G1 X94.500 Y105.380 E5.07912
G1 X105.500 Y105.380 E6.07935
G1 X106.320 Y105.430 E6.15405
G1 X106.960 Y105.510 E6.21270
G1 X107.820 Y105.670 E6.29224
G1 X108.650 Y105.950 E6.37189
G1 X109.260 Y106.200 E6.43183
G1 X110.080 Y106.600 E6.51479
G1 X110.840 Y107.120 E6.59853
G1 X111.350 Y107.520 E6.65746
G1 X111.970 Y108.070 E6.73283
G1 X112.510 Y108.690 E6.80759
G1 X112.910 Y109.210 E6.86724
G1 X113.390 Y109.930 E6.94593
G1 X113.780 Y110.700 E7.02441
G1 X114.030 Y111.300 E7.08352
G1 X114.300 Y112.110 E7.16115
G1 X114.470 Y112.940 E7.23819
G1 X114.560 Y113.590 E7.29786
G1 X114.620 Y114.500 E7.38078
G1 X114.620 Y125.500 E8.38101
G1 X114.560 Y126.420 E8.46484
G1 X114.470 Y127.060 E8.52361
G1 X114.300 Y127.870 E8.59887
G1 X114.040 Y128.650 E8.67363
G1 X113.790 Y129.260 E8.73357
G1 X113.390 Y130.080 E8.81653
G1 X112.870 Y130.840 E8.90027
G1 X112.470 Y131.350 E8.95920
G1 X111.940 Y131.940 E9.03132
G1 X111.350 Y132.470 E9.10344
G1 X110.840 Y132.870 E9.16237
G1 X110.080 Y133.390 E9.24611
G1 X109.260 Y133.790 E9.32907
G1 X108.650 Y134.040 E9.38901
G1 X107.870 Y134.300 E9.46377
G1 X107.060 Y134.470 E9.53903
G1 X106.420 Y134.560 E9.59780
G1 X105.660 Y134.620 E9.66712
G1 X104.900 Y134.600 E9.73625
G1 X93.900 Y133.600 E10.74060
G1 X92.940 Y133.470 E10.82869
G1 X92.110 Y133.300 E10.90573
G1 X91.300 Y133.030 E10.98337
G1 X90.700 Y132.780 E11.04247
G1 X89.930 Y132.390 E11.12095
G1 X89.210 Y131.910 E11.19964
G1 X88.690 Y131.510 E11.25929
G1 X88.070 Y130.970 E11.33405
G1 X87.520 Y130.350 E11.40942
G1 X87.120 Y129.840 E11.46835
G1 X86.600 Y129.080 E11.55209
G1 X86.200 Y128.260 E11.63505
G1 X85.950 Y127.650 E11.69499
G1 X85.670 Y126.820 E11.77464
G1 X85.510 Y125.960 E11.85418
G1 X85.430 Y125.320 E11.91283
G1 X85.380 Y124.500 E11.98753
G1 X85.380 Y114.500 E12.89683
G1 X85.420 Y113.690 E12.97057
G1 X85.500 Y113.040 E13.03012
G1 X85.670 Y112.160 E13.11162
G1 X85.960 Y111.310 E13.19328
G1 X86.180 Y110.780 E13.24546
G1 X86.550 Y109.990 E13.32478
G1 X87.120 Y109.150 E13.41709
G1 X87.520 Y108.640 E13.47603
G1 X88.050 Y108.050 E13.54814
G1 X88.570 Y107.583 E13.61174
G1 F1800.000 E9.11174
G92 E0
G1 X104.035 Y114.107 F7800.000
G1 E4.50000 F1800.000
G1 X104.186 Y113.742 E4.53600 F540.000
G1 X104.428 Y113.428 E4.57200
G1 X104.742 Y113.186 E4.60801
G1 X105.107 Y113.035 E4.64401
G1 X105.500 Y112.983 E4.68001
G1 X105.893 Y113.035 E4.71601
G1 X106.258 Y113.187 E4.75202
G1 X106.572 Y113.428 E4.78802
G1 X106.813 Y113.742 E4.82402
G1 X106.965 Y114.107 E4.86002
G1 X107.017 Y114.500 E4.89603
G1 X106.965 Y114.893 E4.93203
G1 X106.813 Y115.258 E4.96803
G1 X106.572 Y115.572 E5.00403
G1 X106.258 Y115.813 E5.04004
G1 X105.893 Y115.965 E5.07604
G1 X105.500 Y116.017 E5.11204
G1 X105.107 Y115.965 E5.14804
G1 X104.742 Y115.813 E5.18405
G1 X104.428 Y115.572 E5.22005
G1 X104.187 Y115.258 E5.25605
G1 X104.035 Y114.893 E5.29205
G1 X103.983 Y114.500 E5.32806
G1 X104.023 Y114.200 E5.35554
G1 X103.426 Y113.944 F7800.000
G1 X103.641 Y113.427 E5.40650 F540.000
G1 X103.982 Y112.982 E5.45746
G1 X104.427 Y112.641 E5.50843
G1 X104.944 Y112.426 E5.55939
G1 X105.500 Y112.353 E5.61035
G1 X106.056 Y112.426 E5.66132
G1 X106.573 Y112.641 E5.71228
G1 X107.018 Y112.982 E5.76325
G1 X107.359 Y113.427 E5.81421
G1 X107.574 Y113.944 E5.86517
G1 X107.647 Y114.500 E5.91614
G1 X107.574 Y115.056 E5.96710
G1 X107.359 Y115.573 E6.01806
G1 X107.018 Y116.018 E6.06903
G1 X106.573 Y116.359 E6.11999
G1 X106.056 Y116.574 E6.17095
G1 X105.500 Y116.647 E6.22192
G1 X104.944 Y116.574 E6.27288
G1 X104.427 Y116.359 E6.32385
G1 X103.982 Y116.018 E6.37481
G1 X103.641 Y115.573 E6.42577
G1 X103.426 Y115.056 E6.47674
G1 X103.353 Y114.500 E6.52770
G1 X103.414 Y114.037 E6.57014
G1 X103.973 Y113.823 F7800.000
G1 X104.805 Y115.304 F7800.000
G1 X104.696 Y115.195 E6.58589 F1080.000
G1 X104.542 Y114.041 E6.70557
G1 X105.959 Y115.458 E6.91155
G1 X106.458 Y114.959 E6.98418
G1 X105.041 Y113.542 E7.19016
G1 X106.195 Y113.696 E7.30983
G1 X106.304 Y113.805 E7.32558
G1 F1800.000 E2.82558
G92 E0
G1 X105.500 Y123.983 F7800.000
G1 E4.50000 F1800.000
G1 X105.893 Y124.035 E4.53600 F540.000
G1 X106.258 Y124.187 E4.57200
G1 X106.572 Y124.428 E4.60801
G1 X106.813 Y124.742 E4.64401
G1 X106.965 Y125.107 E4.68001
G1 X107.017 Y125.500 E4.71601
G1 X106.965 Y125.893 E4.75202
G1 X106.813 Y126.258 E4.78802
G1 X106.572 Y126.572 E4.82402
G1 X106.258 Y126.813 E4.86002
G1 X105.893 Y126.965 E4.89603
G1 X105.500 Y127.017 E4.93203
G1 X105.107 Y126.965 E4.96803
G1 X104.742 Y126.813 E5.00403
G1 X104.428 Y126.572 E5.04004
G1 X104.187 Y126.258 E5.07604
G1 X104.035 Y125.893 E5.11204
G1 X103.983 Y125.500 E5.14804
G1 X104.035 Y125.107 E5.18405
G1 X104.186 Y124.742 E5.22005
G1 X104.428 Y124.428 E5.25605
G1 X104.742 Y124.186 E5.29205
G1 X105.107 Y124.035 E5.32806
G1 X105.407 Y123.996 E5.35554
G1 X105.500 Y123.353 F7800.000
G1 X106.056 Y123.426 E5.40650 F540.000
G1 X106.573 Y123.641 E5.45746
G1 X107.018 Y123.982 E5.50843
G1 X107.359 Y124.427 E5.55939
G1 X107.574 Y124.944 E5.61035
G1 X107.647 Y125.500 E5.66132
G1 X107.574 Y126.056 E5.71228
G1 X107.359 Y126.573 E5.76324
G1 X107.018 Y127.018 E5.81421
G1 X106.573 Y127.359 E5.86517
G1 X106.056 Y127.574 E5.91614
G1 X105.500 Y127.647 E5.96710
G1 X104.944 Y127.574 E6.01806
G1 X104.427 Y127.359 E6.06903
G1 X103.982 Y127.018 E6.11999
G1 X103.641 Y126.573 E6.17095
G1 X103.426 Y126.056 E6.22192
G1 X103.353 Y125.500 E6.27288
G1 X103.426 Y124.944 E6.32385
G1 X103.641 Y124.427 E6.37481
G1 X103.982 Y123.982 E6.42577
G1 X104.427 Y123.641 E6.47674
G1 X104.944 Y123.426 E6.52770
G1 X105.407 Y123.365 E6.57014
G1 X105.759 Y123.850 F7800.000
G1 X106.304 Y124.805 F7800.000
G1 X106.195 Y124.696 E6.58589 F1080.000
G1 X105.041 Y124.542 E6.70557
G1 X106.458 Y125.959 E6.91154
G1 X105.959 Y126.458 E6.98418
G1 X104.542 Y125.041 E7.19015
G1 X104.696 Y126.195 E7.30983
G1 X104.805 Y126.304 E7.32558
G1 F1800.000 E2.82558
G92 E0
G1 X95.965 Y124.893 F7800.000
G1 E4.50000 F1800.000
G1 X95.813 Y125.258 E4.53600 F540.000
G1 X95.572 Y125.572 E4.57200
G1 X95.258 Y125.813 E4.60801
G1 X94.893 Y125.965 E4.64401
G1 X94.500 Y126.017 E4.68001
G1 X94.107 Y125.965 E4.71601
G1 X93.742 Y125.813 E4.75202
G1 X93.428 Y125.572 E4.78802
G1 X93.186 Y125.258 E4.82402
G1 X93.035 Y124.893 E4.86002
G1 X92.983 Y124.500 E4.89603
G1 X93.035 Y124.107 E4.93203
G1 X93.186 Y123.742 E4.96803
G1 X93.428 Y123.428 E5.00403
G1 X93.742 Y123.186 E5.04004
G1 X94.107 Y123.035 E5.07604
G1 X94.500 Y122.983 E5.11204
G1 X94.893 Y123.035 E5.14804
G1 X95.258 Y123.187 E5.18405
G1 X95.572 Y123.428 E5.22005
G1 X95.813 Y123.742 E5.25605
G1 X95.965 Y124.107 E5.29205
G1 X96.017 Y124.500 E5.32806
G1 X95.977 Y124.800 E5.35554
G1 X96.574 Y125.056 F7800.000
G1 X96.359 Y125.573 E5.40650 F540.000
G1 X96.018 Y126.018 E5.45746
G1 X95.573 Y126.359 E5.50843
G1 X95.056 Y126.574 E5.55939
G1 X94.500 Y126.647 E5.61035
G1 X93.944 Y126.574 E5.66132
G1 X93.427 Y126.359 E5.71228
G1 X92.982 Y126.018 E5.76324
G1 X92.641 Y125.573 E5.81421
G1 X92.426 Y125.056 E5.86517
G1 X92.353 Y124.500 E5.91614
G1 X92.426 Y123.944 E5.96710
G1 X92.641 Y123.427 E6.01806
G1 X92.982 Y122.982 E6.06903
G1 X93.427 Y122.641 E6.11999
G1 X93.944 Y122.426 E6.17095
G1 X94.500 Y122.353 E6.22192
G1 X95.056 Y122.426 E6.27288
G1 X95.573 Y122.641 E6.32385
G1 X96.018 Y122.982 E6.37481
G1 X96.359 Y123.427 E6.42577
G1 X96.574 Y123.944 E6.47674
G1 X96.647 Y124.500 E6.52770
G1 X96.586 Y124.963 E6.57014
G1 X96.027 Y125.177 F7800.000
G1 X95.304 Y123.805 F7800.000
G1 X95.195 Y123.696 E6.58589 F1080.000
G1 X94.041 Y123.542 E6.70557
G1 X95.458 Y124.959 E6.91154
G1 X94.959 Y125.458 E6.98418
G1 X93.542 Y124.041 E7.19015
G1 X93.696 Y125.195 E7.30983
G1 X93.805 Y125.304 E7.32558
G1 F1800.000 E2.82558
G92 E0
G1 X94.500 Y116.017 F7800.000
G1 E4.50000 F1800.000
G1 X94.107 Y115.965 E4.53600 F540.000
G1 X93.742 Y115.813 E4.57201
G1 X93.428 Y115.572 E4.60801
G1 X93.186 Y115.258 E4.64401
G1 X93.035 Y114.893 E4.68001
G1 X92.983 Y114.500 E4.71601
G1 X93.035 Y114.107 E4.75202
G1 X93.186 Y113.742 E4.78802
G1 X93.428 Y113.428 E4.82402
G1 X93.742 Y113.186 E4.86002
G1 X94.107 Y113.035 E4.89603
G1 X94.500 Y112.983 E4.93203
G1 X94.893 Y113.035 E4.96803
G1 X95.258 Y113.187 E5.00403
G1 X95.572 Y113.428 E5.04004
G1 X95.813 Y113.742 E5.07604
G1 X95.965 Y114.107 E5.11204
G1 X96.017 Y114.500 E5.14804
G1 X95.965 Y114.893 E5.18405
G1 X95.813 Y115.258 E5.22005
G1 X95.572 Y115.572 E5.25605
G1 X95.258 Y115.813 E5.29205
G1 X94.893 Y115.965 E5.32806
G1 X94.593 Y116.004 E5.35554
G1 X94.500 Y116.647 F7800.000
G1 X93.944 Y116.574 E5.40650 F540.000
G1 X93.427 Y116.359 E5.45746
G1 X92.982 Y116.018 E5.50843
G1 X92.641 Y115.573 E5.55939
G1 X92.426 Y115.056 E5.61035
G1 X92.353 Y114.500 E5.66132
G1 X92.426 Y113.944 E5.71228
G1 X92.641 Y113.427 E5.76325
G1 X92.982 Y112.982 E5.81421
G1 X93.427 Y112.641 E5.86517
G1 X93.944 Y112.426 E5.91614
G1 X94.500 Y112.353 E5.96710
G1 X95.056 Y112.426 E6.01806
G1 X95.573 Y112.641 E6.06903
G1 X96.018 Y112.982 E6.11999
G1 X96.359 Y113.427 E6.17095
G1 X96.574 Y113.944 E6.22192
G1 X96.647 Y114.500 E6.27288
G1 X96.574 Y115.056 E6.32385
G1 X96.359 Y115.573 E6.37481
G1 X96.018 Y116.018 E6.42577
G1 X95.573 Y116.359 E6.47674
G1 X95.056 Y116.574 E6.52770
G1 X94.593 Y116.635 E6.57014
G1 X94.241 Y116.150 F7800.000
G1 X93.805 Y115.304 F7800.000
G1 X93.696 Y115.195 E6.58589 F1080.000
G1 X93.542 Y114.041 E6.70557
G1 X94.959 Y115.458 E6.91154
G1 X95.458 Y114.959 E6.98418
G1 X94.041 Y113.542 E7.19016
G1 X95.195 Y113.696 E7.30983
G1 X95.304 Y113.805 E7.32558
M106 S255
M140 S60 ; set bed temperature
G1 F1800.000 E2.82558
G92 E0
G1 Z0.600 F7800.000
G1 X103.530 Y114.500 F7800.000
G1 E4.50000 F1800.000
G1 X103.597 Y113.990 E4.51871 F600.000
G1 X103.741 Y113.642 E4.53242
G1 X103.794 Y113.515 E4.53743
G1 X104.107 Y113.107 E4.55614
G1 X104.515 Y112.794 E4.57485
G1 X104.642 Y112.741 E4.57986
G1 X104.990 Y112.597 E4.59356
G1 X105.500 Y112.530 E4.61228
G1 X106.010 Y112.597 E4.63099
G1 X106.485 Y112.794 E4.64970
G1 X106.893 Y113.107 E4.66842
G1 X107.206 Y113.515 E4.68713
G1 X107.403 Y113.990 E4.70584
G1 X107.470 Y114.500 E4.72455
G1 X107.403 Y115.010 E4.74327
G1 X107.206 Y115.485 E4.76198
G1 X106.893 Y115.893 E4.78069
G1 X106.485 Y116.206 E4.79941
G1 X106.010 Y116.403 E4.81812
G1 X105.500 Y116.470 E4.83683
G1 X104.990 Y116.403 E4.85554
G1 X104.515 Y116.206 E4.87426
G1 X104.107 Y115.893 E4.89297
G1 X103.661 Y115.313 E4.91959
G1 X103.722 Y115.313 E4.92180
G1 X103.597 Y115.010 E4.93373
G1 X103.536 Y114.552 E4.95053
G1 X103.200 Y114.682 F7800.000
G1 X103.177 Y114.500 E4.95721 F600.000
G1 X103.256 Y113.899 E4.97928
G1 X103.488 Y113.338 E5.00134
G1 X103.857 Y112.857 E5.02341
G1 X104.338 Y112.488 E5.04547
G1 X104.508 Y112.418 E5.05215
G1 X104.899 Y112.256 E5.06754
G1 X105.500 Y112.177 E5.08960
G1 X106.101 Y112.256 E5.11167
G1 X106.271 Y112.326 E5.11835
G1 X106.662 Y112.488 E5.13373
G1 X107.143 Y112.857 E5.15580
G1 X107.512 Y113.338 E5.17786
G1 X107.744 Y113.899 E5.19993
G1 X107.823 Y114.500 E5.22199
G1 X107.744 Y115.101 E5.24406
G1 X107.512 Y115.662 E5.26612
G1 X107.143 Y116.143 E5.28819
G1 X106.662 Y116.512 E5.31026
G1 X106.101 Y116.744 E5.33232
G1 X105.500 Y116.823 E5.35439
G1 X104.899 Y116.744 E5.37645
G1 X104.338 Y116.512 E5.39852
G1 X103.857 Y116.143 E5.42058
G1 X103.488 Y115.662 E5.44265
G1 X103.256 Y115.101 E5.46471
G1 X103.207 Y114.734 E5.47819
G1 X103.346 Y114.570 F7800.000
G1 X104.239 Y113.347 F7800.000
G1 X104.347 Y113.239 E5.48498 F620.025
G1 X105.392 Y112.797 F7800.000
G1 X103.797 Y114.392 E5.58501 F620.025
G1 X103.844 Y114.949 E5.60980
G1 X105.949 Y112.844 E5.74184
G1 X106.372 Y113.024 E5.76224
G1 X104.024 Y115.372 E5.90952
G1 X104.293 Y115.707 E5.92855
G1 X106.707 Y113.293 E6.07992
G1 X106.976 Y113.628 E6.09895
G1 X104.628 Y115.976 E6.24623
G1 X105.051 Y116.156 E6.26662
G1 X107.156 Y114.051 E6.39867
G1 X107.203 Y114.608 E6.42345
G1 X105.608 Y116.203 E6.52348
G1 X106.653 Y115.761 F7800.000
G1 X106.761 Y115.653 E6.53028 F620.025
G1 F1800.000 E2.03028
G92 E0
G1 X105.636 Y123.547 F7800.000
G1 E4.50000 F1800.000
G1 X106.010 Y123.597 E4.51371 F600.000
G1 X106.485 Y123.794 E4.53242
G1 X106.893 Y124.107 E4.55113
G1 X107.206 Y124.515 E4.56985
G1 X107.403 Y124.990 E4.58856
G1 X107.470 Y125.500 E4.60727
G1 X107.403 Y126.010 E4.62599
G1 X107.206 Y126.485 E4.64470
G1 X106.893 Y126.893 E4.66341
G1 X106.485 Y127.206 E4.68212
G1 X106.010 Y127.403 E4.70084
G1 X105.500 Y127.470 E4.71955
G1 X104.990 Y127.403 E4.73826
G1 X104.515 Y127.206 E4.75698
G1 X104.107 Y126.893 E4.77569
G1 X103.661 Y126.313 E4.80231
G1 X103.722 Y126.313 E4.80452
G1 X103.597 Y126.010 E4.81645
G1 X103.530 Y125.500 E4.83516
G1 X103.597 Y124.990 E4.85387
G1 X103.741 Y124.642 E4.86758
G1 X103.794 Y124.515 E4.87258
G1 X104.107 Y124.107 E4.89130
G1 X104.515 Y123.794 E4.91001
G1 X104.990 Y123.597 E4.92872
G1 X105.500 Y123.530 E4.94744
G1 X105.584 Y123.541 E4.95053
G1 X105.682 Y123.200 F7800.000
G1 X106.101 Y123.256 E4.96592 F600.000
G1 X106.662 Y123.488 E4.98798
G1 X107.143 Y123.857 E5.01005
G1 X107.512 Y124.338 E5.03211
G1 X107.744 Y124.899 E5.05418
G1 X107.823 Y125.500 E5.07624
G1 X107.744 Y126.101 E5.09831
G1 X107.512 Y126.662 E5.12037
G1 X107.143 Y127.143 E5.14244
G1 X106.662 Y127.512 E5.16450
G1 X106.101 Y127.744 E5.18657
G1 X105.500 Y127.823 E5.20863
G1 X104.899 Y127.744 E5.23070
G1 X104.338 Y127.512 E5.25276
G1 X103.857 Y127.143 E5.27483
G1 X103.488 Y126.662 E5.29690
G1 X103.326 Y126.271 E5.31228
G1 X103.256 Y126.101 E5.31896
G1 X103.177 Y125.500 E5.34103
G1 X103.256 Y124.899 E5.36309
G1 X103.418 Y124.508 E5.37848
G1 X103.488 Y124.338 E5.38516
G1 X103.857 Y123.857 E5.40722
G1 X104.338 Y123.488 E5.42929
G1 X104.899 Y123.256 E5.45135
G1 X105.500 Y123.177 E5.47342
G1 X105.630 Y123.194 E5.47819
G1 X105.816 Y123.524 F7800.000
G1 X105.392 Y123.797 F7800.000
G1 X103.797 Y125.392 E5.57822 F620.025
G1 X103.844 Y125.949 E5.60300
G1 X105.949 Y123.844 E5.73505
G1 X106.372 Y124.024 E5.75544
G1 X104.024 Y126.372 E5.90272
G1 X104.293 Y126.707 E5.92175
G1 X106.707 Y124.293 E6.07312
G1 X106.976 Y124.628 E6.09215
G1 X104.628 Y126.976 E6.23943
G1 X105.051 Y127.156 E6.25983
G1 X107.156 Y125.051 E6.39187
G1 X107.203 Y125.608 E6.41666
G1 X105.608 Y127.203 E6.51669
G1 X106.653 Y126.761 F7800.000
G1 X106.761 Y126.653 E6.52348 F620.025
G1 X104.347 Y124.239 F7800.000
G1 X104.239 Y124.347 E6.53028 F620.025
G1 F1800.000 E2.03028
G92 E0
G1 X96.470 Y124.500 F7800.000
G1 E4.50000 F1800.000
G1 X96.403 Y125.010 E4.51871 F600.000
G1 X96.206 Y125.485 E4.53743
G1 X95.893 Y125.893 E4.55614
G1 X95.485 Y126.206 E4.57485
G1 X95.010 Y126.403 E4.59356
G1 X94.500 Y126.470 E4.61228
G1 X93.990 Y126.403 E4.63099
G1 X93.515 Y126.206 E4.64970
