; generated by Slic3r 1.1.7 on 2014-10-10 at 15:19:07

; perimeters extrusion width = 0.35mm
; infill extrusion width = 0.39mm
; solid infill extrusion width = 0.39mm
; top infill extrusion width = 0.39mm

G21 ; set units to millimeters
M107
M84 S0 ; don't let go of motors
M108 S155 ; make sure extruder and electronics fans are running
M140 S70
M104 S210
G28 X0 Y0; home X and Y
G1 F10800 ; set high speed
G1 Y20 ; move into the platform along Y
G1 X205 ; move off the platform end along X
G28 Z0 ; home Z now - blobs won't hit the platform
G1 F400
G1 Z10 ; lift Z a little
M190 S70
M109 S210 ; wait for temperature to be reached
G28 Z0 ; home Z
G92 E0 ; reset extruder position to 0
G1 F300 ; set suitable speed
G1 E25 ; extrude 25mm
G92 E0 ; reset extruder position to 0 - needed for cura/SF
G1 F10800 ; set wipe speed
G1 X0 ; wipe nozzle and move to X0
G90 ; use absolute coordinates
G92 E0
M82 ; use absolute distances for extrusion
G1 F1800.000 E-4.50000
G92 E0
G1 Z0.350 F7800.000
G1 X64.668 Y104.774 F7800.000
G1 E4.50000 F1800.000
G1 X66.820 Y103.981 E4.70854 F1080.000
G1 X68.000 Y103.875 E4.81625
G1 X132.000 Y103.875 E10.63574
G1 X134.259 Y104.272 E10.84429
G1 X136.247 Y105.415 E11.05283 F1080.000
G1 X137.726 Y107.168 E11.26137
G1 X138.519 Y109.320 E11.46991
G1 X138.625 Y110.500 E11.57762
G1 X138.611 Y125.933 E12.98096
G1 X138.579 Y126.410 E13.02440
G1 X138.463 Y127.315 E13.10733
G1 X138.370 Y127.783 E13.15076
G1 X138.137 Y128.665 E13.23370
G1 X137.637 Y129.961 E13.36001
G1 X136.973 Y131.181 E13.48632
G1 X136.707 Y131.578 E13.52976
G1 X136.154 Y132.303 E13.61267
G1 X135.197 Y133.309 E13.73900
G1 X134.116 Y134.182 E13.86531
G1 X132.930 Y134.906 E13.99162
G1 X131.661 Y135.469 E14.11786
G1 X130.328 Y135.861 E14.24424
G1 X128.955 Y136.076 E14.37054
G1 X128.000 Y136.125 E14.45753
G1 X71.567 Y136.111 E19.58899
G1 X70.186 Y135.964 E19.71524
G1 X68.835 Y135.637 E19.84162
G1 X67.498 Y135.117 E19.97207
G1 X66.320 Y134.473 E20.09420
G1 X65.197 Y133.655 E20.22048
G1 X64.191 Y132.696 E20.34684
G1 X63.876 Y132.337 E20.39030
G1 X63.318 Y131.616 E20.47321
G1 X63.053 Y131.219 E20.51662
G1 X62.594 Y130.430 E20.59956
G1 X62.383 Y130.002 E20.64301
G1 X62.031 Y129.160 E20.72593
G1 X61.639 Y127.828 E20.85226
G1 X61.545 Y127.359 E20.89572
G1 X61.424 Y126.455 E20.97860
G1 X61.375 Y125.500 E21.06560
G1 X61.375 Y110.500 E22.42954
G1 X61.772 Y108.241 E22.63808
G1 X62.915 Y106.253 E22.84663
G1 X64.628 Y104.808 E23.05039
G1 F1800.000 E18.55039
G92 E0
G1 X76.992 Y127.718 F7800.000
G1 E4.50000 F1800.000
G1 X76.513 Y127.916 E4.54707 F540.000
G1 X76.000 Y127.983 E4.59415
G1 X75.487 Y127.916 E4.64124
G1 X75.008 Y127.718 E4.68832
G1 X74.598 Y127.402 E4.73539
G1 X74.282 Y126.992 E4.78246
G1 X74.084 Y126.513 E4.82954
G1 X74.017 Y126.000 E4.87663
G1 X74.084 Y125.487 E4.92371
G1 X74.282 Y125.008 E4.97078
G1 X74.598 Y124.598 E5.01786
G1 X75.008 Y124.282 E5.06494
G1 X75.487 Y124.084 E5.11201
G1 X76.000 Y124.017 E5.15909
G1 X76.363 Y124.065 E5.19243
G1 X76.513 Y124.084 E5.20618 F540.000
G1 X76.992 Y124.282 E5.25326
G1 X77.402 Y124.598 E5.30033
G1 X77.718 Y125.008 E5.34740
G1 X77.916 Y125.487 E5.39448
G1 X77.983 Y126.000 E5.44157
G1 X77.916 Y126.513 E5.48865
G1 X77.718 Y126.992 E5.53572
G1 X77.402 Y127.402 E5.58280
G1 X77.033 Y127.686 E5.62511
G1 X76.677 Y127.172 F7800.000
G1 X76.350 Y127.307 E5.65722 F378.000
G1 X76.000 Y127.353 E5.68934
G1 X75.650 Y127.307 E5.72146
G1 X75.323 Y127.172 E5.75358
G1 X75.043 Y126.957 E5.78569
G1 X74.828 Y126.677 E5.81781
G1 X74.693 Y126.350 E5.84992
G1 X74.647 Y126.000 E5.88205
G1 X74.693 Y125.650 E5.91416
G1 X74.828 Y125.323 E5.94628
G1 X75.043 Y125.043 E5.97839
G1 X75.323 Y124.828 E6.01051
G1 X75.650 Y124.693 E6.04263
G1 X75.932 Y124.656 E6.06848
G1 X76.000 Y124.647 E6.07474 F378.000
G1 X76.350 Y124.693 E6.10686
G1 X76.677 Y124.828 E6.13898
G1 X76.957 Y125.043 E6.17110
G1 X77.172 Y125.323 E6.20321
G1 X77.307 Y125.650 E6.23533
G1 X77.353 Y126.000 E6.26745
G1 X77.307 Y126.350 E6.29957
G1 X77.172 Y126.677 E6.33168
G1 X76.957 Y126.957 E6.36380
G1 X76.718 Y127.140 E6.39114
G1 F1800.000 E1.89114
G92 E0
G1 X75.916 Y124.589 F7800.000
G1 X82.077 Y126.460 F7800.000
G1 E4.50000 F1800.000
G1 X82.017 Y126.000 E4.54222 F540.000
G1 X82.084 Y125.487 E4.58929
G1 X82.282 Y125.008 E4.63637
G1 X82.598 Y124.598 E4.68345
G1 X83.008 Y124.282 E4.73052
G1 X83.487 Y124.084 E4.77760
G1 X84.000 Y124.017 E4.82467
G1 X84.363 Y124.065 E4.85801
G1 X84.513 Y124.084 E4.87176 F540.000
G1 X84.992 Y124.282 E4.91884
G1 X85.402 Y124.598 E4.96592
G1 X85.718 Y125.008 E5.01299
G1 X85.916 Y125.487 E5.06007
G1 X85.983 Y126.000 E5.10716
G1 X85.916 Y126.513 E5.15423
G1 X85.718 Y126.992 E5.20131
G1 X85.402 Y127.402 E5.24839
G1 X84.992 Y127.718 E5.29546
G1 X84.513 Y127.916 E5.34254
G1 X84.000 Y127.983 E5.38962
G1 X83.487 Y127.916 E5.43670
G1 X83.008 Y127.718 E5.48378
G1 X82.598 Y127.402 E5.53086
G1 X82.282 Y126.992 E5.57793
G1 X82.084 Y126.512 E5.62510
G1 X82.693 Y126.350 F7800.000
G1 X82.647 Y126.000 E5.65722 F378.000
G1 X82.693 Y125.650 E5.68934
G1 X82.828 Y125.323 E5.72146
G1 X83.043 Y125.043 E5.75357
G1 X83.323 Y124.828 E5.78569
G1 X83.650 Y124.693 E5.81781
G1 X83.932 Y124.656 E5.84366
G1 X84.000 Y124.647 E5.84992 F378.000
G1 X84.350 Y124.693 E5.88204
G1 X84.677 Y124.828 E5.91416
G1 X84.957 Y125.043 E5.94628
G1 X85.172 Y125.323 E5.97839
G1 X85.307 Y125.650 E6.01051
G1 X85.353 Y126.000 E6.04263
G1 X85.307 Y126.350 E6.07475
G1 X85.172 Y126.677 E6.10686
G1 X84.957 Y126.957 E6.13898
G1 X84.677 Y127.172 E6.17110
G1 X84.350 Y127.307 E6.20321
G1 X84.000 Y127.353 E6.23533
G1 X83.650 Y127.307 E6.26745
G1 X83.323 Y127.172 E6.29957
G1 X83.043 Y126.957 E6.33168
G1 X82.828 Y126.677 E6.36380
G1 X82.713 Y126.399 E6.39114
G1 F1800.000 E1.89114
G92 E0
G1 X83.937 Y124.587 F7800.000
G1 X90.017 Y126.000 F7800.000
G1 E4.50000 F1800.000
G1 X90.084 Y125.487 E4.54707 F540.000
G1 X90.282 Y125.008 E4.59415
G1 X90.598 Y124.598 E4.64123
G1 X91.008 Y124.282 E4.68831
G1 X91.487 Y124.084 E4.73538
G1 X92.000 Y124.017 E4.78246
G1 X92.363 Y124.065 E4.81580
G1 X92.513 Y124.084 E4.82955 F540.000
G1 X92.992 Y124.282 E4.87663
G1 X93.402 Y124.598 E4.92370
G1 X93.718 Y125.008 E4.97077
G1 X93.916 Y125.487 E5.01785
G1 X93.983 Y126.000 E5.06494
G1 X93.916 Y126.513 E5.11202
G1 X93.718 Y126.992 E5.15909
G1 X93.402 Y127.402 E5.20617
G1 X92.992 Y127.718 E5.25325
G1 X92.513 Y127.916 E5.30032
G1 X92.000 Y127.983 E5.34740
G1 X91.487 Y127.916 E5.39449
G1 X91.008 Y127.718 E5.44157
G1 X90.598 Y127.402 E5.48864
G1 X90.282 Y126.992 E5.53571
G1 X90.084 Y126.513 E5.58279
G1 X90.024 Y126.052 E5.62511
G1 X90.647 Y126.000 F7800.000
G1 X90.693 Y125.650 E5.65722 F378.000
G1 X90.828 Y125.323 E5.68934
G1 X91.043 Y125.043 E5.72146
G1 X91.323 Y124.828 E5.75357
G1 X91.650 Y124.693 E5.78569
G1 X91.932 Y124.656 E5.81154
G1 X92.000 Y124.647 E5.81780 F378.000
G1 X92.350 Y124.693 E5.84993
G1 X92.677 Y124.828 E5.88204
G1 X92.957 Y125.043 E5.91416
G1 X93.172 Y125.323 E5.94627
G1 X93.307 Y125.650 E5.97839
G1 X93.353 Y126.000 E6.01051
G1 X93.307 Y126.350 E6.04263
G1 X93.172 Y126.677 E6.07474
G1 X92.957 Y126.957 E6.10686
G1 X92.677 Y127.172 E6.13898
G1 X92.350 Y127.307 E6.17109
G1 X92.000 Y127.353 E6.20321
G1 X91.650 Y127.307 E6.23533
G1 X91.323 Y127.172 E6.26745
G1 X91.043 Y126.957 E6.29956
G1 X90.828 Y126.677 E6.33168
G1 X90.693 Y126.350 E6.36380
G1 X90.654 Y126.052 E6.39114
G1 X91.940 Y124.588 F7800.000
G1 F1800.000 E1.89114
G92 E0
G1 X122.017 Y126.000 F7800.000
G1 E4.50000 F1800.000
G1 X122.084 Y125.487 E4.54708 F540.000
G1 X122.142 Y125.347 E4.56083
G1 X122.282 Y125.008 E4.59416
G1 X122.598 Y124.598 E4.64124
G1 X123.008 Y124.282 E4.68831
G1 X123.487 Y124.084 E4.73539
G1 X124.000 Y124.017 E4.78247
G1 X124.363 Y124.065 E4.81581
G1 X124.513 Y124.084 E4.82955 F540.000
G1 X124.992 Y124.282 E4.87664
G1 X125.402 Y124.598 E4.92371
G1 X125.718 Y125.008 E4.97079
G1 X125.916 Y125.487 E5.01786
G1 X125.983 Y126.000 E5.06494
G1 X125.916 Y126.513 E5.11202
G1 X125.718 Y126.992 E5.15910
G1 X125.402 Y127.402 E5.20618
G1 X124.992 Y127.718 E5.25325
G1 X124.513 Y127.916 E5.30033
G1 X124.000 Y127.983 E5.34741
G1 X123.487 Y127.916 E5.39450
G1 X123.008 Y127.718 E5.44157
G1 X122.598 Y127.402 E5.48865
G1 X122.282 Y126.992 E5.53573
G1 X122.084 Y126.513 E5.58281
G1 X122.024 Y126.052 E5.62511
G1 X122.647 Y126.000 F7800.000
G1 X122.693 Y125.650 E5.65722 F378.000
G1 X122.719 Y125.586 E5.66349
G1 X122.828 Y125.323 E5.68934
G1 X123.043 Y125.043 E5.72146
G1 X123.323 Y124.828 E5.75358
G1 X123.650 Y124.693 E5.78569
G1 X123.932 Y124.656 E5.81154
G1 X124.000 Y124.647 E5.81781 F378.000
G1 X124.350 Y124.693 E5.84993
G1 X124.677 Y124.828 E5.88205
G1 X124.957 Y125.043 E5.91416
G1 X125.172 Y125.324 E5.94628
G1 X125.307 Y125.650 E5.97840
G1 X125.353 Y126.000 E6.01051
G1 X125.307 Y126.350 E6.04263
G1 X125.172 Y126.677 E6.07475
G1 X124.957 Y126.957 E6.10686
G1 X124.677 Y127.172 E6.13898
G1 X124.350 Y127.307 E6.17110
G1 X124.000 Y127.353 E6.20321
G1 X123.650 Y127.307 E6.23534
G1 X123.323 Y127.172 E6.26745
G1 X123.043 Y126.957 E6.29957
G1 X122.828 Y126.677 E6.33169
G1 X122.693 Y126.350 E6.36380
G1 X122.654 Y126.052 E6.39114
G1 X123.940 Y124.588 F7800.000
G1 X117.983 Y126.000 F7800.000
G1 X117.916 Y126.513 E6.43822 F540.000
G1 X117.718 Y126.992 E6.48530
G1 X117.626 Y127.112 E6.49905
G1 X117.402 Y127.402 E6.53238
G1 X116.992 Y127.718 E6.57946
G1 X116.513 Y127.916 E6.62654
G1 X116.000 Y127.983 E6.67361
G1 X115.487 Y127.916 E6.72070
G1 X115.008 Y127.718 E6.76778
G1 X114.598 Y127.402 E6.81485
G1 X114.282 Y126.992 E6.86193
G1 X114.084 Y126.513 E6.90901
G1 X114.017 Y126.000 E6.95609
G1 X114.084 Y125.487 E7.00316
G1 X114.282 Y125.008 E7.05025
G1 X114.598 Y124.598 E7.09732
G1 X115.008 Y124.282 E7.14440
G1 X115.487 Y124.084 E7.19148
G1 X116.000 Y124.017 E7.23855
G1 X116.363 Y124.065 E7.27189
G1 X116.513 Y124.084 E7.28564 F540.000
G1 X116.992 Y124.282 E7.33272
G1 X117.402 Y124.598 E7.37979
G1 X117.718 Y125.008 E7.42687
G1 X117.916 Y125.487 E7.47395
G1 X117.976 Y125.948 E7.51625
G1 X117.353 Y126.000 F7800.000
G1 X117.307 Y126.350 E7.54837 F378.000
G1 X117.172 Y126.677 E7.58049
G1 X117.130 Y126.731 E7.58675
G1 X116.957 Y126.957 E7.61260
G1 X116.677 Y127.172 E7.64472
G1 X116.350 Y127.307 E7.67684
G1 X116.000 Y127.353 E7.70895
G1 X115.650 Y127.307 E7.74107
G1 X115.323 Y127.172 E7.77319
G1 X115.043 Y126.957 E7.80531
G1 X114.828 Y126.677 E7.83743
G1 X114.693 Y126.350 E7.86954
G1 X114.647 Y126.000 E7.90166
G1 X114.693 Y125.650 E7.93377
G1 X114.828 Y125.323 E7.96589
G1 X115.043 Y125.043 E7.99801
G1 X115.323 Y124.828 E8.03013
G1 X115.650 Y124.693 E8.06224
G1 X115.932 Y124.656 E8.08809
G1 X116.000 Y124.647 E8.09436 F378.000
G1 X116.350 Y124.693 E8.12648
G1 X116.677 Y124.828 E8.15860
G1 X116.957 Y125.043 E8.19071
G1 X117.172 Y125.324 E8.22283
G1 X117.307 Y125.650 E8.25495
G1 X117.346 Y125.948 E8.28229
G1 X115.905 Y124.593 F7800.000
G1 X109.983 Y126.000 F7800.000
G1 X109.916 Y126.513 E8.32937 F540.000
G1 X109.718 Y126.992 E8.37645
G1 X109.626 Y127.112 E8.39020
G1 X109.402 Y127.402 E8.42353
G1 X108.992 Y127.718 E8.47061
G1 X108.513 Y127.916 E8.51768
G1 X108.000 Y127.983 E8.56476
G1 X107.487 Y127.916 E8.61185
G1 X107.008 Y127.718 E8.65893
G1 X106.598 Y127.402 E8.70600
G1 X106.282 Y126.992 E8.75308
G1 X106.084 Y126.513 E8.80016
G1 X106.017 Y126.000 E8.84723
G1 X106.084 Y125.487 E8.89431
G1 X106.282 Y125.008 E8.94139
G1 X106.598 Y124.598 E8.98847
G1 X107.008 Y124.282 E9.03554
G1 X107.487 Y124.084 E9.08262
G1 X108.000 Y124.017 E9.12970
G1 X108.363 Y124.065 E9.16304
G1 X108.513 Y124.084 E9.17679 F540.000
G1 X108.992 Y124.282 E9.22387
G1 X109.402 Y124.598 E9.27094
G1 X109.718 Y125.008 E9.31802
G1 X109.916 Y125.487 E9.36510
G1 X109.976 Y125.948 E9.40740
G1 X109.353 Y126.000 F7800.000
G1 X109.307 Y126.350 E9.43951 F378.000
G1 X109.172 Y126.677 E9.47163
G1 X109.130 Y126.731 E9.47790
G1 X108.957 Y126.957 E9.50375
G1 X108.677 Y127.172 E9.53587
G1 X108.350 Y127.307 E9.56798
G1 X108.000 Y127.353 E9.60010
G1 X107.650 Y127.307 E9.63222
G1 X107.323 Y127.172 E9.66434
G1 X107.043 Y126.957 E9.69645
G1 X106.828 Y126.677 E9.72857
G1 X106.693 Y126.350 E9.76069
G1 X106.647 Y126.000 E9.79280
G1 X106.693 Y125.650 E9.82492
G1 X106.828 Y125.323 E9.85704
G1 X107.043 Y125.043 E9.88915
G1 X107.323 Y124.828 E9.92127
G1 X107.650 Y124.693 E9.95339
G1 X107.932 Y124.656 E9.97924
G1 X108.000 Y124.647 E9.98550 F378.000
G1 X108.350 Y124.693 E10.01762
G1 X108.677 Y124.828 E10.04974
G1 X108.957 Y125.043 E10.08186
G1 X109.172 Y125.324 E10.11397
G1 X109.307 Y125.650 E10.14609
G1 X109.346 Y125.948 E10.17343
G1 X107.905 Y124.593 F7800.000
G1 X101.983 Y126.000 F7800.000
G1 X101.916 Y126.513 E10.22051 F540.000
G1 X101.718 Y126.992 E10.26759
G1 X101.626 Y127.112 E10.28134
G1 X101.402 Y127.402 E10.31467
G1 X100.992 Y127.718 E10.36175
G1 X100.513 Y127.916 E10.40883
G1 X100.000 Y127.983 E10.45590
G1 X99.487 Y127.916 E10.50299
G1 X99.008 Y127.718 E10.55007
G1 X98.598 Y127.402 E10.59714
G1 X98.282 Y126.992 E10.64421
G1 X98.084 Y126.513 E10.69129
G1 X98.065 Y126.363 E10.70504
G1 X98.017 Y126.000 E10.73838
G1 X98.084 Y125.487 E10.78546
G1 X98.282 Y125.008 E10.83253
G1 X98.598 Y124.598 E10.87961
G1 X99.008 Y124.282 E10.92669
G1 X99.487 Y124.084 E10.97376
G1 X100.000 Y124.017 E11.02085
G1 X100.363 Y124.065 E11.05418
G1 X100.513 Y124.084 E11.06793 F540.000
G1 X100.992 Y124.282 E11.11501
G1 X101.402 Y124.598 E11.16208
G1 X101.718 Y125.008 E11.20915
G1 X101.916 Y125.487 E11.25624
G1 X101.976 Y125.948 E11.29854
G1 X101.353 Y126.000 F7800.000
G1 X101.307 Y126.350 E11.33066 F378.000
G1 X101.172 Y126.677 E11.36277
G1 X101.130 Y126.731 E11.36904
G1 X100.957 Y126.957 E11.39489
G1 X100.677 Y127.172 E11.42701
G1 X100.350 Y127.307 E11.45913
G1 X100.000 Y127.353 E11.49124
G1 X99.650 Y127.307 E11.52336
G1 X99.323 Y127.172 E11.55548
G1 X99.043 Y126.957 E11.58759
G1 X98.828 Y126.677 E11.61971
G1 X98.693 Y126.350 E11.65183
G1 X98.647 Y126.000 E11.68395
G1 X98.693 Y125.650 E11.71606
G1 X98.828 Y125.323 E11.74818
G1 X99.043 Y125.043 E11.78030
G1 X99.323 Y124.828 E11.81241
G1 X99.650 Y124.693 E11.84453
G1 X99.718 Y124.684 E11.85080
G1 X100.000 Y124.647 E11.87665 F378.000
G1 X100.350 Y124.693 E11.90877
G1 X100.677 Y124.828 E11.94089
G1 X100.957 Y125.043 E11.97300
G1 X101.172 Y125.323 E12.00511
G1 X101.307 Y125.650 E12.03724
G1 X101.346 Y125.948 E12.06458
G1 F1800.000 E7.56458
G92 E0
G1 X99.600 Y124.426 F7800.000
G1 X124.975 Y123.475 F7800.000
G1 E4.50000 F1800.000
G1 X124.975 Y111.475 E5.59115 F540.000
G1 X131.025 Y111.475 E6.14130
G1 X131.025 Y125.468 E7.41369
G1 X130.997 Y125.895 E7.45256
G1 X130.920 Y126.282 E7.48852
G1 X130.793 Y126.657 E7.52447
G1 X130.618 Y127.012 E7.56043
G1 X130.398 Y127.340 E7.59638
G1 X130.138 Y127.638 E7.63234
G1 X129.840 Y127.898 E7.66829
G1 X129.512 Y128.118 E7.70425
G1 X129.157 Y128.293 E7.74021
G1 X128.782 Y128.420 E7.77616
G1 X128.395 Y128.497 E7.81212
G1 X127.968 Y128.525 E7.85099
G1 X72.032 Y128.525 E12.93724
G1 X71.605 Y128.497 E12.97611
G1 X71.218 Y128.420 E13.01206
G1 X70.843 Y128.293 E13.04802
G1 X70.488 Y128.118 E13.08397
G1 X70.160 Y127.898 E13.11993
G1 X69.862 Y127.638 E13.15588
G1 X69.602 Y127.340 E13.19184
G1 X69.382 Y127.012 E13.22780
G1 X69.207 Y126.657 E13.26375
G1 X69.080 Y126.282 E13.29971
G1 X69.003 Y125.895 E13.33566
G1 X68.975 Y125.468 E13.37453
G1 X68.975 Y111.475 E14.64693
G1 X75.025 Y111.475 E15.19707
G1 X75.025 Y123.475 E16.28822
G1 X124.922 Y123.475 E20.82536
G1 X124.350 Y122.850 F7800.000
G1 X124.350 Y110.850 E21.91652 F378.000
G1 X131.650 Y110.850 E22.58030
G1 X131.650 Y125.489 E23.91138
G1 X131.618 Y125.976 E23.95583
G1 X131.525 Y126.444 E23.99923
G1 X131.371 Y126.897 E24.04264
G1 X131.160 Y127.325 E24.08604
G1 X130.908 Y127.703 E24.12737
G1 X130.580 Y128.080 E24.17284
G1 X130.222 Y128.395 E24.21624
G1 X129.825 Y128.660 E24.25964
G1 X129.396 Y128.871 E24.30305
G1 X128.945 Y129.025 E24.34645
G1 X128.476 Y129.118 E24.38986
G1 X127.989 Y129.150 E24.43431
G1 X72.011 Y129.150 E29.52428
G1 X71.524 Y129.118 E29.56873
G1 X71.056 Y129.025 E29.61213
G1 X70.603 Y128.871 E29.65554
G1 X70.175 Y128.660 E29.69895
G1 X69.778 Y128.395 E29.74235
G1 X69.420 Y128.080 E29.78575
G1 X69.105 Y127.722 E29.82916
