; generated by Slic3r 1.1.7 on 2014-10-02 at 16:40:15

; perimeters extrusion width = 0.35mm
; infill extrusion width = 0.39mm
; solid infill extrusion width = 0.39mm
; top infill extrusion width = 0.39mm

G21 ; set units to millimeters
M107
M84 S0 ; don't let go of motors
M108 S155 ; make sure extruder and electronics fans are running
M140 S70
M104 S210
G28 X0 Y0; home X and Y
G1 F10800 ; set high speed
G1 Y20 ; move into the platform along Y
G1 X205 ; move off the platform end along X
G28 Z0 ; home Z now - blobs won't hit the platform
G1 F400
G1 Z10 ; lift Z a little
M190 S70
M109 S210 ; wait for temperature to be reached
G28 Z0 ; home Z
G92 E0 ; reset extruder position to 0
G1 F300 ; set suitable speed
G1 E25 ; extrude 25mm
G92 E0 ; reset extruder position to 0 - needed for cura/SF
G1 F10800 ; set wipe speed
G1 X0 ; wipe nozzle and move to X0
G90 ; use absolute coordinates
G92 E0
M82 ; use absolute distances for extrusion
G1 F1800.000 E-4.50000
G92 E0
G1 Z0.350 F7800.000
G1 X87.915 Y94.753 F7800.000
G1 E4.50000 F1800.000
G1 X89.668 Y93.274 E4.70854 F1080.000
G1 X91.820 Y92.481 E4.91708
G1 X93.000 Y92.375 E5.02479
G1 X101.433 Y92.389 E5.79160
G1 X103.076 Y92.554 E5.94172 F1080.000
G1 X104.682 Y92.931 E6.09179
G1 X106.226 Y93.515 E6.24187
G1 X107.738 Y94.334 E6.39817
G1 X109.021 Y95.259 E6.54202
G1 X110.223 Y96.389 E6.69210
G1 X110.696 Y96.928 E6.75722
G1 X111.269 Y97.667 E6.84225
G1 X111.667 Y98.263 E6.90740
G1 X112.138 Y99.070 E6.99240
G1 X112.817 Y100.574 E7.14248
G1 X113.047 Y101.253 E7.20761
G1 X113.293 Y102.155 E7.29263
G1 X113.559 Y103.784 E7.44271
G1 X113.606 Y104.499 E7.50787
G1 X113.625 Y105.000 E7.55350
G1 X113.611 Y135.433 E10.32078
G1 X113.446 Y137.076 E10.47087
G1 X113.306 Y137.778 E10.53602
G1 X113.069 Y138.682 E10.62102
G1 X112.485 Y140.226 E10.77109
G1 X112.168 Y140.869 E10.83623
G1 X111.705 Y141.681 E10.92124
G1 X110.741 Y143.021 E11.07133
G1 X109.611 Y144.224 E11.22141
G1 X108.333 Y145.269 E11.37149
G1 X107.737 Y145.667 E11.43664
G1 X106.930 Y146.138 E11.52165
G1 X105.426 Y146.817 E11.67172
G1 X104.747 Y147.047 E11.73685
G1 X103.845 Y147.293 E11.82187
G1 X102.216 Y147.559 E11.97196
G1 X101.000 Y147.625 E12.08273
G1 X93.000 Y147.625 E12.81017
G1 X90.741 Y147.228 E13.01871
G1 X88.753 Y146.085 E13.22725
G1 X87.274 Y144.332 E13.43579
G1 X86.481 Y142.180 E13.64434
G1 X86.375 Y141.000 E13.75205
G1 X86.375 Y99.000 E17.57109
G1 X86.772 Y96.741 E17.77963
G1 X87.889 Y94.799 E17.98340
G1 F1800.000 E13.48340
G92 E0
G1 X104.957 Y113.457 F7800.000
G1 E4.50000 F1800.000
G1 X104.677 Y113.672 E4.53212 F378.000
G1 X104.350 Y113.807 E4.56423
G1 X104.000 Y113.853 E4.59635
G1 X103.650 Y113.807 E4.62847
G1 X103.323 Y113.672 E4.66059
G1 X103.043 Y113.457 E4.69270
G1 X102.828 Y113.177 E4.72482
G1 X102.693 Y112.850 E4.75694
G1 X102.650 Y112.523 E4.78695
G1 X102.650 Y104.977 E5.47310
G1 X102.693 Y104.650 E5.50311
G1 X102.828 Y104.323 E5.53522
G1 X103.043 Y104.043 E5.56734
G1 X103.323 Y103.828 E5.59946
G1 X103.650 Y103.693 E5.63157
G1 X104.000 Y103.647 E5.66369
G1 X104.282 Y103.684 E5.68954
G1 X104.350 Y103.693 E5.69581 F378.000
G1 X104.677 Y103.828 E5.72793
G1 X104.957 Y104.043 E5.76004
G1 X105.172 Y104.323 E5.79216
G1 X105.307 Y104.650 E5.82428
G1 X105.350 Y104.977 E5.85429
G1 X105.350 Y112.523 E6.54044
G1 X105.307 Y112.850 E6.57045
G1 X105.172 Y113.177 E6.60257
G1 X104.989 Y113.415 E6.62991
G1 F1800.000 E2.12991
G92 E0
G1 X104.286 Y103.615 F7800.000
G1 X104.350 Y115.193 F7800.000
G1 E4.50000 F1800.000
G1 X104.677 Y115.328 E4.53212 F378.000
G1 X104.957 Y115.543 E4.56423
G1 X105.172 Y115.823 E4.59635
G1 X105.307 Y116.150 E4.62846
G1 X105.350 Y116.477 E4.65848
G1 X105.350 Y123.523 E5.29916
G1 X105.307 Y123.850 E5.32917
G1 X105.172 Y124.177 E5.36129
G1 X104.957 Y124.457 E5.39341
G1 X104.677 Y124.672 E5.42552
G1 X104.350 Y124.807 E5.45764
G1 X104.000 Y124.853 E5.48976
G1 X103.650 Y124.807 E5.52188
G1 X103.323 Y124.672 E5.55399
G1 X103.043 Y124.457 E5.58611
G1 X102.828 Y124.177 E5.61822
G1 X102.693 Y123.850 E5.65034
G1 X102.650 Y123.523 E5.68036
G1 X102.650 Y116.477 E6.32104
G1 X102.693 Y116.150 E6.35105
G1 X102.828 Y115.823 E6.38317
G1 X103.043 Y115.543 E6.41528
G1 X103.323 Y115.328 E6.44740
G1 X103.650 Y115.193 E6.47951
G1 X104.000 Y115.147 E6.51163
G1 X104.282 Y115.184 E6.53749
G1 X104.298 Y115.186 E6.53898 F378.000
G1 X104.283 Y115.168 F7800.000
G1 F1800.000 E2.03898
G92 E0
G1 X104.000 Y126.147 F7800.000
G1 E4.50000 F1800.000
G1 X104.068 Y126.156 E4.50627 F378.000
G1 X104.350 Y126.193 E4.53211 F378.000
G1 X104.677 Y126.328 E4.56423
G1 X104.957 Y126.543 E4.59635
G1 X105.172 Y126.823 E4.62846
G1 X105.307 Y127.150 E4.66058
G1 X105.350 Y127.477 E4.69060
G1 X105.350 Y135.023 E5.37674
G1 X105.307 Y135.350 E5.40675
G1 X105.172 Y135.677 E5.43887
G1 X104.957 Y135.957 E5.47099
G1 X104.677 Y136.172 E5.50310
G1 X104.350 Y136.307 E5.53522
G1 X104.000 Y136.353 E5.56734
G1 X103.650 Y136.307 E5.59946
G1 X103.387 Y136.198 E5.62531
G1 X103.323 Y136.172 E5.63158
G1 X103.043 Y135.957 E5.66369
G1 X102.828 Y135.677 E5.69580
G1 X102.693 Y135.350 E5.72792
G1 X102.650 Y135.023 E5.75794
G1 X102.650 Y127.477 E6.44408
G1 X102.693 Y127.150 E6.47410
G1 X102.828 Y126.823 E6.50621
G1 X103.043 Y126.543 E6.53833
G1 X103.323 Y126.328 E6.57045
G1 X103.650 Y126.193 E6.60256
G1 X103.948 Y126.154 E6.62991
G1 X104.224 Y125.918 F7800.000
G1 F1800.000 E2.12991
G92 E0
G1 X105.758 Y136.577 F7800.000
G1 E4.50000 F1800.000
G1 X105.641 Y136.922 E4.53317 F540.000
G1 X105.350 Y137.512 E4.59291
G1 X104.985 Y138.058 E4.65266
G1 X104.552 Y138.552 E4.71240
G1 X104.058 Y138.985 E4.77215
G1 X103.512 Y139.350 E4.83189
G1 X102.922 Y139.641 E4.89164
G1 X102.300 Y139.852 E4.95138
G1 X101.656 Y139.980 E5.01113
G1 X100.968 Y140.025 E5.07377
G1 X93.975 Y140.025 E5.70967
G1 X93.975 Y135.975 E6.07795
G1 X102.270 Y135.975 E6.83218
G1 X102.598 Y136.402 E6.88118
G1 X103.008 Y136.718 E6.92825
G1 X103.487 Y136.916 E6.97533
G1 X104.000 Y136.983 E7.02242
G1 X104.513 Y136.916 E7.06950
G1 X104.992 Y136.718 E7.11657
G1 X105.457 Y136.361 E7.16985
G1 X105.715 Y136.546 E7.19879
G1 F1800.000 E2.69879
G92 E0
G1 X101.975 Y126.352 F7800.000
G1 E4.50000 F1800.000
G1 X101.975 Y124.648 E4.65493 F540.000
G1 X102.314 Y124.533 E4.68750
G1 X102.598 Y124.902 E4.72984
G1 X103.008 Y125.218 E4.77692
G1 X103.690 Y125.500 E4.84402
G1 X103.008 Y125.782 E4.91111
G1 X102.598 Y126.098 E4.95819
G1 X102.314 Y126.467 E5.00054
G1 X102.025 Y126.369 E5.02834
G1 X104.310 Y125.500 F7800.000
G1 X104.992 Y125.218 E5.09543 F540.000
G1 X105.402 Y124.902 E5.14251
G1 X105.686 Y124.533 E5.18485
G1 X106.025 Y124.648 E5.21743
G1 X106.025 Y126.352 E5.37235
G1 X105.686 Y126.467 E5.40492
G1 X105.402 Y126.098 E5.44727
G1 X104.992 Y125.782 E5.49434
G1 X104.358 Y125.520 E5.55667
G1 F1800.000 E1.05667
G92 E0
G1 X106.025 Y115.352 F7800.000
G1 E4.50000 F1800.000
G1 X105.686 Y115.467 E4.53257 F540.000
G1 X105.402 Y115.098 E4.57492
G1 X104.992 Y114.782 E4.62199
G1 X104.310 Y114.500 E4.68910
G1 X104.992 Y114.218 E4.75619
G1 X105.402 Y113.902 E4.80327
G1 X105.686 Y113.533 E4.84561
G1 X106.025 Y113.648 E4.87819
G1 X106.025 Y115.299 E5.02834
G1 X103.690 Y114.500 F7800.000
G1 X103.008 Y114.782 E5.09543 F540.000
G1 X102.598 Y115.098 E5.14251
G1 X102.314 Y115.467 E5.18486
G1 X101.975 Y115.352 E5.21743
G1 X101.975 Y113.648 E5.37236
G1 X102.314 Y113.533 E5.40493
G1 X102.598 Y113.902 E5.44727
G1 X103.008 Y114.218 E5.49435
G1 X103.642 Y114.480 E5.55668
G1 F1800.000 E1.05668
G92 E0
G1 X105.758 Y103.423 F7800.000
G1 E4.50000 F1800.000
G1 X105.457 Y103.639 E4.53371 F540.000
G1 X104.992 Y103.282 E4.58700
G1 X104.513 Y103.084 E4.63407
G1 X104.000 Y103.017 E4.68116
G1 X103.487 Y103.084 E4.72824
G1 X103.008 Y103.282 E4.77531
G1 X102.598 Y103.598 E4.82239
G1 X102.270 Y104.025 E4.87139
G1 X93.975 Y104.025 E5.62562
G1 X93.975 Y99.975 E5.99390
G1 X100.968 Y99.975 E6.62979
G1 X101.656 Y100.020 E6.69244
G1 X102.300 Y100.148 E6.75219
G1 X102.922 Y100.359 E6.81193
G1 X103.512 Y100.650 E6.87168
G1 X104.058 Y101.015 E6.93142
G1 X104.552 Y101.448 E6.99117
G1 X104.985 Y101.942 E7.05091
G1 X105.350 Y102.488 E7.11065
G1 X105.641 Y103.078 E7.17040
G1 X105.741 Y103.373 E7.19880
G1 X101.350 Y104.650 F7800.000
G1 X93.350 Y104.650 E7.92623 F378.000
G1 X93.350 Y99.350 E8.40816
G1 X100.989 Y99.350 E9.10273
G1 X101.737 Y99.399 E9.17097
G1 X102.462 Y99.543 E9.23816
G1 X103.162 Y99.781 E9.30535
G1 X103.863 Y100.133 E9.37667
G1 X104.439 Y100.518 E9.43970
G1 X104.995 Y101.005 E9.50690
G1 X105.482 Y101.561 E9.57409
G1 X105.867 Y102.137 E9.63712
G1 X106.219 Y102.838 E9.70844
G1 X106.457 Y103.538 E9.77564
G1 X106.601 Y104.263 E9.84283
G1 X106.650 Y105.011 E9.91107
G1 X106.650 Y134.989 E12.63687
G1 X106.601 Y135.737 E12.70511
G1 X106.457 Y136.462 E12.77230
G1 X106.219 Y137.162 E12.83949
G1 X105.892 Y137.825 E12.90669
G1 X105.482 Y138.439 E12.97388
G1 X104.995 Y138.995 E13.04107
G1 X104.439 Y139.482 E13.10827
G1 X103.825 Y139.892 E13.17546
G1 X103.162 Y140.219 E13.24265
G1 X102.462 Y140.457 E13.30984
G1 X101.737 Y140.601 E13.37704
G1 X100.989 Y140.650 E13.44527
G1 X93.350 Y140.650 E14.13984
G1 X93.350 Y135.350 E14.62177
G1 X101.350 Y135.350 E15.34921
G1 X101.350 Y104.703 E18.13597
G1 X101.350 Y104.300 F7800.000
G1 X101.160 Y136.408 F7800.000
G1 X103.553 Y138.801 E18.44376 F1080.000
G1 X102.981 Y139.129 E18.50371
G1 X100.260 Y136.408 E18.85361
G1 X99.360 Y136.408 E18.93541
G1 X102.335 Y139.383 E19.31794
G1 X101.602 Y139.549 E19.38630
G1 X98.461 Y136.408 E19.79025
G1 X97.561 Y136.408 E19.87205
G1 X100.745 Y139.592 E20.28152
G1 X99.846 Y139.592 E20.36332
G1 X96.662 Y136.408 E20.77279
G1 X95.762 Y136.408 E20.85459
G1 X98.946 Y139.592 E21.26406
G1 X98.046 Y139.592 E21.34586
G1 X94.862 Y136.408 E21.75532
G1 X94.408 Y136.853 E21.81317
G1 X97.147 Y139.592 E22.16537
G1 X96.247 Y139.592 E22.24718
G1 X94.408 Y137.753 E22.48369
G1 X94.408 Y138.652 E22.56550
G1 X95.348 Y139.592 E22.68633
G1 X94.448 Y139.592 E22.76813
G1 X94.408 Y139.552 E22.77327
G1 X102.606 Y136.955 F7800.000
G1 X104.056 Y138.405 E22.95977 F1080.000
G1 X103.967 Y137.416 E23.05011
G1 X104.502 Y137.951 E23.11900
G1 X104.882 Y137.432 E23.17753
G1 X104.741 Y137.290 E23.19575
G1 X106.000 Y135.179 F7800.000
G1 X106.000 Y127.595 E23.58201 F360.000
G1 F1800.000 E19.08201
G92 E0
G1 X106.000 Y105.033 F7800.000
G1 X108.645 Y102.672 F7800.000
G1 X101.199 Y97.009 F7800.000
G1 X101.003 Y100.002 F7800.000
G1 X94.934 Y104.000 F7800.000
G1 X97.928 Y107.000 F7800.000
G1 X99.000 Y125.928 F7800.000
G1 X102.000 Y126.934 F7800.000
G1 X102.000 Y127.595 F7800.000
G1 E4.50000 F1800.000
G1 X102.000 Y134.905 E4.87234 F360.000
G1 X102.000 Y123.405 F7800.000
G1 X102.000 Y116.595 E5.21922 F360.000
G1 F1800.000 E0.71922
G92 E0
G1 X102.000 Y116.934 F7800.000
G1 X99.000 Y115.928 F7800.000
G1 X97.928 Y107.000 F7800.000
G1 X94.934 Y104.000 F7800.000
G1 X101.003 Y100.002 F7800.000
G1 X101.199 Y97.009 F7800.000
G1 X108.645 Y102.672 F7800.000
G1 X106.000 Y105.033 F7800.000
G1 X106.000 Y116.595 F7800.000
G1 E4.50000 F1800.000
G1 X106.000 Y123.405 E4.84688 F360.000
G1 X106.000 Y112.405 F7800.000
G1 X106.000 Y105.168 E5.21548 F360.000
G1 X106.320 Y104.747 E5.24240
G1 F1800.000 E0.74240
G92 E0
G1 X102.000 Y105.095 F7800.000
G1 E4.50000 F1800.000
G1 X102.000 Y112.405 E4.87234 F360.000
G1 F1800.000 E0.37234
G92 E0
G1 X102.000 Y116.934 F7800.000
G1 X99.000 Y115.928 F7800.000
G1 X97.928 Y107.000 F7800.000
G1 X94.934 Y104.000 F7800.000
G1 X104.015 Y101.553 F7800.000
G1 E4.50000 F1800.000
G1 X104.447 Y101.985 E4.55561 F1080.000
G1 X104.171 Y102.603 E4.61706
G1 X102.123 Y100.554 E4.88043
G1 X101.093 Y100.417 E4.97493
G1 X103.349 Y102.673 E5.26499
G1 X102.732 Y102.949 E5.32644
G1 X100.191 Y100.408 E5.65316
G1 X99.298 Y100.408 E5.73434
G1 X102.241 Y103.351 E6.11276
G1 X101.590 Y103.592 E6.17592
G1 X98.406 Y100.408 E6.58539
G1 X97.513 Y100.408 E6.66656
G1 X100.697 Y103.592 E7.07603
G1 X99.804 Y103.592 E7.15721
G1 X96.620 Y100.408 E7.56667
G1 X95.727 Y100.408 E7.64785
G1 X98.912 Y103.592 E8.05731
G1 X98.019 Y103.592 E8.13849
G1 X94.835 Y100.408 E8.54796
G1 X94.408 Y100.874 E8.60541
G1 X97.126 Y103.592 E8.95496
G1 X96.233 Y103.592 E9.03614
G1 X94.408 Y101.767 E9.27089
G1 X94.408 Y102.659 E9.35207
G1 X95.341 Y103.592 E9.47201
G1 X94.448 Y103.592 E9.55319
G1 X94.408 Y103.552 E9.55833
M106 S255
M140 S60 ; set bed temperature
G1 F1800.000 E5.05833
G92 E0
G1 Z0.600 F7800.000
G1 X102.497 Y104.801 F7800.000
G1 E4.50000 F1800.000
G1 X102.523 Y104.604 E4.50722 F1381.083
G1 X102.675 Y104.235 E4.52175
G1 X102.918 Y103.918 E4.53627
G1 X103.235 Y103.675 E4.55080
G1 X103.604 Y103.523 E4.56532
G1 X104.000 Y103.470 E4.57985
G1 X104.266 Y103.505 E4.58960
G1 X104.396 Y103.523 E4.59437 F1381.083
G1 X104.765 Y103.675 E4.60890
G1 X105.082 Y103.918 E4.62342
G1 X105.325 Y104.235 E4.63795
G1 X105.477 Y104.604 E4.65247
G1 X105.525 Y104.966 E4.66574
G1 X105.525 Y112.534 E4.94108
G1 X105.477 Y112.896 E4.95434
G1 X105.325 Y113.265 E4.96887
G1 X105.082 Y113.582 E4.98339
G1 X104.765 Y113.825 E4.99792
G1 X104.396 Y113.977 E5.01244
G1 X104.000 Y114.030 E5.02697
G1 X103.604 Y113.977 E5.04149
G1 X103.235 Y113.825 E5.05602
G1 X102.918 Y113.582 E5.07054
G1 X102.675 Y113.265 E5.08507
G1 X102.523 Y112.896 E5.09959
G1 X102.475 Y112.534 E5.11286
G1 X102.475 Y104.966 E5.38820
G1 X102.490 Y104.853 E5.39233
G1 X102.844 Y104.847 F7800.000
G1 X102.864 Y104.696 E5.39787 F966.758
G1 X102.981 Y104.412 E5.40905
G1 X103.168 Y104.168 E5.42022
G1 X103.412 Y103.981 E5.43139
G1 X103.696 Y103.864 E5.44257
G1 X103.916 Y103.835 E5.45064
G1 X104.000 Y103.823 E5.45374 F966.758
G1 X104.305 Y103.864 E5.46491
G1 X104.588 Y103.981 E5.47608
G1 X104.832 Y104.168 E5.48726
G1 X105.019 Y104.412 E5.49843
G1 X105.136 Y104.695 E5.50960
G1 X105.175 Y104.989 E5.52036
G1 X105.175 Y112.511 E5.79403
G1 X105.136 Y112.805 E5.80478
G1 X105.019 Y113.088 E5.81595
G1 X104.832 Y113.332 E5.82712
G1 X104.588 Y113.519 E5.83830
G1 X104.305 Y113.636 E5.84947
G1 X104.000 Y113.677 E5.86064
G1 X103.695 Y113.636 E5.87182
G1 X103.412 Y113.519 E5.88299
G1 X103.168 Y113.332 E5.89416
G1 X102.981 Y113.088 E5.90533
G1 X102.864 Y112.805 E5.91651
G1 X102.825 Y112.511 E5.92726
G1 X102.837 Y104.899 E6.20420
G1 X103.912 Y103.750 F7800.000
G1 F1800.000 E1.70420
G92 E0
G1 X104.000 Y114.970 F7800.000
G1 E4.50000 F1800.000
G1 X104.266 Y115.005 E4.50976 F1381.083
G1 X104.396 Y115.023 E4.51453 F1381.083
G1 X104.765 Y115.175 E4.52905
G1 X105.082 Y115.418 E4.54358
G1 X105.325 Y115.735 E4.55810
G1 X105.477 Y116.104 E4.57263
G1 X105.525 Y116.466 E4.58589
G1 X105.525 Y123.534 E4.84304
G1 X105.477 Y123.896 E4.85630
G1 X105.325 Y124.265 E4.87083
G1 X105.082 Y124.582 E4.88535
G1 X104.765 Y124.825 E4.89988
G1 X104.396 Y124.977 E4.91441
G1 X104.000 Y125.030 E4.92893
G1 X103.604 Y124.977 E4.94346
G1 X103.356 Y124.875 E4.95321
G1 X103.235 Y124.825 E4.95798
G1 X102.918 Y124.582 E4.97251
G1 X102.675 Y124.265 E4.98703
G1 X102.523 Y123.896 E5.00156
G1 X102.475 Y123.534 E5.01482
G1 X102.475 Y116.466 E5.27197
G1 X102.523 Y116.104 E5.28523
G1 X102.675 Y115.735 E5.29976
G1 X102.918 Y115.418 E5.31429
G1 X103.235 Y115.175 E5.32881
G1 X103.604 Y115.023 E5.34334
G1 X103.948 Y114.977 E5.35595
G1 X104.000 Y115.323 F7800.000
G1 X104.305 Y115.364 E5.36712 F966.758
G1 X104.588 Y115.481 E5.37830
G1 X104.832 Y115.668 E5.38947
G1 X105.019 Y115.912 E5.40064
G1 X105.136 Y116.195 E5.41182
G1 X105.175 Y116.489 E5.42257
G1 X105.175 Y123.511 E5.67805
G1 X105.136 Y123.805 E5.68880
G1 X105.019 Y124.088 E5.69998
G1 X104.832 Y124.332 E5.71115
G1 X104.588 Y124.519 E5.72232
G1 X104.305 Y124.636 E5.73349
G1 X104.000 Y124.677 E5.74467
G1 X103.695 Y124.636 E5.75584
G1 X103.490 Y124.551 E5.76392
G1 X103.412 Y124.519 E5.76701
G1 X103.168 Y124.332 E5.77819
G1 X102.981 Y124.088 E5.78936
G1 X102.864 Y123.805 E5.80053
G1 X102.825 Y123.511 E5.81128
G1 X102.825 Y116.489 E6.06677
G1 X102.864 Y116.196 E6.07752
G1 X102.981 Y115.912 E6.08869
G1 X103.168 Y115.668 E6.09986
G1 X103.412 Y115.481 E6.11104
G1 X103.695 Y115.364 E6.12221
G1 X103.780 Y115.352 E6.12530
G1 X103.948 Y115.330 E6.13147 F966.758
G1 X103.765 Y115.184 F7800.000
G1 F1800.000 E1.63147
G92 E0
G1 X104.000 Y125.970 F7800.000
G1 E4.50000 F1800.000
