; generated by Slic3r 1.0.1 on 2014-08-21 at 17:36:27

; layer_height = 0.25
; perimeters = 2
; top_solid_layers = 2
; bottom_solid_layers = 2
; fill_density = 0.2
; perimeter_speed = 30
; infill_speed = 60
; travel_speed = 130
; nozzle_diameter = 0.35
; filament_diameter = 1.75
; extrusion_multiplier = 1
; perimeters extrusion width = 0.35mm
; infill extrusion width = 0.39mm
; solid infill extrusion width = 0.39mm
; top infill extrusion width = 0.39mm
; first layer extrusion width = 0.70mm

G21 ; set units to millimeters
M107
M84 S0 ; don't let go of motors
M108 S155 ; make sure extruder and electronics fans are running
M140 S70
M104 S210
G28 X0 Y0; home X and Y
G1 F10800 ; set high speed
G1 Y20 ; move into the platform along Y
G1 X205 ; move off the platform end along X
G28 Z0 ; home Z now - blobs won't hit the platform
G1 F400
G1 Z10 ; lift Z a little
M190 S70
M109 S210 ; wait for temperature to be reached
G28 Z0 ; home Z
G92 E0 ; reset extruder position to 0
G1 F300 ; set suitable speed
G1 E25 ; extrude 25mm
G92 E0 ; reset extruder position to 0 - needed for cura/SF
G1 F10800 ; set wipe speed
G1 X0 ; wipe nozzle and move to X0
G90 ; use absolute coordinates
G92 E0
M82 ; use absolute distances for extrusion
G1 F1800.000 E-4.50000
G92 E0
G1 Z0.350 F7800.000
G1 X87.180 Y101.190 F7800.000
G1 E4.50000 F1800.000
G1 X87.910 Y100.560 E4.58768 F540.000
G1 X88.540 Y100.090 E4.65915
G1 X89.230 Y99.640 E4.73406
G1 X89.970 Y99.280 E4.80888
G1 X90.720 Y98.970 E4.88268
G1 X91.570 Y98.680 E4.96434
G1 X92.450 Y98.510 E5.04584
G1 X93.190 Y98.420 E5.11362
G1 X93.990 Y98.380 E5.18646
G1 X105.990 Y98.380 E6.27761
G1 X106.880 Y98.440 E6.35872
G1 X107.690 Y98.550 E6.43305
G1 X108.530 Y98.710 E6.51081
G1 X109.340 Y98.990 E6.58874
G1 X110.040 Y99.280 E6.65763
G1 X110.800 Y99.650 E6.73449
G1 X111.500 Y100.120 E6.81116
G1 X112.120 Y100.590 E6.88191
G1 X112.820 Y101.200 E6.96633
G1 X113.430 Y101.910 E7.05145
G1 X113.900 Y102.540 E7.12292
G1 X114.340 Y103.210 E7.19580
G1 X114.700 Y103.930 E7.26900
G1 X114.990 Y104.620 E7.33706
G1 X115.260 Y105.400 E7.41211
G1 X115.430 Y106.210 E7.48737
G1 X115.550 Y107.010 E7.56093
G1 X115.620 Y107.990 E7.65027
G1 X115.620 Y131.990 E9.83258
G1 X115.560 Y132.920 E9.91732
G1 X115.450 Y133.700 E9.98894
G1 X115.280 Y134.510 E10.06420
G1 X115.020 Y135.290 E10.13896
G1 X114.720 Y136.020 E10.21073
G1 X114.340 Y136.790 E10.28881
G1 X113.870 Y137.500 E10.36623
G1 X113.400 Y138.120 E10.43697
G1 X112.800 Y138.800 E10.51943
G1 X112.120 Y139.400 E10.60189
G1 X111.500 Y139.870 E10.67264
G1 X110.790 Y140.340 E10.75006
G1 X110.020 Y140.720 E10.82814
G1 X109.290 Y141.020 E10.89991
G1 X108.510 Y141.280 E10.97467
G1 X107.710 Y141.450 E11.04904
G1 X106.940 Y141.560 E11.11976
G1 X106.000 Y141.620 E11.20541
G1 X94.000 Y141.620 E12.29656
G1 X93.030 Y141.550 E12.38500
G1 X92.220 Y141.430 E12.45945
G1 X91.420 Y141.270 E12.53364
G1 X90.650 Y141.000 E12.60783
G1 X89.950 Y140.710 E12.67673
G1 X89.190 Y140.340 E12.75359
G1 X88.490 Y139.870 E12.83026
G1 X87.870 Y139.400 E12.90100
G1 X87.190 Y138.800 E12.98346
G1 X86.590 Y138.120 E13.06592
G1 X86.120 Y137.500 E13.13667
G1 X85.650 Y136.800 E13.21333
G1 X85.280 Y136.040 E13.29019
G1 X84.990 Y135.340 E13.35909
G1 X84.710 Y134.530 E13.43702
G1 X84.550 Y133.690 E13.51478
G1 X84.440 Y132.880 E13.58910
G1 X84.380 Y131.990 E13.67022
G1 X84.380 Y107.990 E15.85253
G1 X84.430 Y107.140 E15.92995
G1 X84.530 Y106.370 E16.00055
G1 X84.690 Y105.530 E16.07831
G1 X84.960 Y104.730 E16.15508
G1 X85.240 Y104.040 E16.22279
G1 X85.600 Y103.280 E16.29926
G1 X86.060 Y102.580 E16.37542
G1 X86.550 Y101.920 E16.45017
G1 X87.119 Y101.261 E16.52933
G1 F1800.000 E12.02933
G92 E0
G1 X104.866 Y118.866 F7800.000
G1 E4.50000 F1800.000
G1 X105.198 Y118.612 E4.53805 F540.000
G1 X105.585 Y118.452 E4.57610
G1 X106.000 Y118.397 E4.61416
G1 X106.415 Y118.452 E4.65221
G1 X106.746 Y118.589 E4.68477
G1 X106.802 Y118.612 E4.69026
G1 X107.134 Y118.866 E4.72831
G1 X107.388 Y119.198 E4.76636
G1 X107.548 Y119.585 E4.80441
G1 X107.603 Y120.000 E4.84247
G1 X107.548 Y120.415 E4.88052
G1 X107.388 Y120.802 E4.91857
G1 X107.134 Y121.134 E4.95662
G1 X106.802 Y121.388 E4.99467
G1 X106.415 Y121.548 E5.03272
G1 X106.000 Y121.603 E5.07077
G1 X105.585 Y121.548 E5.10882
G1 X105.198 Y121.388 E5.14688
G1 X104.866 Y121.134 E5.18493
G1 X104.612 Y120.802 E5.22298
G1 X104.589 Y120.746 E5.22847
G1 X104.452 Y120.415 E5.26103
G1 X104.397 Y120.000 E5.29908
G1 X104.452 Y119.585 E5.33713
G1 X104.612 Y119.198 E5.37518
G1 X104.809 Y118.941 E5.40471
G1 X104.776 Y118.458 F7800.000
G1 X104.128 Y118.128 F7800.000
G1 X104.677 Y117.708 E5.46755 F540.000
G1 X105.315 Y117.443 E5.53038
G1 X106.000 Y117.353 E5.59321
G1 X106.685 Y117.443 E5.65604
G1 X107.323 Y117.708 E5.71888
G1 X107.872 Y118.128 E5.78171
G1 X108.292 Y118.677 E5.84454
G1 X108.557 Y119.315 E5.90737
G1 X108.647 Y120.000 E5.97021
G1 X108.557 Y120.685 E6.03304
G1 X108.292 Y121.323 E6.09587
G1 X107.872 Y121.872 E6.15870
G1 X107.323 Y122.292 E6.22153
G1 X106.685 Y122.557 E6.28437
G1 X106.000 Y122.647 E6.34720
G1 X105.315 Y122.557 E6.41003
G1 X104.677 Y122.292 E6.47286
G1 X104.128 Y121.872 E6.53570
G1 X103.708 Y121.323 E6.59853
G1 X103.443 Y120.685 E6.66136
G1 X103.353 Y120.000 E6.72419
G1 X103.443 Y119.315 E6.78703
G1 X103.708 Y118.677 E6.84986
G1 X104.071 Y118.203 E6.90417
G1 X104.724 Y118.316 F7800.000
G1 X104.694 Y118.252 F7800.000
G1 X104.801 Y118.359 E6.91106 F360.000
G1 X105.071 Y118.186 E6.92565 F360.000
G1 X104.956 Y118.071 E6.93305 F360.000
G1 X105.269 Y117.941 E6.94847 F360.000
G1 X105.384 Y118.056 E6.95587 F360.000
G1 X105.620 Y117.849 E6.97016 F360.000
G1 X105.753 Y117.983 E6.97877 F360.000
G1 X106.014 Y117.801 E6.99325 F360.000
G1 X106.188 Y117.976 E7.00448 F360.000
G1 X106.524 Y117.868 E7.02051 F360.000
G1 X106.779 Y118.123 E7.03695 F360.000
G1 X107.495 Y118.397 F7800.000
G1 X107.603 Y118.505 E7.04393 F360.000
G1 X107.876 Y119.221 F7800.000
G1 X108.132 Y119.476 E7.06037 F360.000
G1 X108.024 Y119.812 E7.07640 F360.000
G1 X108.199 Y119.986 E7.08763 F360.000
G1 X108.017 Y120.247 E7.10210 F360.000
G1 X108.151 Y120.380 E7.11072 F360.000
G1 X107.944 Y120.616 E7.12500 F360.000
G1 X108.059 Y120.731 E7.13240 F360.000
G1 X107.814 Y120.929 E7.14673 F360.000
G1 X107.929 Y121.044 E7.15413 F360.000
G1 X107.748 Y121.306 E7.16862 F360.000
G1 X107.641 Y121.199 E7.17551 F360.000
G1 X107.449 Y121.449 E7.18989 F360.000
G1 X107.549 Y121.549 E7.19632 F360.000
G1 X107.306 Y121.748 E7.21065 F360.000
G1 X107.199 Y121.641 E7.21754 F360.000
G1 X106.929 Y121.814 E7.23213 F360.000
G1 X107.044 Y121.929 E7.23953 F360.000
G1 X106.731 Y122.059 E7.25495 F360.000
G1 X106.616 Y121.944 E7.26235 F360.000
G1 X106.380 Y122.151 E7.27663 F360.000
G1 X106.247 Y122.017 E7.28525 F360.000
G1 X105.986 Y122.199 E7.29973 F360.000
G1 X105.812 Y122.024 E7.31096 F360.000
G1 X105.476 Y122.132 E7.32699 F360.000
G1 X105.221 Y121.876 E7.34343 F360.000
G1 X104.505 Y121.603 F7800.000
G1 X104.397 Y121.495 E7.35041 F360.000
G1 X104.123 Y120.779 F7800.000
G1 X103.868 Y120.524 E7.36685 F360.000
G1 X103.976 Y120.188 E7.38288 F360.000
G1 X103.801 Y120.014 E7.39411 F360.000
G1 X103.983 Y119.753 E7.40858 F360.000
G1 X103.849 Y119.620 E7.41720 F360.000
G1 X104.056 Y119.384 E7.43148 F360.000
G1 X103.941 Y119.269 E7.43888 F360.000
G1 X104.186 Y119.071 E7.45321 F360.000
G1 X104.071 Y118.956 E7.46061 F360.000
G1 X104.252 Y118.694 E7.47510 F360.000
G1 X104.359 Y118.801 E7.48199 F360.000
G1 X104.551 Y118.551 E7.49637 F360.000
G1 X104.451 Y118.451 E7.50280 F360.000
G1 X104.694 Y118.252 E7.51712 F360.000
G1 F1800.000 E3.01712
G92 E0
G1 X106.000 Y109.603 F7800.000
G1 E4.50000 F1800.000
G1 X105.585 Y109.548 E4.53805 F540.000
G1 X105.198 Y109.388 E4.57610
G1 X104.866 Y109.134 E4.61416
G1 X104.612 Y108.802 E4.65221
G1 X104.589 Y108.746 E4.65769
G1 X104.452 Y108.415 E4.69026
G1 X104.397 Y108.000 E4.72831
G1 X104.452 Y107.585 E4.76636
G1 X104.612 Y107.198 E4.80441
G1 X104.866 Y106.866 E4.84247
G1 X105.198 Y106.612 E4.88052
G1 X105.585 Y106.452 E4.91857
G1 X106.000 Y106.397 E4.95662
G1 X106.415 Y106.452 E4.99467
G1 X106.746 Y106.589 E5.02724
G1 X106.802 Y106.612 E5.03272
G1 X107.134 Y106.866 E5.07077
G1 X107.388 Y107.198 E5.10883
G1 X107.548 Y107.585 E5.14688
G1 X107.603 Y108.000 E5.18493
G1 X107.548 Y108.415 E5.22298
G1 X107.388 Y108.802 E5.26103
G1 X107.134 Y109.134 E5.29908
G1 X106.802 Y109.388 E5.33713
G1 X106.415 Y109.548 E5.37519
G1 X106.093 Y109.591 E5.40471
G1 X105.775 Y109.956 F7800.000
G1 X106.000 Y110.647 F7800.000
G1 X105.315 Y110.557 E5.46755 F540.000
G1 X104.677 Y110.292 E5.53038
G1 X104.128 Y109.872 E5.59321
G1 X103.708 Y109.323 E5.65604
G1 X103.443 Y108.685 E5.71888
G1 X103.353 Y108.000 E5.78171
G1 X103.443 Y107.315 E5.84454
G1 X103.708 Y106.677 E5.90737
G1 X104.128 Y106.128 E5.97021
G1 X104.677 Y105.708 E6.03304
G1 X105.315 Y105.443 E6.09587
G1 X106.000 Y105.353 E6.15870
G1 X106.685 Y105.443 E6.22153
G1 X107.323 Y105.708 E6.28437
G1 X107.872 Y106.128 E6.34720
G1 X108.292 Y106.677 E6.41003
G1 X108.557 Y107.315 E6.47286
G1 X108.647 Y108.000 E6.53570
G1 X108.557 Y108.685 E6.59853
G1 X108.292 Y109.323 E6.66136
G1 X107.872 Y109.872 E6.72419
G1 X107.323 Y110.292 E6.78703
G1 X106.685 Y110.557 E6.84986
G1 X106.093 Y110.635 E6.90417
G1 X105.711 Y110.093 F7800.000
G1 X105.812 Y110.024 F7800.000
G1 X105.476 Y110.132 E6.92020 F360.000
G1 X105.221 Y109.876 E6.93664 F360.000
G1 X105.812 Y110.024 F7800.000
G1 X105.986 Y110.199 E6.94787 F360.000
G1 X106.247 Y110.017 E6.96234 F360.000
G1 X106.380 Y110.151 E6.97096 F360.000
G1 X106.616 Y109.944 E6.98524 F360.000
G1 X106.731 Y110.059 E6.99264 F360.000
G1 X107.044 Y109.929 E7.00807 F360.000
G1 X106.929 Y109.814 E7.01547 F360.000
G1 X107.199 Y109.641 E7.03005 F360.000
G1 X107.306 Y109.748 E7.03695 F360.000
G1 X107.549 Y109.549 E7.05127 F360.000
G1 X107.449 Y109.449 E7.05771 F360.000
G1 X107.641 Y109.199 E7.07208 F360.000
G1 X107.748 Y109.306 E7.07898 F360.000
G1 X107.929 Y109.044 E7.09346 F360.000
G1 X107.814 Y108.929 E7.10086 F360.000
G1 X108.059 Y108.731 E7.11519 F360.000
G1 X107.944 Y108.616 E7.12259 F360.000
G1 X108.151 Y108.380 E7.13688 F360.000
G1 X108.017 Y108.247 E7.14549 F360.000
G1 X108.199 Y107.986 E7.15997 F360.000
G1 X108.024 Y107.812 E7.17120 F360.000
G1 X108.132 Y107.476 E7.18723 F360.000
G1 X107.876 Y107.221 E7.20367 F360.000
G1 X107.603 Y106.505 F7800.000
G1 X107.495 Y106.397 E7.21065 F360.000
G1 X106.779 Y106.123 F7800.000
G1 X106.524 Y105.868 E7.22708 F360.000
G1 X106.188 Y105.976 E7.24312 F360.000
G1 X106.014 Y105.801 E7.25435 F360.000
G1 X105.753 Y105.983 E7.26882 F360.000
G1 X105.620 Y105.849 E7.27744 F360.000
G1 X105.384 Y106.056 E7.29172 F360.000
G1 X105.269 Y105.941 E7.29912 F360.000
G1 X104.956 Y106.071 E7.31455 F360.000
G1 X105.071 Y106.186 E7.32195 F360.000
G1 X104.801 Y106.359 E7.33653 F360.000
G1 X104.694 Y106.252 E7.34343 F360.000
G1 X104.451 Y106.451 E7.35775 F360.000
G1 X104.551 Y106.551 E7.36419 F360.000
G1 X104.359 Y106.801 E7.37856 F360.000
G1 X104.252 Y106.694 E7.38546 F360.000
G1 X104.071 Y106.956 E7.39994 F360.000
G1 X104.186 Y107.071 E7.40734 F360.000
G1 X103.941 Y107.269 E7.42167 F360.000
G1 X104.056 Y107.384 E7.42907 F360.000
G1 X103.849 Y107.620 E7.44335 F360.000
G1 X103.983 Y107.753 E7.45197 F360.000
G1 X103.801 Y108.014 E7.46645 F360.000
G1 X103.976 Y108.188 E7.47768 F360.000
G1 X103.868 Y108.524 E7.49371 F360.000
G1 X104.123 Y108.779 E7.51015 F360.000
G1 X104.397 Y109.495 F7800.000
G1 X104.505 Y109.603 E7.51712 F360.000
G1 F1800.000 E3.01712
G92 E0
G1 X95.548 Y108.415 F7800.000
G1 E4.50000 F1800.000
G1 X95.388 Y108.802 E4.53805 F540.000
G1 X95.134 Y109.134 E4.57610
G1 X94.802 Y109.388 E4.61415
G1 X94.415 Y109.548 E4.65220
G1 X94.000 Y109.603 E4.69026
G1 X93.585 Y109.548 E4.72831
G1 X93.198 Y109.388 E4.76636
G1 X92.866 Y109.134 E4.80441
G1 X92.612 Y108.802 E4.84246
G1 X92.452 Y108.415 E4.88051
G1 X92.444 Y108.355 E4.88600
G1 X92.397 Y108.000 E4.91856
G1 X92.452 Y107.585 E4.95662
G1 X92.612 Y107.198 E4.99467
G1 X92.866 Y106.866 E5.03272
G1 X93.198 Y106.612 E5.07077
G1 X93.585 Y106.452 E5.10882
G1 X94.000 Y106.397 E5.14688
G1 X94.415 Y106.452 E5.18493
G1 X94.802 Y106.612 E5.22298
G1 X95.086 Y106.830 E5.25554
G1 X95.134 Y106.866 E5.26103
G1 X95.388 Y107.198 E5.29908
G1 X95.548 Y107.585 E5.33713
G1 X95.603 Y108.000 E5.37519
G1 X95.561 Y108.322 E5.40471
G1 X95.831 Y108.723 F7800.000
G1 X96.557 Y108.685 F7800.000
G1 X96.292 Y109.323 E5.46755 F540.000
G1 X95.872 Y109.872 E5.53038
G1 X95.323 Y110.292 E5.59321
G1 X94.685 Y110.557 E5.65604
G1 X94.000 Y110.647 E5.71887
G1 X93.315 Y110.557 E5.78171
G1 X92.677 Y110.292 E5.84454
G1 X92.128 Y109.872 E5.90737
G1 X91.708 Y109.323 E5.97020
G1 X91.443 Y108.685 E6.03304
G1 X91.353 Y108.000 E6.09587
G1 X91.443 Y107.315 E6.15870
G1 X91.708 Y106.677 E6.22153
G1 X92.128 Y106.128 E6.28437
G1 X92.677 Y105.708 E6.34720
G1 X93.315 Y105.443 E6.41003
G1 X94.000 Y105.353 E6.47286
G1 X94.685 Y105.443 E6.53570
G1 X95.323 Y105.708 E6.59853
G1 X95.872 Y106.128 E6.66136
G1 X96.292 Y106.677 E6.72419
G1 X96.557 Y107.315 E6.78702
G1 X96.647 Y108.000 E6.84986
G1 X96.569 Y108.592 E6.90417
G1 X95.947 Y108.820 F7800.000
G1 X96.059 Y108.731 F7800.000
G1 X95.814 Y108.929 E6.91850 F360.000
G1 X95.929 Y109.044 E6.92590 F360.000
G1 X95.748 Y109.306 E6.94038 F360.000
G1 X95.641 Y109.199 E6.94728 F360.000
G1 X95.449 Y109.449 E6.96165 F360.000
G1 X95.549 Y109.549 E6.96809 F360.000
G1 X95.306 Y109.748 E6.98241 F360.000
G1 X95.199 Y109.641 E6.98931 F360.000
G1 X94.929 Y109.814 E7.00389 F360.000
G1 X95.044 Y109.929 E7.01129 F360.000
G1 X94.731 Y110.059 E7.02672 F360.000
G1 X94.616 Y109.944 E7.03412 F360.000
G1 X94.380 Y110.151 E7.04840 F360.000
G1 X94.247 Y110.017 E7.05702 F360.000
G1 X93.986 Y110.199 E7.07149 F360.000
G1 X93.812 Y110.024 E7.08272 F360.000
G1 X93.476 Y110.132 E7.09875 F360.000
G1 X93.221 Y109.876 E7.11519 F360.000
G1 X92.505 Y109.603 F7800.000
G1 X92.397 Y109.495 E7.12217 F360.000
G1 X92.123 Y108.779 F7800.000
G1 X91.868 Y108.524 E7.13861 F360.000
G1 X91.976 Y108.188 E7.15464 F360.000
G1 X91.801 Y108.014 E7.16587 F360.000
G1 X91.983 Y107.753 E7.18035 F360.000
G1 X91.849 Y107.620 E7.18896 F360.000
G1 X92.056 Y107.384 E7.20325 F360.000
G1 X91.941 Y107.269 E7.21065 F360.000
G1 X92.186 Y107.071 E7.22498 F360.000
G1 X92.071 Y106.956 E7.23238 F360.000
G1 X92.252 Y106.694 E7.24686 F360.000
G1 X92.359 Y106.801 E7.25376 F360.000
G1 X92.551 Y106.551 E7.26813 F360.000
G1 X92.451 Y106.451 E7.27457 F360.000
G1 X92.694 Y106.252 E7.28889 F360.000
G1 X92.801 Y106.359 E7.29579 F360.000
G1 X93.071 Y106.186 E7.31037 F360.000
G1 X92.956 Y106.071 E7.31777 F360.000
G1 X93.269 Y105.941 E7.33320 F360.000
G1 X93.384 Y106.056 E7.34060 F360.000
G1 X93.620 Y105.849 E7.35488 F360.000
G1 X93.753 Y105.983 E7.36350 F360.000
G1 X94.014 Y105.801 E7.37797 F360.000
G1 X94.188 Y105.976 E7.38920 F360.000
G1 X94.524 Y105.868 E7.40523 F360.000
G1 X94.779 Y106.123 E7.42167 F360.000
G1 X95.495 Y106.397 F7800.000
G1 X95.603 Y106.505 E7.42865 F360.000
G1 X95.876 Y107.221 F7800.000
G1 X96.132 Y107.476 E7.44509 F360.000
G1 X96.024 Y107.812 E7.46112 F360.000
G1 X96.199 Y107.986 E7.47235 F360.000
G1 X96.017 Y108.247 E7.48682 F360.000
G1 X96.151 Y108.380 E7.49544 F360.000
G1 X95.944 Y108.616 E7.50972 F360.000
G1 X96.059 Y108.731 E7.51712 F360.000
G1 F1800.000 E3.01712
G92 E0
G1 X94.415 Y118.452 F7800.000
G1 E4.50000 F1800.000
G1 X94.802 Y118.612 E4.53805 F540.000
G1 X95.086 Y118.830 E4.57061
G1 X95.134 Y118.866 E4.57610
G1 X95.388 Y119.198 E4.61415
G1 X95.548 Y119.585 E4.65221
G1 X95.603 Y120.000 E4.69026
G1 X95.548 Y120.415 E4.72831
G1 X95.388 Y120.802 E4.76636
G1 X95.134 Y121.134 E4.80441
G1 X94.802 Y121.388 E4.84246
G1 X94.415 Y121.548 E4.88051
G1 X94.000 Y121.603 E4.91856
G1 X93.585 Y121.548 E4.95662
G1 X93.198 Y121.388 E4.99467
G1 X92.866 Y121.134 E5.03272
G1 X92.612 Y120.802 E5.07077
G1 X92.452 Y120.415 E5.10882
G1 X92.444 Y120.355 E5.11431
G1 X92.397 Y120.000 E5.14687
G1 X92.452 Y119.585 E5.18493
G1 X92.612 Y119.198 E5.22298
G1 X92.866 Y118.866 E5.26103
G1 X93.198 Y118.612 E5.29908
G1 X93.585 Y118.452 E5.33713
G1 X94.000 Y118.397 E5.37519
G1 X94.322 Y118.439 E5.40471
