; generated by Slic3r 1.1.7 on 2014-09-18 at 18:20:12

; perimeters extrusion width = 0.35mm
; infill extrusion width = 0.39mm
; solid infill extrusion width = 0.39mm
; top infill extrusion width = 0.39mm

G21 ; set units to millimeters
M107
M84 S0 ; don't let go of motors
M108 S155 ; make sure extruder and electronics fans are running
M140 S70
M104 S210
G28 X0 Y0; home X and Y
G1 F10800 ; set high speed
G1 Y20 ; move into the platform along Y
G1 X205 ; move off the platform end along X
G28 Z0 ; home Z now - blobs won't hit the platform
G1 F400
G1 Z10 ; lift Z a little
M190 S70
M109 S210 ; wait for temperature to be reached
G28 Z0 ; home Z
G92 E0 ; reset extruder position to 0
G1 F300 ; set suitable speed
G1 E25 ; extrude 25mm
G92 E0 ; reset extruder position to 0 - needed for cura/SF
G1 F10800 ; set wipe speed
G1 X0 ; wipe nozzle and move to X0
G90 ; use absolute coordinates
G92 E0
M82 ; use absolute distances for extrusion
G1 F1800.000 E-4.50000
G92 E0
G1 Z0.350 F7800.000
G1 X8.665 Y61.284 F7800.000
G1 E4.50000 F1800.000
G1 X10.929 Y60.985 E4.70770 F1080.000
G1 X16.000 Y60.375 E5.17209
G1 X184.865 Y60.432 E20.52689
G1 X191.335 Y61.284 E21.12033 F1080.000
G1 X193.006 Y61.731 E21.27758
G1 X199.035 Y64.229 E21.87102
G1 X200.533 Y65.093 E22.02828
G1 X205.711 Y69.066 E22.62171
G1 X206.934 Y70.289 E22.77897
G1 X210.907 Y75.467 E23.37240
G1 X211.771 Y76.965 E23.52966
G1 X214.269 Y82.994 E24.12309
G1 X214.716 Y84.665 E24.28035
G1 X215.625 Y92.000 E24.95243
G1 X215.568 Y148.865 E30.12312
G1 X214.716 Y155.335 E30.71656
G1 X214.269 Y157.006 E30.87381
G1 X211.771 Y163.035 E31.46725
G1 X210.907 Y164.533 E31.62451
G1 X208.324 Y167.898 E32.01024
G1 X206.934 Y169.711 E32.21794
G1 X205.711 Y170.934 E32.37520
G1 X200.533 Y174.907 E32.96863
G1 X199.035 Y175.771 E33.12589
G1 X193.006 Y178.269 E33.71933
G1 X191.335 Y178.716 E33.87658
G1 X189.071 Y179.015 E34.08429
G1 X184.000 Y179.625 E34.54868
G1 X15.135 Y179.568 E49.90347
G1 X8.665 Y178.716 E50.49691
G1 X6.994 Y178.269 E50.65417
G1 X0.965 Y175.771 E51.24760
G1 X-0.533 Y174.907 E51.40486
G1 X-5.711 Y170.934 E51.99829
G1 X-6.934 Y169.711 E52.15555
G1 X-10.907 Y164.533 E52.74898
G1 X-11.771 Y163.035 E52.90624
G1 X-13.395 Y159.116 E53.29198
G1 X-14.269 Y157.006 E53.49968
G1 X-14.716 Y155.335 E53.65693
G1 X-15.270 Y151.129 E54.04267
G1 X-15.625 Y148.000 E54.32904
G1 X-15.568 Y91.135 E59.49973
G1 X-14.716 Y84.665 E60.09317
G1 X-14.269 Y82.994 E60.25042
G1 X-11.771 Y76.965 E60.84386
G1 X-10.907 Y75.467 E61.00112
G1 X-6.934 Y70.289 E61.59455
G1 X-5.711 Y69.066 E61.75181
G1 X-0.533 Y65.093 E62.34524
G1 X0.965 Y64.229 E62.50250
G1 X6.994 Y61.731 E63.09593
G1 X8.614 Y61.297 E63.24842
G1 F1800.000 E58.74842
G92 E0
G1 X70.517 Y157.301 F7800.000
G1 E4.50000 F1800.000
G1 X66.967 Y170.551 E5.74739 F540.000
G1 X60.521 Y167.882 E6.38175
G1 X55.767 Y164.233 E6.92670
G1 X52.118 Y159.479 E7.47165
G1 X49.449 Y153.033 E8.10601
G1 X62.699 Y149.483 E9.35340
G1 X62.351 Y148.643 E9.43608
G1 X62.267 Y148.000 E9.49503
G1 X62.351 Y147.357 E9.55397
G1 X62.699 Y146.517 E9.63666
G1 X49.449 Y142.967 E10.88405
G1 X52.118 Y136.521 E11.51841
G1 X55.767 Y131.767 E12.06336
G1 X60.521 Y128.118 E12.60831
G1 X66.967 Y125.449 E13.24267
G1 X70.517 Y138.699 E14.49006
G1 X71.357 Y138.351 E14.57274
G1 X72.000 Y138.267 E14.63168
G1 X72.643 Y138.351 E14.69064
G1 X73.483 Y138.699 E14.77332
G1 X77.033 Y125.449 E16.02072
G1 X83.479 Y128.118 E16.65508
G1 X88.233 Y131.767 E17.20003
G1 X91.882 Y136.521 E17.74497
G1 X94.551 Y142.967 E18.37933
G1 X81.301 Y146.517 E19.62672
G1 X81.649 Y147.357 E19.70941
G1 X81.733 Y148.000 E19.76835
G1 X81.649 Y148.643 E19.82730
G1 X81.301 Y149.483 E19.90999
G1 X94.551 Y153.033 E21.15737
G1 X91.882 Y159.479 E21.79173
G1 X88.233 Y164.233 E22.33668
G1 X83.479 Y167.882 E22.88163
G1 X77.033 Y170.551 E23.51599
G1 X73.483 Y157.301 E24.76338
G1 X72.643 Y157.649 E24.84607
G1 X72.000 Y157.733 E24.90501
G1 X71.357 Y157.649 E24.96396
G1 X70.566 Y157.321 E25.04187
G1 F1800.000 E20.54187
G92 E0
G1 X62.547 Y145.829 F7800.000
G1 E4.50000 F1800.000
G1 X50.299 Y142.547 E5.65300 F378.000
G1 X52.664 Y136.836 E6.21509
G1 X56.212 Y132.212 E6.74508
G1 X60.836 Y128.664 E7.27506
G1 X66.547 Y126.299 E7.83715
G1 X69.829 Y138.547 E8.99015
G1 X67.177 Y139.645 E9.25125
G1 X65.179 Y141.179 E9.48024
G1 X63.645 Y143.177 E9.70924
G1 X62.567 Y145.781 E9.96556
G1 X62.310 Y145.571 F7800.000
G1 F1800.000 E5.46556
G92 E0
G1 X70.690 Y153.940 F7800.000
G1 E4.50000 F1800.000
G1 X71.073 Y153.645 E4.54399 F378.000
G1 X71.520 Y153.460 E4.58797
G1 X71.932 Y153.406 E4.62569
G1 X72.000 Y153.397 E4.63196 F378.000
G1 X72.480 Y153.460 E4.67594
G1 X72.927 Y153.645 E4.71993
G1 X73.310 Y153.940 E4.76391
G1 X73.352 Y153.994 E4.77018
G1 X73.605 Y154.323 E4.80790
G1 X73.790 Y154.770 E4.85189
G1 X73.853 Y155.250 E4.89587
G1 X73.790 Y155.730 E4.93986
G1 X73.605 Y156.177 E4.98385
G1 X73.310 Y156.560 E5.02783
G1 X72.927 Y156.855 E5.07182
G1 X72.480 Y157.040 E5.11580
G1 X72.000 Y157.103 E5.15979
G1 X71.520 Y157.040 E5.20377
G1 X71.073 Y156.855 E5.24776
G1 X70.690 Y156.560 E5.29174
G1 X70.395 Y156.177 E5.33573
G1 X70.210 Y155.730 E5.37972
G1 X70.147 Y155.250 E5.42370
G1 X70.210 Y154.770 E5.46769
G1 X70.395 Y154.323 E5.51167
G1 X70.658 Y153.981 E5.55089
G1 X71.981 Y153.454 F7800.000
G1 F1800.000 E1.05089
G92 E0
G1 X74.171 Y157.453 F7800.000
G1 E4.50000 F1800.000
G1 X76.823 Y156.355 E4.76109 F378.000
G1 X78.821 Y154.821 E4.99009
G1 X80.355 Y152.823 E5.21908
G1 X81.453 Y150.171 E5.48018
G1 X93.701 Y153.453 E6.63318
G1 X91.336 Y159.164 E7.19527
G1 X87.788 Y163.788 E7.72525
G1 X83.164 Y167.336 E8.25524
G1 X77.453 Y169.701 E8.81733
G1 X74.184 Y157.504 E9.96556
G1 X74.515 Y157.514 F7800.000
G1 X78.324 Y149.605 F7800.000
G1 X77.940 Y149.310 E10.00954 F378.000
G1 X77.645 Y148.927 E10.05353
G1 X77.619 Y148.863 E10.05979
G1 X77.460 Y148.480 E10.09751
G1 X77.397 Y148.000 E10.14150
G1 X77.460 Y147.520 E10.18548
G1 X77.645 Y147.073 E10.22947
G1 X77.940 Y146.690 E10.27346
G1 X78.323 Y146.395 E10.31744
G1 X78.770 Y146.210 E10.36143
G1 X78.839 Y146.201 E10.36769
G1 X79.250 Y146.147 E10.40541 F378.000
G1 X79.730 Y146.210 E10.44940
G1 X80.177 Y146.395 E10.49339
G1 X80.560 Y146.690 E10.53737
G1 X80.855 Y147.073 E10.58136
G1 X81.040 Y147.520 E10.62534
G1 X81.103 Y148.000 E10.66933
G1 X81.040 Y148.480 E10.71332
G1 X80.855 Y148.927 E10.75730
G1 X80.560 Y149.310 E10.80129
G1 X80.176 Y149.605 E10.84527
G1 X79.730 Y149.790 E10.88926
G1 X79.250 Y149.853 E10.93324
G1 X78.770 Y149.790 E10.97723
G1 X78.372 Y149.625 E11.01644
G1 F1800.000 E6.51644
G92 E0
G1 X79.155 Y146.351 F7800.000
G1 X81.453 Y145.829 F7800.000
G1 E4.50000 F1800.000
G1 X80.355 Y143.177 E4.76109 F378.000
G1 X78.821 Y141.179 E4.99009
G1 X76.823 Y139.645 E5.21908
G1 X74.171 Y138.547 E5.48018
G1 X77.453 Y126.299 E6.63318
G1 X83.164 Y128.664 E7.19527
G1 X87.788 Y132.212 E7.72525
G1 X91.336 Y136.836 E8.25524
G1 X93.701 Y142.547 E8.81733
G1 X81.504 Y145.816 E9.96556
G1 X81.514 Y145.485 F7800.000
G1 X73.605 Y141.677 F7800.000
G1 X73.310 Y142.060 E10.00954 F378.000
G1 X72.927 Y142.355 E10.05352
G1 X72.480 Y142.540 E10.09751
G1 X72.000 Y142.603 E10.14150
G1 X71.520 Y142.540 E10.18549
G1 X71.074 Y142.355 E10.22947
G1 X70.690 Y142.060 E10.27345
G1 X70.395 Y141.677 E10.31744
G1 X70.210 Y141.230 E10.36143
G1 X70.147 Y140.750 E10.40541
G1 X70.210 Y140.270 E10.44940
G1 X70.395 Y139.823 E10.49339
G1 X70.690 Y139.440 E10.53737
G1 X71.073 Y139.145 E10.58136
G1 X71.520 Y138.960 E10.62534
G1 X71.932 Y138.906 E10.66306
G1 X72.000 Y138.897 E10.66933 F378.000
G1 X72.480 Y138.960 E10.71332
G1 X72.927 Y139.145 E10.75730
G1 X73.310 Y139.440 E10.80128
G1 X73.605 Y139.823 E10.84527
G1 X73.790 Y140.270 E10.88926
G1 X73.853 Y140.750 E10.93324
G1 X73.790 Y141.230 E10.97723
G1 X73.625 Y141.628 E11.01644
G1 F1800.000 E6.51644
G92 E0
G1 X71.999 Y138.920 F7800.000
G1 X72.868 Y144.761 F7800.000
G1 E4.50000 F1800.000
G1 X73.676 Y145.096 E4.57959 F378.000
G1 X74.371 Y145.629 E4.65918
G1 X74.427 Y145.702 E4.66753
G1 X74.904 Y146.323 E4.73878
G1 X75.239 Y147.132 E4.81837
G1 X75.353 Y148.000 E4.89796
G1 X75.239 Y148.868 E4.97755
G1 X75.204 Y148.953 E4.98590
G1 X74.904 Y149.677 E5.05714
G1 X74.371 Y150.371 E5.13674
G1 X73.677 Y150.904 E5.21633
G1 X72.868 Y151.239 E5.29592
G1 X72.000 Y151.353 E5.37551
G1 X71.132 Y151.239 E5.45510
G1 X70.323 Y150.904 E5.53470
G1 X69.629 Y150.371 E5.61429
G1 X69.096 Y149.677 E5.69388
G1 X68.761 Y148.868 E5.77347
G1 X68.647 Y148.000 E5.85306
G1 X68.700 Y147.600 E5.88972
G1 X68.567 Y147.600 E5.90175
G1 X69.096 Y146.323 E6.02742
G1 X69.629 Y145.629 E6.10701
G1 X70.323 Y145.096 E6.18660
G1 X71.132 Y144.761 E6.26619
G1 X71.909 Y144.659 E6.33744
G1 X72.000 Y144.647 E6.34578 F378.000
G1 X72.816 Y144.754 E6.42060
G1 X71.874 Y144.744 F7800.000
G1 F1800.000 E1.92060
G92 E0
G1 X66.491 Y147.403 F7800.000
G1 E4.50000 F1800.000
G1 X66.540 Y147.520 E4.51160 F378.000
G1 X66.603 Y148.000 E4.55558
G1 X66.540 Y148.480 E4.59957
G1 X66.355 Y148.927 E4.64355
G1 X66.060 Y149.310 E4.68754
G1 X65.677 Y149.605 E4.73153
G1 X65.230 Y149.790 E4.77551
G1 X64.750 Y149.853 E4.81950
G1 X64.270 Y149.790 E4.86348
G1 X63.823 Y149.605 E4.90747
G1 X63.440 Y149.310 E4.95145
G1 X63.145 Y148.927 E4.99544
G1 X62.960 Y148.480 E5.03943
G1 X62.906 Y148.068 E5.07715
G1 X62.897 Y148.000 E5.08341
G1 X62.960 Y147.520 E5.12740
G1 X63.145 Y147.073 E5.17138
G1 X63.440 Y146.690 E5.21537
G1 X63.823 Y146.395 E5.25935
G1 X64.270 Y146.210 E5.30334
G1 X64.339 Y146.201 E5.30961
G1 X64.750 Y146.147 E5.34733 F378.000
G1 X65.230 Y146.210 E5.39131
G1 X65.677 Y146.395 E5.43530
G1 X66.060 Y146.690 E5.47928
G1 X66.355 Y147.073 E5.52327
G1 X66.471 Y147.354 E5.55089
G1 F1800.000 E1.05089
G92 E0
G1 X64.688 Y146.218 F7800.000
G1 X62.547 Y150.171 F7800.000
G1 E4.50000 F1800.000
G1 X63.645 Y152.823 E4.76109 F378.000
G1 X65.179 Y154.821 E4.99009
G1 X67.177 Y156.355 E5.21908
G1 X69.829 Y157.453 E5.48018
G1 X66.547 Y169.701 E6.63318
G1 X60.836 Y167.336 E7.19526
G1 X56.212 Y163.788 E7.72525
G1 X52.664 Y159.164 E8.25524
G1 X50.299 Y153.453 E8.81733
G1 X62.496 Y150.184 E9.96556
G1 X62.876 Y150.051 F7800.000
G1 X63.154 Y150.004 F7800.000
G1 X64.107 Y150.399 E10.05939 F540.000
G1 X64.750 Y150.483 E10.11834
G1 X65.393 Y150.399 E10.17728
G1 X65.992 Y150.151 E10.23623
G1 X66.506 Y149.756 E10.29518
G1 X66.901 Y149.242 E10.35412
G1 X67.149 Y148.643 E10.41307
G1 X67.204 Y148.225 E10.45136
G1 X68.046 Y148.225 E10.52799
G1 X68.152 Y149.031 E10.60189
G1 X68.550 Y149.992 E10.69644
G1 X69.183 Y150.817 E10.79099
G1 X70.008 Y151.450 E10.88554
G1 X70.969 Y151.848 E10.98010
G1 X72.000 Y151.983 E11.07465
G1 X73.031 Y151.848 E11.16921
G1 X73.992 Y151.450 E11.26376
G1 X74.817 Y150.817 E11.35831
G1 X75.450 Y149.992 E11.45286
G1 X75.848 Y149.031 E11.54742
G1 X75.983 Y148.000 E11.64197
G1 X75.848 Y146.969 E11.73652
G1 X75.516 Y146.169 E11.81525
G1 X75.450 Y146.008 E11.83108
G1 X74.817 Y145.183 E11.92564
G1 X73.992 Y144.550 E12.02019
G1 X73.031 Y144.152 E12.11474
G1 X72.000 Y144.017 E12.20929
G1 X70.969 Y144.152 E12.30384
G1 X70.008 Y144.550 E12.39839
G1 X69.183 Y145.183 E12.49295
G1 X68.550 Y146.008 E12.58750
G1 X67.636 Y148.217 E12.80487
G1 X67.255 Y148.167 E12.83975
G1 X67.149 Y147.357 E12.91399
G1 X66.901 Y146.758 E12.97294
G1 X66.506 Y146.244 E13.03189
G1 X65.992 Y145.849 E13.09083
G1 X65.393 Y145.601 E13.14977
G1 X64.750 Y145.517 E13.20872
G1 X64.107 Y145.601 E13.26767
G1 X63.154 Y145.996 E13.36150
G1 X64.191 Y143.492 E13.60801
G1 X65.624 Y141.624 E13.82204
G1 X67.492 Y140.191 E14.03607
G1 X69.996 Y139.154 E14.28258
G1 X69.601 Y140.107 E14.37641
G1 X69.517 Y140.750 E14.43536
G1 X69.601 Y141.393 E14.49430
G1 X69.849 Y141.992 E14.55325
G1 X70.152 Y142.386 E14.59845
G1 X70.244 Y142.506 E14.61220
G1 X70.758 Y142.901 E14.67115
G1 X71.357 Y143.149 E14.73009
G1 X72.000 Y143.233 E14.78904
G1 X72.493 Y143.168 E14.83424
G1 X72.643 Y143.149 E14.84799
G1 X73.242 Y142.901 E14.90694
G1 X73.756 Y142.506 E14.96588
G1 X74.151 Y141.992 E15.02483
G1 X74.341 Y141.532 E15.07003
G1 X74.399 Y141.393 E15.08378
G1 X74.483 Y140.750 E15.14272
G1 X74.399 Y140.107 E15.20167
G1 X74.004 Y139.154 E15.29550
G1 X76.508 Y140.191 E15.54201
G1 X78.376 Y141.624 E15.75604
G1 X79.809 Y143.492 E15.97007
G1 X80.846 Y145.996 E16.21658
G1 X79.893 Y145.601 E16.31041
G1 X79.250 Y145.517 E16.36936
G1 X78.607 Y145.601 E16.42831
G1 X78.008 Y145.849 E16.48725
G1 X77.494 Y146.244 E16.54619
G1 X77.099 Y146.758 E16.60514
G1 X76.851 Y147.357 E16.66409
G1 X76.767 Y148.000 E16.72304
G1 X76.786 Y148.150 E16.73678
G1 X76.851 Y148.643 E16.78199
G1 X77.099 Y149.242 E16.84093
G1 X77.494 Y149.756 E16.89988
G1 X78.008 Y150.151 E16.95883
G1 X78.468 Y150.341 E17.00403
G1 X78.607 Y150.399 E17.01778
G1 X79.250 Y150.483 E17.07672
G1 X79.893 Y150.399 E17.13567
G1 X80.846 Y150.004 E17.22950
G1 X79.809 Y152.508 E17.47601
G1 X78.376 Y154.376 E17.69004
G1 X76.508 Y155.809 E17.90407
G1 X74.004 Y156.846 E18.15058
G1 X74.399 Y155.893 E18.24441
G1 X74.483 Y155.250 E18.30336
G1 X74.399 Y154.607 E18.36230
G1 X74.151 Y154.008 E18.42125
G1 X73.848 Y153.614 E18.46645
G1 X73.756 Y153.494 E18.48020
G1 X73.242 Y153.099 E18.53915
G1 X72.643 Y152.851 E18.59810
G1 X72.000 Y152.767 E18.65704
G1 X71.357 Y152.851 E18.71598
G1 X70.758 Y153.099 E18.77493
G1 X70.244 Y153.494 E18.83388
G1 X69.849 Y154.008 E18.89283
G1 X69.601 Y154.607 E18.95177
G1 X69.517 Y155.250 E19.01072
G1 X69.601 Y155.893 E19.06967
G1 X69.996 Y156.846 E19.16350
G1 X67.492 Y155.809 E19.41001
G1 X65.624 Y154.376 E19.62404
G1 X64.191 Y152.508 E19.83807
G1 X63.174 Y150.052 E20.07980
G1 X48.501 Y151.933 F7800.000
G1 X47.983 Y148.000 E20.44050 F540.000
G1 X48.802 Y141.784 E21.01059
G1 X51.201 Y135.992 E21.58069
G1 X55.018 Y131.018 E22.15078
G1 X59.992 Y127.201 E22.72087
G1 X65.784 Y124.802 E23.29097
G1 X68.204 Y124.483 E23.51292
G1 X72.000 Y123.983 E23.86106 F540.000
G1 X78.216 Y124.802 E24.43115
G1 X84.008 Y127.201 E25.00125
G1 X88.982 Y131.018 E25.57134
G1 X92.799 Y135.992 E26.14144
G1 X95.198 Y141.784 E26.71153
G1 X96.017 Y148.000 E27.28162
G1 X95.198 Y154.216 E27.85172
G1 X92.799 Y160.008 E28.42181
G1 X88.982 Y164.982 E28.99190
G1 X87.272 Y166.295 E29.18794
G1 X84.008 Y168.799 E29.56200
G1 X78.216 Y171.198 E30.13209
G1 X72.000 Y172.017 E30.70218
G1 X65.784 Y171.198 E31.27228
G1 X59.992 Y168.799 E31.84237
G1 X55.018 Y164.982 E32.41247
G1 X51.201 Y160.008 E32.98256
G1 X48.802 Y154.216 E33.55265
G1 X48.508 Y151.985 E33.75727
G1 X47.882 Y152.014 F7800.000
G1 X47.353 Y148.000 E34.12545 F378.000
G1 X48.193 Y141.621 E34.71051
G1 X50.655 Y135.677 E35.29556
G1 X54.572 Y130.572 E35.88062
G1 X59.677 Y126.655 E36.46567
G1 X65.621 Y124.193 E37.05073
G1 X72.000 Y123.353 E37.63578
G1 X74.219 Y123.645 E37.83929
G1 X78.379 Y124.193 E38.22084 F378.000
G1 X84.323 Y126.655 E38.80589
G1 X89.428 Y130.572 E39.39095
G1 X93.345 Y135.677 E39.97600
G1 X95.807 Y141.621 E40.56106
G1 X96.647 Y148.000 E41.14611
G1 X95.807 Y154.379 E41.73117
G1 X93.345 Y160.323 E42.31622
G1 X89.428 Y165.428 E42.90127
G1 X84.323 Y169.345 E43.48633
G1 X78.379 Y171.807 E44.07138
G1 X72.000 Y172.647 E44.65644
G1 X65.621 Y171.807 E45.24149
G1 X59.677 Y169.345 E45.82655
G1 X54.572 Y165.428 E46.41160
G1 X50.655 Y160.323 E46.99666
G1 X48.193 Y154.379 E47.58171
G1 X47.888 Y152.066 E47.79381
G1 F1800.000 E43.29381
G92 E0
G1 X74.451 Y123.907 F7800.000
G1 X73.164 Y157.902 F7800.000
G1 E4.50000 F1800.000
G1 X73.207 Y157.945 E4.50561 F1080.000
G1 X72.471 Y158.108 E4.57415
G1 X73.536 Y159.173 E4.71112
G1 X73.865 Y160.401 E4.82671
G1 X71.579 Y158.115 E5.12073
G1 X70.733 Y158.168 E5.19778
G1 X74.194 Y161.629 E5.64287
G1 X74.523 Y162.857 E5.75846
G1 X70.543 Y158.877 E6.27028
G1 X70.353 Y159.586 E6.33702
G1 X74.852 Y164.085 E6.91558
G1 X75.181 Y165.313 E7.03117
G1 X70.163 Y160.295 E7.67646
G1 X69.973 Y161.004 E7.74320
G1 X75.510 Y166.541 E8.45523
G1 X75.839 Y167.769 E8.57083
G1 X69.783 Y161.712 E9.34960
G1 X69.593 Y162.421 E9.41634
G1 X76.168 Y168.996 E10.26184
G1 X76.497 Y170.224 E10.37744
G1 X69.403 Y163.130 E11.28968
G1 X69.213 Y163.839 E11.35642
G1 X76.378 Y171.004 E12.27770
G1 X75.583 Y171.108 E12.35056
G1 X69.023 Y164.548 E13.19412
G1 X68.834 Y165.257 E13.26086
G1 X74.789 Y171.213 E14.02671
