; generated by Slic3r 1.0.1 on 2014-08-13 at 12:08:09

; layer_height = 0.25
; perimeters = 2
; top_solid_layers = 2
; bottom_solid_layers = 2
; fill_density = 0.2
; perimeter_speed = 30
; infill_speed = 60
; travel_speed = 130
; nozzle_diameter = 0.35
; filament_diameter = 1.75
; extrusion_multiplier = 1
; perimeters extrusion width = 0.35mm
; infill extrusion width = 0.39mm
; solid infill extrusion width = 0.39mm
; top infill extrusion width = 0.39mm
; first layer extrusion width = 0.70mm

G21 ; set units to millimeters
M107
M84 S0 ; don't let go of motors
M108 S155 ; make sure extruder and electronics fans are running
M140 S70
M104 S210
G28 X0 Y0; home X and Y
G1 F10800 ; set high speed
G1 Y20 ; move into the platform along Y
G1 X205 ; move off the platform end along X
G28 Z0 ; home Z now - blobs won't hit the platform
G1 F400
G1 Z10 ; lift Z a little
M190 S70
M109 S210 ; wait for temperature to be reached
G28 Z0 ; home Z
G92 E0 ; reset extruder position to 0
G1 F300 ; set suitable speed
G1 E25 ; extrude 25mm
G92 E0 ; reset extruder position to 0 - needed for cura/SF
G1 F10800 ; set wipe speed
G1 X0 ; wipe nozzle and move to X0
G90 ; use absolute coordinates
G92 E0
M82 ; use absolute distances for extrusion
G1 F1800.000 E-4.50000
G92 E0
G1 Z0.350 F7800.000
G1 X77.640 Y69.640 F7800.000
G1 E4.50000 F1800.000
G1 X78.280 Y69.070 E4.57793 F540.000
G1 X83.460 Y65.090 E5.17192
G1 X84.190 Y64.600 E5.25187
G1 X84.970 Y64.220 E5.33076
G1 X90.990 Y61.730 E5.92313
G1 X91.810 Y61.450 E6.00192
G1 X92.650 Y61.280 E6.07985
G1 X94.920 Y60.980 E6.28806
G1 X99.140 Y60.430 E6.67503
G1 X100.000 Y60.380 E6.75336
G1 X100.860 Y60.430 E6.83169
G1 X107.330 Y61.280 E7.42506
G1 X108.180 Y61.450 E7.50388
G1 X109.000 Y61.730 E7.58267
G1 X115.030 Y64.220 E8.17588
G1 X115.810 Y64.600 E8.25478
G1 X116.540 Y65.090 E8.33472
G1 X121.710 Y69.070 E8.92799
G1 X122.360 Y69.640 E9.00660
G1 X122.920 Y70.280 E9.08393
G1 X126.900 Y75.460 E9.67792
G1 X127.390 Y76.190 E9.75787
G1 X127.770 Y76.970 E9.83676
G1 X130.260 Y82.990 E10.42914
G1 X130.540 Y83.800 E10.50707
G1 X130.710 Y84.650 E10.58589
G1 X131.570 Y91.120 E11.17938
G1 X131.620 Y91.990 E11.25862
G1 X131.620 Y147.990 E16.35067
G1 X131.570 Y148.860 E16.42991
G1 X130.710 Y155.340 E17.02430
G1 X130.540 Y156.190 E17.10312
G1 X130.260 Y157.000 E17.18105
G1 X127.770 Y163.020 E17.77343
G1 X127.390 Y163.800 E17.85232
G1 X126.900 Y164.530 E17.93227
G1 X122.920 Y169.710 E18.52626
G1 X122.350 Y170.350 E18.60419
G1 X121.710 Y170.920 E18.68212
G1 X116.530 Y174.900 E19.27611
G1 X115.800 Y175.390 E19.35605
G1 X115.020 Y175.770 E19.43495
G1 X109.000 Y178.260 E20.02732
G1 X108.190 Y178.540 E20.10525
G1 X107.340 Y178.710 E20.18407
G1 X100.860 Y179.570 E20.77846
G1 X99.990 Y179.620 E20.85770
G1 X99.120 Y179.570 E20.93694
G1 X92.650 Y178.710 E21.53043
G1 X91.800 Y178.540 E21.60925
G1 X90.990 Y178.260 E21.68718
G1 X84.970 Y175.770 E22.27955
G1 X84.190 Y175.390 E22.35845
G1 X83.460 Y174.900 E22.43839
G1 X78.280 Y170.920 E23.03238
G1 X77.640 Y170.360 E23.10971
G1 X77.070 Y169.710 E23.18832
G1 X73.090 Y164.540 E23.78159
G1 X72.600 Y163.810 E23.86154
G1 X72.220 Y163.030 E23.94043
G1 X69.730 Y157.000 E24.53365
G1 X69.450 Y156.180 E24.61244
G1 X69.280 Y155.330 E24.69126
G1 X68.430 Y148.860 E25.28463
G1 X68.380 Y148.000 E25.36296
G1 X68.380 Y92.000 E30.45502
G1 X68.430 Y91.140 E30.53335
G1 X69.280 Y84.660 E31.12762
G1 X69.450 Y83.810 E31.20644
G1 X69.730 Y82.990 E31.28523
G1 X72.220 Y76.970 E31.87760
G1 X72.600 Y76.190 E31.95650
G1 X73.090 Y75.460 E32.03644
G1 X77.070 Y70.280 E32.63043
G1 X77.578 Y69.710 E32.69984
G1 F1800.000 E28.19984
G92 E0
G1 X94.967 Y125.449 F7800.000
G1 E4.50000 F1800.000
G1 X98.517 Y138.699 E5.74739 F540.000
G1 X99.357 Y138.351 E5.83007
G1 X100.000 Y138.267 E5.88902
G1 X100.643 Y138.351 E5.94797
G1 X101.483 Y138.699 E6.03065
G1 X105.033 Y125.449 E7.27804
G1 X111.479 Y128.118 E7.91240
G1 X116.233 Y131.767 E8.45735
G1 X119.882 Y136.521 E9.00230
G1 X122.551 Y142.967 E9.63666
G1 X109.301 Y146.517 E10.88405
G1 X109.649 Y147.357 E10.96673
G1 X109.733 Y148.000 E11.02569
G1 X109.649 Y148.643 E11.08463
G1 X109.301 Y149.483 E11.16731
G1 X122.551 Y153.033 E12.41470
G1 X119.882 Y159.479 E13.04906
G1 X116.233 Y164.233 E13.59401
G1 X111.479 Y167.882 E14.13896
G1 X105.033 Y170.551 E14.77332
G1 X101.483 Y157.301 E16.02071
G1 X100.643 Y157.649 E16.10340
G1 X100.000 Y157.733 E16.16235
G1 X99.357 Y157.649 E16.22129
G1 X98.517 Y157.301 E16.30397
G1 X94.967 Y170.551 E17.55136
G1 X88.521 Y167.882 E18.18572
G1 X83.767 Y164.233 E18.73067
G1 X80.118 Y159.479 E19.27562
G1 X77.449 Y153.033 E19.90998
G1 X90.699 Y149.483 E21.15737
G1 X90.351 Y148.643 E21.24006
G1 X90.267 Y148.000 E21.29900
G1 X90.351 Y147.357 E21.35795
G1 X90.699 Y146.517 E21.44064
G1 X77.449 Y142.967 E22.68802
G1 X80.118 Y136.521 E23.32238
G1 X83.767 Y131.767 E23.86733
G1 X88.521 Y128.118 E24.41228
G1 X94.880 Y125.484 E25.03812
G1 X105.453 Y126.299 F7800.000
G1 X111.164 Y128.664 E25.60021 F378.000
G1 X115.788 Y132.212 E26.13020
G1 X119.336 Y136.836 E26.66018
G1 X121.701 Y142.547 E27.22227
G1 X109.453 Y145.829 E28.37527
G1 X108.355 Y143.177 E28.63637
G1 X106.821 Y141.179 E28.86536
G1 X104.823 Y139.645 E29.09435
G1 X102.171 Y138.547 E29.35545
G1 X105.428 Y126.389 E30.49993
G1 X105.666 Y125.711 F7800.000
G1 X95.193 Y128.708 F7800.000
G1 X97.829 Y138.547 E31.42610 F378.000
G1 X95.177 Y139.645 E31.68719
G1 X93.179 Y141.179 E31.91619
G1 X91.645 Y143.177 E32.14518
G1 X90.547 Y145.829 E32.40627
G1 X78.299 Y142.547 E33.55927
G1 X80.664 Y136.836 E34.12136
G1 X84.212 Y132.212 E34.65135
G1 X88.836 Y128.664 E35.18134
G1 X94.547 Y126.299 E35.74343
G1 X95.169 Y128.618 E35.96173
G1 X95.797 Y128.870 F7800.000
G1 F1800.000 E31.46173
G92 E0
G1 X99.520 Y153.460 F7800.000
G1 E4.50000 F1800.000
G1 X100.000 Y153.397 E4.54399 F540.000
G1 X100.411 Y153.451 E4.58171
G1 X100.480 Y153.460 E4.58797
G1 X100.927 Y153.645 E4.63196
G1 X101.310 Y153.940 E4.67594
G1 X101.352 Y153.994 E4.68221
G1 X101.605 Y154.323 E4.71993
G1 X101.790 Y154.770 E4.76391
G1 X101.853 Y155.250 E4.80790
G1 X101.790 Y155.730 E4.85189
G1 X101.605 Y156.177 E4.89587
G1 X101.310 Y156.560 E4.93986
G1 X100.927 Y156.855 E4.98384
G1 X100.480 Y157.040 E5.02783
G1 X100.000 Y157.103 E5.07182
G1 X99.520 Y157.040 E5.11580
G1 X99.073 Y156.855 E5.15979
G1 X98.690 Y156.560 E5.20377
G1 X98.648 Y156.506 E5.21004
G1 X98.395 Y156.177 E5.24776
G1 X98.210 Y155.730 E5.29174
G1 X98.147 Y155.250 E5.33573
G1 X98.156 Y155.182 E5.34200
G1 X98.210 Y154.770 E5.37972
G1 X98.395 Y154.323 E5.42370
G1 X98.690 Y153.940 E5.46769
G1 X99.073 Y153.645 E5.51167
G1 X99.434 Y153.496 E5.54714
G1 X99.666 Y152.999 F7800.000
G1 X98.030 Y153.737 F7800.000
G1 X97.829 Y157.453 F7800.000
G1 X94.547 Y169.701 E6.70014 F378.000
G1 X88.836 Y167.336 E7.26223
G1 X84.212 Y163.788 E7.79221
G1 X80.664 Y159.164 E8.32220
G1 X78.299 Y153.453 E8.88429
G1 X90.547 Y150.171 E10.03729
G1 X91.645 Y152.823 E10.29838
G1 X93.179 Y154.821 E10.52738
G1 X95.177 Y156.355 E10.75637
G1 X97.743 Y157.417 E11.00894
G1 X98.425 Y157.641 F7800.000
G1 X93.677 Y149.605 F7800.000
G1 X93.230 Y149.790 E11.05293 F540.000
G1 X92.750 Y149.853 E11.09692
G1 X92.270 Y149.790 E11.14090
G1 X91.823 Y149.605 E11.18489
G1 X91.440 Y149.310 E11.22887
G1 X91.145 Y148.927 E11.27286
G1 X90.960 Y148.480 E11.31685
G1 X90.906 Y148.068 E11.35457
G1 X90.897 Y148.000 E11.36083
G1 X90.960 Y147.520 E11.40482
G1 X91.145 Y147.073 E11.44880
G1 X91.187 Y147.019 E11.45507
G1 X91.440 Y146.690 E11.49279
G1 X91.823 Y146.395 E11.53677
G1 X92.270 Y146.210 E11.58076
G1 X92.339 Y146.201 E11.58703
G1 X92.750 Y146.147 E11.62475
G1 X93.230 Y146.210 E11.66873
G1 X93.677 Y146.395 E11.71272
G1 X94.006 Y146.648 E11.75044
G1 X94.060 Y146.690 E11.75670
G1 X94.355 Y147.073 E11.80069
G1 X94.540 Y147.520 E11.84468
G1 X94.603 Y148.000 E11.88866
G1 X94.540 Y148.480 E11.93265
G1 X94.355 Y148.927 E11.97663
G1 X94.060 Y149.310 E12.02062
G1 X93.751 Y149.548 E12.05608
G1 X93.655 Y150.088 F7800.000
G1 X99.073 Y142.355 F7800.000
G1 X98.690 Y142.060 E12.10007 F540.000
G1 X98.648 Y142.006 E12.10633
G1 X98.395 Y141.677 E12.14405
G1 X98.210 Y141.230 E12.18804
G1 X98.147 Y140.750 E12.23202
G1 X98.156 Y140.682 E12.23829
G1 X98.210 Y140.270 E12.27601
G1 X98.395 Y139.823 E12.32000
G1 X98.690 Y139.440 E12.36398
G1 X99.019 Y139.187 E12.40170
G1 X99.073 Y139.145 E12.40797
G1 X99.520 Y138.960 E12.45195
G1 X100.000 Y138.897 E12.49594
G1 X100.411 Y138.951 E12.53366
G1 X100.480 Y138.960 E12.53993
G1 X100.927 Y139.145 E12.58391
G1 X101.310 Y139.440 E12.62790
G1 X101.352 Y139.494 E12.63416
G1 X101.605 Y139.823 E12.67188
G1 X101.790 Y140.270 E12.71587
G1 X101.853 Y140.750 E12.75986
G1 X101.790 Y141.230 E12.80384
G1 X101.605 Y141.677 E12.84783
G1 X101.310 Y142.060 E12.89181
G1 X100.927 Y142.355 E12.93580
G1 X100.480 Y142.540 E12.97979
G1 X100.000 Y142.603 E13.02377
G1 X99.520 Y142.540 E13.06776
G1 X99.160 Y142.391 E13.10322
G1 X98.644 Y142.578 F7800.000
G1 X98.969 Y144.152 F7800.000
G1 X100.000 Y144.017 E13.19777 F540.000
G1 X101.031 Y144.152 E13.29232
G1 X101.992 Y144.550 E13.38688
G1 X102.817 Y145.183 E13.48143
G1 X103.450 Y146.008 E13.57598
G1 X103.848 Y146.969 E13.67054
G1 X103.983 Y148.000 E13.76509
G1 X103.848 Y149.031 E13.85964
G1 X103.450 Y149.992 E13.95420
G1 X102.817 Y150.817 E14.04875
G1 X101.992 Y151.450 E14.14330
G1 X101.031 Y151.848 E14.23785
G1 X100.000 Y151.983 E14.33241
G1 X98.969 Y151.848 E14.42696
G1 X98.008 Y151.450 E14.52151
G1 X97.183 Y150.817 E14.61607
G1 X96.550 Y149.992 E14.71062
G1 X96.152 Y149.031 E14.80517
G1 X96.017 Y148.000 E14.89973
G1 X96.039 Y147.827 E14.91555
G1 X96.152 Y146.969 E14.99428
G1 X96.550 Y146.008 E15.08883
G1 X97.183 Y145.183 E15.18339
G1 X98.008 Y144.550 E15.27794
G1 X98.882 Y144.188 E15.36397
G1 X99.132 Y144.761 F7800.000
G1 X100.000 Y144.647 E15.44356 F540.000
G1 X100.868 Y144.761 E15.52315
G1 X101.677 Y145.096 E15.60275
G1 X102.371 Y145.629 E15.68234
G1 X102.904 Y146.323 E15.76193
G1 X103.239 Y147.132 E15.84152
G1 X103.353 Y148.000 E15.92111
G1 X103.239 Y148.868 E16.00071
G1 X102.904 Y149.677 E16.08030
G1 X102.371 Y150.371 E16.15989
G1 X101.677 Y150.904 E16.23948
G1 X100.868 Y151.239 E16.31907
G1 X100.000 Y151.353 E16.39867
G1 X99.132 Y151.239 E16.47826
G1 X98.323 Y150.904 E16.55785
G1 X97.629 Y150.371 E16.63744
G1 X97.096 Y149.677 E16.71703
G1 X96.761 Y148.868 E16.79663
G1 X96.647 Y148.000 E16.87622
G1 X96.659 Y147.909 E16.88456
G1 X96.761 Y147.132 E16.95581
G1 X97.096 Y146.323 E17.03540
G1 X97.629 Y145.629 E17.11499
G1 X98.323 Y145.096 E17.19459
G1 X99.046 Y144.797 E17.26565
G1 X99.320 Y144.165 F7800.000
G1 X105.645 Y147.073 F7800.000
G1 X105.940 Y146.690 E17.30964 F540.000
G1 X105.994 Y146.648 E17.31591
G1 X106.323 Y146.395 E17.35363
G1 X106.770 Y146.210 E17.39761
G1 X107.250 Y146.147 E17.44160
G1 X107.730 Y146.210 E17.48558
G1 X108.177 Y146.395 E17.52957
G1 X108.560 Y146.690 E17.57356
G1 X108.602 Y146.744 E17.57982
G1 X108.855 Y147.073 E17.61754
G1 X109.040 Y147.520 E17.66153
G1 X109.103 Y148.000 E17.70551
G1 X109.040 Y148.480 E17.74950
G1 X108.855 Y148.927 E17.79349
G1 X108.560 Y149.310 E17.83747
G1 X108.177 Y149.605 E17.88146
G1 X107.730 Y149.790 E17.92544
G1 X107.250 Y149.853 E17.96943
G1 X106.770 Y149.790 E18.01341
G1 X106.323 Y149.605 E18.05740
G1 X105.940 Y149.310 E18.10139
G1 X105.898 Y149.256 E18.10765
G1 X105.645 Y148.927 E18.14537
G1 X105.460 Y148.480 E18.18936
G1 X105.397 Y148.000 E18.23334
G1 X105.460 Y147.520 E18.27733
G1 X105.609 Y147.160 E18.31279
G1 X105.422 Y146.644 F7800.000
G1 X108.741 Y145.808 F7800.000
G1 X109.453 Y150.171 F7800.000
G1 X121.701 Y153.453 E19.46579 F378.000
G1 X119.336 Y159.164 E20.02788
G1 X115.788 Y163.788 E20.55787
G1 X111.164 Y167.336 E21.08786
G1 X105.453 Y169.701 E21.64994
G1 X102.171 Y157.453 E22.80295
G1 X104.823 Y156.355 E23.06404
G1 X106.821 Y154.821 E23.29303
G1 X108.355 Y152.823 E23.52203
G1 X109.417 Y150.257 E23.77460
G1 X109.641 Y149.575 F7800.000
G1 X108.846 Y150.004 F7800.000
G1 X107.809 Y152.508 E24.02110 F540.000
G1 X106.376 Y154.376 E24.23513
G1 X104.508 Y155.809 E24.44917
G1 X102.004 Y156.846 E24.69567
G1 X102.399 Y155.893 E24.78950
G1 X102.483 Y155.250 E24.84845
G1 X102.399 Y154.607 E24.90740
G1 X102.151 Y154.008 E24.96635
G1 X101.756 Y153.494 E25.02529
G1 X101.242 Y153.099 E25.08424
G1 X101.102 Y153.042 E25.09799
G1 X100.643 Y152.851 E25.14318
G1 X100.000 Y152.767 E25.20213
G1 X99.357 Y152.851 E25.26108
G1 X98.758 Y153.099 E25.32003
G1 X98.244 Y153.494 E25.37897
G1 X97.849 Y154.008 E25.43792
G1 X97.601 Y154.607 E25.49687
G1 X97.517 Y155.250 E25.55582
G1 X97.601 Y155.893 E25.61477
G1 X97.996 Y156.846 E25.70860
G1 X95.492 Y155.809 E25.95510
G1 X93.624 Y154.376 E26.16913
G1 X92.191 Y152.508 E26.38317
G1 X91.154 Y150.004 E26.62967
G1 X92.107 Y150.399 E26.72350
G1 X92.750 Y150.483 E26.78245
G1 X93.393 Y150.399 E26.84140
G1 X93.992 Y150.151 E26.90035
G1 X94.506 Y149.756 E26.95929
G1 X94.901 Y149.242 E27.01824
G1 X95.149 Y148.643 E27.07718
G1 X95.233 Y148.000 E27.13613
G1 X95.149 Y147.357 E27.19508
G1 X94.901 Y146.758 E27.25403
G1 X94.506 Y146.244 E27.31297
G1 X94.386 Y146.152 E27.32672
G1 X93.992 Y145.849 E27.37192
G1 X93.393 Y145.601 E27.43087
G1 X92.750 Y145.517 E27.48982
G1 X92.107 Y145.601 E27.54877
G1 X91.154 Y145.996 E27.64260
G1 X92.191 Y143.492 E27.88910
G1 X93.624 Y141.624 E28.10313
G1 X95.492 Y140.191 E28.31717
G1 X97.996 Y139.154 E28.56367
G1 X97.601 Y140.107 E28.65750
G1 X97.517 Y140.750 E28.71645
G1 X97.601 Y141.393 E28.77540
G1 X97.849 Y141.992 E28.83434
G1 X98.244 Y142.506 E28.89329
G1 X98.758 Y142.901 E28.95224
G1 X99.357 Y143.149 E29.01118
G1 X100.000 Y143.233 E29.07013
G1 X100.643 Y143.149 E29.12908
G1 X101.242 Y142.901 E29.18803
G1 X101.756 Y142.506 E29.24697
G1 X102.151 Y141.992 E29.30592
G1 X102.399 Y141.393 E29.36487
G1 X102.483 Y140.750 E29.42381
G1 X102.399 Y140.107 E29.48276
G1 X102.004 Y139.154 E29.57660
G1 X104.508 Y140.191 E29.82310
G1 X106.376 Y141.624 E30.03713
G1 X107.809 Y143.492 E30.25117
G1 X108.846 Y145.996 E30.49767
G1 X107.893 Y145.601 E30.59150
G1 X107.250 Y145.517 E30.65045
G1 X106.607 Y145.601 E30.70940
G1 X106.148 Y145.792 E30.75460
G1 X106.008 Y145.849 E30.76835
G1 X105.494 Y146.244 E30.82729
G1 X105.099 Y146.758 E30.88624
G1 X104.851 Y147.357 E30.94519
G1 X104.786 Y147.850 E30.99039
G1 X104.767 Y148.000 E31.00413
G1 X104.851 Y148.643 E31.06308
G1 X105.099 Y149.242 E31.12203
G1 X105.494 Y149.756 E31.18097
G1 X106.008 Y150.151 E31.23992
G1 X106.607 Y150.399 E31.29887
G1 X107.250 Y150.483 E31.35781
G1 X107.893 Y150.399 E31.41677
G1 X108.760 Y150.040 E31.50207
G1 X123.480 Y152.079 F7800.000
G1 X123.198 Y154.216 E31.69810 F540.000
G1 X120.799 Y160.008 E32.26820
G1 X116.982 Y164.982 E32.83829
G1 X112.008 Y168.799 E33.40839
G1 X106.216 Y171.198 E33.97848
G1 X100.000 Y172.017 E34.54857
G1 X93.784 Y171.198 E35.11867
G1 X87.992 Y168.799 E35.68876
G1 X86.501 Y167.655 E35.85958
G1 X83.018 Y164.982 E36.25885
G1 X79.201 Y160.008 E36.82895
G1 X76.802 Y154.216 E37.39904
G1 X76.265 Y150.137 E37.77310
G1 X75.983 Y148.000 E37.96913
G1 X76.802 Y141.784 E38.53923
G1 X79.201 Y135.992 E39.10932
G1 X81.320 Y133.231 E39.42577
G1 X83.018 Y131.018 E39.67942
G1 X87.992 Y127.201 E40.24951
G1 X93.784 Y124.802 E40.81960
G1 X95.921 Y124.520 E41.01563
G1 X100.000 Y123.983 E41.38970
G1 X106.216 Y124.802 E41.95979
G1 X112.008 Y127.201 E42.52988
G1 X116.982 Y131.018 E43.09998
G1 X120.799 Y135.992 E43.67007
G1 X123.198 Y141.784 E44.24016
G1 X124.017 Y148.000 E44.81026
G1 X123.492 Y151.986 E45.17580
G1 X124.099 Y152.160 F7800.000
G1 X123.807 Y154.379 E45.37931 F378.000
G1 X121.345 Y160.323 E45.96436
G1 X117.428 Y165.428 E46.54942
G1 X112.323 Y169.345 E47.13447
G1 X106.379 Y171.807 E47.71953
G1 X100.000 Y172.647 E48.30458
G1 X93.621 Y171.807 E48.88964
G1 X87.677 Y169.345 E49.47469
G1 X86.404 Y168.368 E49.62059
G1 X82.572 Y165.428 E50.05975
G1 X78.655 Y160.323 E50.64480
G1 X76.193 Y154.379 E51.22986
G1 X75.645 Y150.219 E51.61140
G1 X75.353 Y148.000 E51.81491
G1 X76.193 Y141.621 E52.39997
G1 X78.655 Y135.677 E52.98502
G1 X81.209 Y132.348 E53.36656
G1 X82.572 Y130.572 E53.57008
G1 X87.677 Y126.655 E54.15513
G1 X93.621 Y124.193 E54.74019
