; generated by Slic3r 1.1.7 on 2014-09-18 at 18:22:21

; perimeters extrusion width = 0.35mm
; infill extrusion width = 0.39mm
; solid infill extrusion width = 0.39mm
; top infill extrusion width = 0.39mm

G21 ; set units to millimeters
M107
M84 S0 ; don't let go of motors
M108 S155 ; make sure extruder and electronics fans are running
M140 S70
M104 S210
G28 X0 Y0; home X and Y
G1 F10800 ; set high speed
G1 Y20 ; move into the platform along Y
G1 X205 ; move off the platform end along X
G28 Z0 ; home Z now - blobs won't hit the platform
G1 F400
G1 Z10 ; lift Z a little
M190 S70
M109 S210 ; wait for temperature to be reached
G28 Z0 ; home Z
G92 E0 ; reset extruder position to 0
G1 F300 ; set suitable speed
G1 E25 ; extrude 25mm
G92 E0 ; reset extruder position to 0 - needed for cura/SF
G1 F10800 ; set wipe speed
G1 X0 ; wipe nozzle and move to X0
G90 ; use absolute coordinates
G92 E0
M82 ; use absolute distances for extrusion
G1 F1800.000 E-4.50000
G92 E0
G1 Z0.350 F7800.000
G1 X29.323 Y64.348 F7800.000
G1 E4.50000 F1800.000
G1 X35.352 Y61.851 E5.09343 F1080.000
G1 X37.023 Y61.403 E5.25069
G1 X39.288 Y61.105 E5.45839
G1 X44.344 Y60.495 E5.92150
G1 X100.000 Y60.375 E10.98229
G1 X156.865 Y60.432 E16.15298
G1 X163.335 Y61.284 E16.74641 F1080.000
G1 X165.006 Y61.731 E16.90367
G1 X171.035 Y64.229 E17.49710
G1 X172.533 Y65.093 E17.65436
G1 X177.711 Y69.066 E18.24780
G1 X178.934 Y70.289 E18.40505
G1 X182.907 Y75.467 E18.99849
G1 X183.771 Y76.965 E19.15575
G1 X186.269 Y82.994 E19.74918
G1 X186.716 Y84.665 E19.90644
G1 X187.625 Y92.000 E20.57852
G1 X187.568 Y148.865 E25.74921
G1 X186.716 Y155.335 E26.34264
G1 X186.269 Y157.006 E26.49990
G1 X183.771 Y163.035 E27.09334
G1 X182.907 Y164.533 E27.25059
G1 X180.324 Y167.898 E27.63633
G1 X178.934 Y169.711 E27.84403
G1 X177.711 Y170.934 E28.00128
G1 X172.533 Y174.907 E28.59472
G1 X171.035 Y175.771 E28.75198
G1 X165.006 Y178.269 E29.34541
G1 X163.335 Y178.716 E29.50267
G1 X161.071 Y179.015 E29.71037
G1 X156.000 Y179.625 E30.17476
G1 X43.135 Y179.568 E40.43750
G1 X36.665 Y178.716 E41.03094
G1 X34.994 Y178.269 E41.18820
G1 X32.884 Y177.395 E41.39590
G1 X28.965 Y175.771 E41.78163
G1 X27.467 Y174.907 E41.93889
G1 X22.289 Y170.934 E42.53232
G1 X21.066 Y169.711 E42.68958
G1 X17.093 Y164.533 E43.28302
G1 X16.229 Y163.035 E43.44027
G1 X13.731 Y157.006 E44.03371
G1 X13.284 Y155.335 E44.19096
G1 X12.730 Y151.129 E44.57670
G1 X12.375 Y147.958 E44.86691
G1 X12.790 Y91.255 E50.02301
G1 X13.642 Y84.784 E50.61645
G1 X14.089 Y83.114 E50.77371
G1 X16.587 Y77.084 E51.36714
G1 X17.452 Y75.586 E51.52440
G1 X21.425 Y70.409 E52.11783
G1 X22.648 Y69.186 E52.27509
G1 X27.825 Y65.213 E52.86853
G1 X29.278 Y64.374 E53.02101
G1 F1800.000 E48.52101
G92 E0
G1 X101.483 Y157.301 F7800.000
G1 E4.50000 F1800.000
G1 X100.643 Y157.649 E4.58269 F540.000
G1 X100.000 Y157.733 E4.64163
G1 X99.357 Y157.649 E4.70058
G1 X98.517 Y157.301 E4.78326
G1 X94.967 Y170.551 E6.03065
G1 X88.521 Y167.882 E6.66501
G1 X83.767 Y164.233 E7.20996
G1 X80.118 Y159.479 E7.75491
G1 X77.449 Y153.033 E8.38927
G1 X90.699 Y149.483 E9.63666
G1 X90.351 Y148.643 E9.71935
G1 X90.267 Y148.000 E9.77829
G1 X90.351 Y147.357 E9.83724
G1 X90.699 Y146.517 E9.91992
G1 X77.449 Y142.967 E11.16731
G1 X80.118 Y136.521 E11.80167
G1 X83.767 Y131.767 E12.34662
G1 X88.521 Y128.118 E12.89157
G1 X94.967 Y125.449 E13.52593
G1 X98.517 Y138.699 E14.77332
G1 X99.357 Y138.351 E14.85600
G1 X100.000 Y138.267 E14.91495
G1 X100.643 Y138.351 E14.97390
G1 X101.483 Y138.699 E15.05659
G1 X105.033 Y125.449 E16.30398
G1 X111.479 Y128.118 E16.93834
G1 X116.233 Y131.767 E17.48329
G1 X119.882 Y136.521 E18.02824
G1 X122.551 Y142.967 E18.66260
G1 X109.301 Y146.517 E19.90999
G1 X109.649 Y147.357 E19.99267
G1 X109.733 Y148.000 E20.05162
G1 X109.649 Y148.643 E20.11056
G1 X109.301 Y149.483 E20.19325
G1 X122.551 Y153.033 E21.44064
G1 X119.882 Y159.479 E22.07500
G1 X116.233 Y164.233 E22.61995
G1 X111.479 Y167.882 E23.16490
G1 X105.033 Y170.551 E23.79926
G1 X101.496 Y157.351 E25.04187
G1 F1800.000 E20.54187
G92 E0
G1 X90.547 Y145.829 F7800.000
G1 E4.50000 F1800.000
G1 X78.299 Y142.547 E5.65300 F378.000
G1 X80.664 Y136.836 E6.21509
G1 X84.212 Y132.212 E6.74508
G1 X88.836 Y128.664 E7.27506
G1 X94.547 Y126.299 E7.83715
G1 X97.829 Y138.547 E8.99015
G1 X95.177 Y139.645 E9.25125
G1 X93.179 Y141.179 E9.48024
G1 X91.645 Y143.177 E9.70924
G1 X90.567 Y145.781 E9.96556
G1 X90.310 Y145.571 F7800.000
G1 F1800.000 E5.46556
G92 E0
G1 X98.690 Y153.940 F7800.000
G1 E4.50000 F1800.000
G1 X99.073 Y153.645 E4.54399 F378.000
G1 X99.520 Y153.460 E4.58797
G1 X99.932 Y153.406 E4.62569
G1 X100.000 Y153.397 E4.63196 F378.000
G1 X100.480 Y153.460 E4.67594
G1 X100.927 Y153.645 E4.71993
G1 X101.310 Y153.940 E4.76391
G1 X101.352 Y153.994 E4.77018
G1 X101.605 Y154.323 E4.80790
G1 X101.790 Y154.770 E4.85189
G1 X101.853 Y155.250 E4.89587
G1 X101.790 Y155.730 E4.93986
G1 X101.605 Y156.177 E4.98385
G1 X101.310 Y156.560 E5.02783
G1 X100.927 Y156.855 E5.07182
G1 X100.480 Y157.040 E5.11580
G1 X100.000 Y157.103 E5.15979
G1 X99.520 Y157.040 E5.20377
G1 X99.073 Y156.855 E5.24776
G1 X98.690 Y156.560 E5.29174
G1 X98.395 Y156.177 E5.33573
G1 X98.210 Y155.730 E5.37972
G1 X98.147 Y155.250 E5.42370
G1 X98.210 Y154.770 E5.46769
G1 X98.395 Y154.323 E5.51167
G1 X98.658 Y153.981 E5.55089
G1 X99.981 Y153.454 F7800.000
G1 F1800.000 E1.05089
G92 E0
G1 X102.171 Y157.453 F7800.000
G1 E4.50000 F1800.000
G1 X104.823 Y156.355 E4.76109 F378.000
G1 X106.821 Y154.821 E4.99009
G1 X108.355 Y152.823 E5.21908
G1 X109.453 Y150.171 E5.48018
G1 X121.701 Y153.453 E6.63318
G1 X119.336 Y159.164 E7.19527
G1 X115.788 Y163.788 E7.72525
G1 X111.164 Y167.336 E8.25524
G1 X105.453 Y169.701 E8.81733
G1 X102.184 Y157.504 E9.96556
G1 X102.515 Y157.514 F7800.000
G1 X106.324 Y149.605 F7800.000
G1 X105.940 Y149.310 E10.00954 F378.000
G1 X105.645 Y148.927 E10.05353
G1 X105.619 Y148.863 E10.05979
G1 X105.460 Y148.480 E10.09751
G1 X105.397 Y148.000 E10.14150
G1 X105.460 Y147.520 E10.18548
G1 X105.645 Y147.073 E10.22947
G1 X105.940 Y146.690 E10.27346
G1 X106.323 Y146.395 E10.31744
G1 X106.770 Y146.210 E10.36143
G1 X106.839 Y146.201 E10.36769
G1 X107.250 Y146.147 E10.40541 F378.000
G1 X107.730 Y146.210 E10.44940
G1 X108.177 Y146.395 E10.49339
G1 X108.560 Y146.690 E10.53737
G1 X108.855 Y147.073 E10.58136
G1 X109.040 Y147.520 E10.62534
G1 X109.103 Y148.000 E10.66933
G1 X109.040 Y148.480 E10.71332
G1 X108.855 Y148.927 E10.75730
G1 X108.560 Y149.310 E10.80129
G1 X108.176 Y149.605 E10.84527
G1 X107.730 Y149.790 E10.88926
G1 X107.250 Y149.853 E10.93324
G1 X106.770 Y149.790 E10.97723
G1 X106.372 Y149.625 E11.01644
G1 F1800.000 E6.51644
G92 E0
G1 X107.155 Y146.351 F7800.000
G1 X109.453 Y145.829 F7800.000
G1 E4.50000 F1800.000
G1 X108.355 Y143.177 E4.76109 F378.000
G1 X106.821 Y141.179 E4.99009
G1 X104.823 Y139.645 E5.21908
G1 X102.171 Y138.547 E5.48018
G1 X105.453 Y126.299 E6.63318
G1 X111.164 Y128.664 E7.19527
G1 X115.788 Y132.212 E7.72525
G1 X119.336 Y136.836 E8.25524
G1 X121.701 Y142.547 E8.81733
G1 X109.504 Y145.816 E9.96556
G1 X109.514 Y145.485 F7800.000
G1 X101.605 Y141.677 F7800.000
G1 X101.310 Y142.060 E10.00954 F378.000
G1 X100.927 Y142.355 E10.05352
G1 X100.480 Y142.540 E10.09751
G1 X100.000 Y142.603 E10.14150
G1 X99.520 Y142.540 E10.18549
G1 X99.074 Y142.355 E10.22947
G1 X98.690 Y142.060 E10.27345
G1 X98.395 Y141.677 E10.31744
G1 X98.210 Y141.230 E10.36143
G1 X98.147 Y140.750 E10.40541
G1 X98.210 Y140.270 E10.44940
G1 X98.395 Y139.823 E10.49339
G1 X98.690 Y139.440 E10.53737
G1 X99.073 Y139.145 E10.58136
G1 X99.520 Y138.960 E10.62534
G1 X99.932 Y138.906 E10.66306
G1 X100.000 Y138.897 E10.66933 F378.000
G1 X100.480 Y138.960 E10.71332
G1 X100.927 Y139.145 E10.75730
G1 X101.310 Y139.440 E10.80128
G1 X101.605 Y139.823 E10.84527
G1 X101.790 Y140.270 E10.88926
G1 X101.853 Y140.750 E10.93324
G1 X101.790 Y141.230 E10.97723
G1 X101.625 Y141.628 E11.01644
G1 F1800.000 E6.51644
G92 E0
G1 X99.999 Y138.920 F7800.000
G1 X100.868 Y144.761 F7800.000
G1 E4.50000 F1800.000
G1 X101.676 Y145.096 E4.57959 F378.000
G1 X102.371 Y145.629 E4.65918
G1 X102.427 Y145.702 E4.66753
G1 X102.904 Y146.323 E4.73878
G1 X103.239 Y147.132 E4.81837
G1 X103.353 Y148.000 E4.89796
G1 X103.239 Y148.868 E4.97755
G1 X103.204 Y148.953 E4.98590
G1 X102.904 Y149.677 E5.05714
G1 X102.371 Y150.371 E5.13674
G1 X101.677 Y150.904 E5.21633
G1 X100.868 Y151.239 E5.29592
G1 X100.000 Y151.353 E5.37551
G1 X99.132 Y151.239 E5.45510
G1 X98.323 Y150.904 E5.53470
G1 X97.629 Y150.371 E5.61429
G1 X97.096 Y149.677 E5.69388
G1 X96.761 Y148.868 E5.77347
G1 X96.647 Y148.000 E5.85306
G1 X96.700 Y147.600 E5.88972
G1 X96.567 Y147.600 E5.90175
G1 X97.096 Y146.323 E6.02742
G1 X97.629 Y145.629 E6.10701
G1 X98.323 Y145.096 E6.18660
G1 X99.132 Y144.761 E6.26619
G1 X99.909 Y144.659 E6.33744
G1 X100.000 Y144.647 E6.34578 F378.000
G1 X100.816 Y144.754 E6.42060
G1 X99.874 Y144.744 F7800.000
G1 F1800.000 E1.92060
G92 E0
G1 X94.491 Y147.403 F7800.000
G1 E4.50000 F1800.000
G1 X94.540 Y147.520 E4.51160 F378.000
G1 X94.603 Y148.000 E4.55558
G1 X94.540 Y148.480 E4.59957
G1 X94.355 Y148.927 E4.64355
G1 X94.060 Y149.310 E4.68754
G1 X93.677 Y149.605 E4.73153
G1 X93.230 Y149.790 E4.77551
G1 X92.750 Y149.853 E4.81950
G1 X92.270 Y149.790 E4.86348
G1 X91.823 Y149.605 E4.90747
G1 X91.440 Y149.310 E4.95145
G1 X91.145 Y148.927 E4.99544
G1 X90.960 Y148.480 E5.03943
G1 X90.906 Y148.068 E5.07715
G1 X90.897 Y148.000 E5.08341
G1 X90.960 Y147.520 E5.12740
G1 X91.145 Y147.073 E5.17138
G1 X91.440 Y146.690 E5.21537
G1 X91.823 Y146.395 E5.25935
G1 X92.270 Y146.210 E5.30334
G1 X92.339 Y146.201 E5.30961
G1 X92.750 Y146.147 E5.34733 F378.000
G1 X93.230 Y146.210 E5.39131
G1 X93.677 Y146.395 E5.43530
G1 X94.060 Y146.690 E5.47928
G1 X94.355 Y147.073 E5.52327
G1 X94.471 Y147.354 E5.55089
G1 F1800.000 E1.05089
G92 E0
G1 X92.688 Y146.218 F7800.000
G1 X90.547 Y150.171 F7800.000
G1 E4.50000 F1800.000
G1 X91.645 Y152.823 E4.76109 F378.000
G1 X93.179 Y154.821 E4.99009
G1 X95.177 Y156.355 E5.21908
G1 X97.829 Y157.453 E5.48018
G1 X94.547 Y169.701 E6.63318
G1 X88.836 Y167.336 E7.19526
G1 X84.212 Y163.788 E7.72525
G1 X80.664 Y159.164 E8.25524
G1 X78.299 Y153.453 E8.81733
G1 X90.496 Y150.184 E9.96556
G1 X90.876 Y150.051 F7800.000
G1 X91.154 Y150.004 F7800.000
G1 X92.107 Y150.399 E10.05939 F540.000
G1 X92.750 Y150.483 E10.11834
G1 X93.393 Y150.399 E10.17728
G1 X93.992 Y150.151 E10.23623
G1 X94.506 Y149.756 E10.29518
G1 X94.901 Y149.242 E10.35412
G1 X95.149 Y148.643 E10.41307
G1 X95.204 Y148.225 E10.45136
G1 X96.046 Y148.225 E10.52799
G1 X96.152 Y149.031 E10.60189
G1 X96.550 Y149.992 E10.69644
G1 X97.183 Y150.817 E10.79099
G1 X98.008 Y151.450 E10.88554
G1 X98.969 Y151.848 E10.98010
G1 X100.000 Y151.983 E11.07465
G1 X101.031 Y151.848 E11.16921
G1 X101.992 Y151.450 E11.26376
G1 X102.817 Y150.817 E11.35831
G1 X103.450 Y149.992 E11.45286
G1 X103.848 Y149.031 E11.54742
G1 X103.983 Y148.000 E11.64197
G1 X103.848 Y146.969 E11.73652
G1 X103.516 Y146.169 E11.81525
G1 X103.450 Y146.008 E11.83108
G1 X102.817 Y145.183 E11.92564
G1 X101.992 Y144.550 E12.02019
G1 X101.031 Y144.152 E12.11474
G1 X100.000 Y144.017 E12.20929
G1 X98.969 Y144.152 E12.30384
G1 X98.008 Y144.550 E12.39839
G1 X97.183 Y145.183 E12.49295
G1 X96.550 Y146.008 E12.58750
G1 X95.636 Y148.217 E12.80487
G1 X95.255 Y148.167 E12.83975
G1 X95.149 Y147.357 E12.91399
G1 X94.901 Y146.758 E12.97294
G1 X94.506 Y146.244 E13.03189
G1 X93.992 Y145.849 E13.09083
G1 X93.393 Y145.601 E13.14977
G1 X92.750 Y145.517 E13.20872
G1 X92.107 Y145.601 E13.26767
G1 X91.154 Y145.996 E13.36150
G1 X92.191 Y143.492 E13.60801
G1 X93.624 Y141.624 E13.82204
G1 X95.492 Y140.191 E14.03607
G1 X97.996 Y139.154 E14.28258
G1 X97.601 Y140.107 E14.37641
G1 X97.517 Y140.750 E14.43536
G1 X97.601 Y141.393 E14.49430
G1 X97.849 Y141.992 E14.55325
G1 X98.152 Y142.386 E14.59845
G1 X98.244 Y142.506 E14.61220
G1 X98.758 Y142.901 E14.67115
G1 X99.357 Y143.149 E14.73009
G1 X100.000 Y143.233 E14.78904
G1 X100.493 Y143.168 E14.83424
G1 X100.643 Y143.149 E14.84799
G1 X101.242 Y142.901 E14.90694
G1 X101.756 Y142.506 E14.96588
G1 X102.151 Y141.992 E15.02483
G1 X102.341 Y141.532 E15.07003
G1 X102.399 Y141.393 E15.08378
G1 X102.483 Y140.750 E15.14272
G1 X102.399 Y140.107 E15.20167
G1 X102.004 Y139.154 E15.29550
G1 X104.508 Y140.191 E15.54201
G1 X106.376 Y141.624 E15.75604
G1 X107.809 Y143.492 E15.97007
G1 X108.846 Y145.996 E16.21658
G1 X107.893 Y145.601 E16.31041
G1 X107.250 Y145.517 E16.36936
G1 X106.607 Y145.601 E16.42831
G1 X106.008 Y145.849 E16.48725
G1 X105.494 Y146.244 E16.54619
G1 X105.099 Y146.758 E16.60514
G1 X104.851 Y147.357 E16.66409
G1 X104.767 Y148.000 E16.72304
G1 X104.786 Y148.150 E16.73678
G1 X104.851 Y148.643 E16.78199
G1 X105.099 Y149.242 E16.84093
G1 X105.494 Y149.756 E16.89988
G1 X106.008 Y150.151 E16.95883
G1 X106.468 Y150.341 E17.00403
G1 X106.607 Y150.399 E17.01778
G1 X107.250 Y150.483 E17.07672
G1 X107.893 Y150.399 E17.13567
G1 X108.846 Y150.004 E17.22950
G1 X107.809 Y152.508 E17.47601
G1 X106.376 Y154.376 E17.69004
G1 X104.508 Y155.809 E17.90407
G1 X102.004 Y156.846 E18.15058
G1 X102.399 Y155.893 E18.24441
G1 X102.483 Y155.250 E18.30336
G1 X102.399 Y154.607 E18.36230
G1 X102.151 Y154.008 E18.42125
G1 X101.848 Y153.614 E18.46645
G1 X101.756 Y153.494 E18.48020
G1 X101.242 Y153.099 E18.53915
G1 X100.643 Y152.851 E18.59810
G1 X100.000 Y152.767 E18.65704
G1 X99.357 Y152.851 E18.71598
G1 X98.758 Y153.099 E18.77493
G1 X98.244 Y153.494 E18.83388
G1 X97.849 Y154.008 E18.89283
G1 X97.601 Y154.607 E18.95177
G1 X97.517 Y155.250 E19.01072
G1 X97.601 Y155.893 E19.06967
G1 X97.996 Y156.846 E19.16350
G1 X95.492 Y155.809 E19.41001
G1 X93.624 Y154.376 E19.62404
G1 X92.191 Y152.508 E19.83807
G1 X91.174 Y150.052 E20.07980
G1 X76.501 Y151.933 F7800.000
G1 X75.983 Y148.000 E20.44050 F540.000
G1 X76.802 Y141.784 E21.01059
G1 X79.201 Y135.992 E21.58069
G1 X83.018 Y131.018 E22.15078
G1 X87.992 Y127.201 E22.72087
G1 X93.784 Y124.802 E23.29097
G1 X96.204 Y124.483 E23.51292
G1 X100.000 Y123.983 E23.86106 F540.000
G1 X106.216 Y124.802 E24.43115
G1 X112.008 Y127.201 E25.00125
G1 X116.982 Y131.018 E25.57134
G1 X120.799 Y135.992 E26.14144
G1 X123.198 Y141.784 E26.71153
G1 X124.017 Y148.000 E27.28162
G1 X123.198 Y154.216 E27.85172
G1 X120.799 Y160.008 E28.42181
G1 X116.982 Y164.982 E28.99190
G1 X115.272 Y166.295 E29.18794
G1 X112.008 Y168.799 E29.56200
G1 X106.216 Y171.198 E30.13209
G1 X100.000 Y172.017 E30.70218
G1 X93.784 Y171.198 E31.27228
G1 X87.992 Y168.799 E31.84237
G1 X83.018 Y164.982 E32.41247
G1 X79.201 Y160.008 E32.98256
G1 X76.802 Y154.216 E33.55265
G1 X76.508 Y151.985 E33.75727
G1 X75.882 Y152.014 F7800.000
G1 X75.353 Y148.000 E34.12545 F378.000
G1 X76.193 Y141.621 E34.71051
G1 X78.655 Y135.677 E35.29556
G1 X82.572 Y130.572 E35.88062
G1 X87.677 Y126.655 E36.46567
G1 X93.621 Y124.193 E37.05073
G1 X100.000 Y123.353 E37.63578
G1 X102.219 Y123.645 E37.83929
G1 X106.379 Y124.193 E38.22084 F378.000
G1 X112.323 Y126.655 E38.80589
G1 X117.428 Y130.572 E39.39095
G1 X121.345 Y135.677 E39.97600
G1 X123.807 Y141.621 E40.56106
G1 X124.647 Y148.000 E41.14611
G1 X123.807 Y154.379 E41.73117
G1 X121.345 Y160.323 E42.31622
G1 X117.428 Y165.428 E42.90127
G1 X112.323 Y169.345 E43.48633
G1 X106.379 Y171.807 E44.07138
G1 X100.000 Y172.647 E44.65644
G1 X93.621 Y171.807 E45.24149
G1 X87.677 Y169.345 E45.82655
G1 X82.572 Y165.428 E46.41160
G1 X78.655 Y160.323 E46.99666
G1 X76.193 Y154.379 E47.58171
G1 X75.888 Y152.066 E47.79381
G1 F1800.000 E43.29381
G92 E0
G1 X102.451 Y123.907 F7800.000
G1 X101.164 Y157.902 F7800.000
G1 E4.50000 F1800.000
G1 X101.207 Y157.945 E4.50561 F1080.000
G1 X100.471 Y158.108 E4.57415
G1 X101.536 Y159.173 E4.71112
G1 X101.865 Y160.401 E4.82671
G1 X99.579 Y158.115 E5.12073
G1 X98.733 Y158.168 E5.19778
G1 X102.194 Y161.629 E5.64287
G1 X102.523 Y162.857 E5.75846
G1 X98.543 Y158.877 E6.27028
G1 X98.353 Y159.586 E6.33702
G1 X102.852 Y164.085 E6.91558
G1 X103.181 Y165.313 E7.03117
G1 X98.163 Y160.295 E7.67646
G1 X97.973 Y161.004 E7.74320
G1 X103.510 Y166.541 E8.45523
G1 X103.839 Y167.769 E8.57083
G1 X97.783 Y161.712 E9.34960
G1 X97.593 Y162.421 E9.41634
G1 X104.168 Y168.996 E10.26184
