; generated by Slic3r 1.1.7 on 2014-09-08 at 11:27:10

; perimeters extrusion width = 0.35mm
; infill extrusion width = 0.39mm
; solid infill extrusion width = 0.39mm
; top infill extrusion width = 0.39mm

G21 ; set units to millimeters
M107
M84 S0 ; don't let go of motors
M108 S155 ; make sure extruder and electronics fans are running
M140 S70
M104 S210
G28 X0 Y0; home X and Y
G1 F10800 ; set high speed
G1 Y20 ; move into the platform along Y
G1 X205 ; move off the platform end along X
G28 Z0 ; home Z now - blobs won't hit the platform
G1 F400
G1 Z10 ; lift Z a little
M190 S70
M109 S210 ; wait for temperature to be reached
G28 Z0 ; home Z
G92 E0 ; reset extruder position to 0
G1 F300 ; set suitable speed
G1 E25 ; extrude 25mm
G92 E0 ; reset extruder position to 0 - needed for cura/SF
G1 F10800 ; set wipe speed
G1 X0 ; wipe nozzle and move to X0
G90 ; use absolute coordinates
G92 E0
M82 ; use absolute distances for extrusion
G1 F1800.000 E-4.50000
G92 E0
G1 Z0.350 F7800.000
G1 X47.014 Y72.485 F7800.000
G1 E4.50000 F1800.000
G1 X50.299 Y71.613 E4.80902 F1080.000
G1 X148.418 Y71.613 E13.73098
G1 X150.677 Y72.010 E13.93952 F1080.000
G1 X152.665 Y73.154 E14.14806
G1 X154.144 Y74.906 E14.35660
G1 X155.039 Y78.022 E14.65136
G1 X156.625 Y126.659 E19.07630
G1 X156.625 Y128.653 E19.25756
G1 X156.433 Y130.236 E19.40254
G1 X146.851 Y169.179 E23.04928
G1 X145.926 Y171.278 E23.25782
G1 X145.102 Y172.281 E23.37582
G1 X142.102 Y175.281 E23.76161
G1 X140.224 Y176.597 E23.97015
G1 X138.144 Y177.181 E24.16665
G1 X93.284 Y182.087 E28.27009
G1 X51.284 Y182.087 E32.08913
G1 X49.025 Y181.690 E32.29768
G1 X47.037 Y180.546 E32.50622
G1 X45.557 Y178.794 E32.71476
G1 X44.660 Y175.607 E33.01584
G1 X43.375 Y116.656 E38.37746
G1 X43.375 Y114.602 E38.56426
G1 X43.674 Y78.184 E41.87583
G1 X44.089 Y75.928 E42.08438
G1 X45.249 Y73.950 E42.29292
G1 X46.973 Y72.518 E42.49669
G1 F1800.000 E37.99669
G92 E0
G1 X92.309 Y174.487 F7800.000
G1 E4.50000 F1800.000
G1 X52.258 Y174.487 E8.14175 F540.000
G1 X52.258 Y134.437 E11.78350
G1 X92.309 Y134.437 E15.42525
G1 X92.309 Y174.435 E19.06223
G1 X92.934 Y175.112 F7800.000
G1 X51.634 Y175.112 E22.81762 F378.000
G1 X51.634 Y133.812 E26.57301
G1 X92.934 Y133.812 E30.32840
G1 X92.934 Y175.059 E34.07902
G1 X92.630 Y174.937 F7800.000
G1 X52.731 Y174.054 F7800.000
G1 X52.691 Y174.014 E34.08416 F1080.000
G1 X52.691 Y173.124 E34.16506
G1 X53.621 Y174.054 E34.28461
G1 X54.511 Y174.054 E34.36550
G1 X52.691 Y172.235 E34.59945
G1 X52.691 Y171.345 E34.68034
G1 X55.400 Y174.054 E35.02869
G1 X56.290 Y174.054 E35.10959
G1 X52.691 Y170.455 E35.57234
G1 X52.691 Y169.566 E35.65324
G1 X57.180 Y174.054 E36.23039
G1 X58.069 Y174.054 E36.31129
G1 X52.691 Y168.676 E37.00284
G1 X52.691 Y167.787 E37.08374
G1 X58.959 Y174.054 E37.88970
G1 X59.849 Y174.054 E37.97059
G1 X52.691 Y166.897 E38.89095
G1 X52.691 Y166.007 E38.97185
G1 X60.738 Y174.054 E40.00661
G1 X61.628 Y174.054 E40.08751
G1 X52.691 Y165.118 E41.23667
G1 X52.691 Y164.228 E41.31757
G1 X62.518 Y174.054 E42.58114
G1 X63.407 Y174.054 E42.66203
G1 X52.691 Y163.338 E44.04000
G1 X52.691 Y162.449 E44.12090
G1 X64.297 Y174.054 E45.61327
G1 X65.186 Y174.054 E45.69417
G1 X52.691 Y161.559 E47.30094
G1 X52.691 Y160.669 E47.38184
G1 X66.076 Y174.054 E49.10301
G1 X66.966 Y174.054 E49.18391
G1 X52.691 Y159.780 E51.01949
G1 X52.691 Y158.890 E51.10038
G1 X67.855 Y174.054 E53.05037
G1 X68.745 Y174.054 E53.13126
G1 X52.691 Y158.000 E55.19564
G1 X52.691 Y157.111 E55.27654
G1 X69.635 Y174.054 E57.45533
G1 X70.524 Y174.054 E57.53622
G1 X52.691 Y156.221 E59.82941
G1 X52.691 Y155.332 E59.91030
G1 X71.414 Y174.054 E62.31790
G1 X72.304 Y174.054 E62.39879
G1 X52.691 Y154.442 E64.92078
G1 X52.691 Y153.552 E65.00168
G1 X73.193 Y174.054 E67.63808
G1 X74.083 Y174.054 E67.71897
G1 X52.691 Y152.663 E70.46977
G1 X52.691 Y151.773 E70.55066
G1 X74.973 Y174.054 E73.41586
G1 X75.862 Y174.054 E73.49676
G1 X52.691 Y150.883 E76.47636
G1 X52.691 Y149.994 E76.55726
G1 X76.752 Y174.054 E79.65126
G1 X77.641 Y174.054 E79.73216
G1 X52.691 Y149.104 E82.94056
G1 X52.691 Y148.214 E83.02146
G1 X78.531 Y174.054 E86.34427
G1 X79.421 Y174.054 E86.42516
G1 X52.691 Y147.325 E89.86237
G1 X52.691 Y146.435 E89.94327
G1 X80.310 Y174.054 E93.49488
G1 X81.200 Y174.054 E93.57578
G1 X52.691 Y145.546 E97.24179
G1 X52.691 Y144.656 E97.32269
G1 X82.090 Y174.054 E101.10311
G1 X82.979 Y174.054 E101.18400
G1 X52.691 Y143.766 E105.07882
G1 X52.691 Y142.877 E105.15972
G1 X83.869 Y174.054 E109.16894
G1 X84.759 Y174.054 E109.24984
G1 X52.691 Y141.987 E113.37346
G1 X52.691 Y141.097 E113.45436
G1 X85.648 Y174.054 E117.69239
G1 X86.538 Y174.054 E117.77328
G1 X52.691 Y140.208 E122.12571
G1 X52.691 Y139.318 E122.20660
G1 X87.427 Y174.054 E126.67344
G1 X88.317 Y174.054 E126.75433
G1 X52.691 Y138.428 E131.33557
G1 X52.691 Y137.539 E131.41646
G1 X89.207 Y174.054 E136.11210
G1 X90.096 Y174.054 E136.19299
G1 X52.691 Y136.649 E141.00303
G1 X52.691 Y135.759 E141.08393
G1 X90.986 Y174.054 E146.00837
G1 X91.856 Y174.034 E146.08747
G1 X52.711 Y134.890 E151.12117
G1 X53.581 Y134.870 E151.20026
G1 X91.876 Y173.164 E156.12470
G1 X91.876 Y172.275 E156.20560
G1 X54.471 Y134.870 E161.01564
G1 X55.360 Y134.870 E161.09653
G1 X91.876 Y171.385 E165.79217
G1 X91.876 Y170.495 E165.87306
G1 X56.250 Y134.870 E170.45430
G1 X57.140 Y134.870 E170.53519
G1 X91.876 Y169.606 E175.00203
G1 X91.876 Y168.716 E175.08292
G1 X58.029 Y134.870 E179.43535
G1 X58.919 Y134.870 E179.51624
G1 X91.876 Y167.827 E183.75427
G1 X91.876 Y166.937 E183.83517
G1 X59.809 Y134.870 E187.95879
G1 X60.698 Y134.870 E188.03969
G1 X91.876 Y166.047 E192.04891
G1 X91.876 Y165.158 E192.12980
G1 X61.588 Y134.870 E196.02463
G1 X62.478 Y134.870 E196.10552
G1 X91.876 Y164.268 E199.88594
G1 X91.876 Y163.378 E199.96683
G1 X63.367 Y134.870 E203.63285
G1 X64.257 Y134.870 E203.71374
G1 X91.876 Y162.489 E207.26536
G1 X91.876 Y161.599 E207.34625
G1 X65.146 Y134.870 E210.78347
G1 X66.036 Y134.870 E210.86436
G1 X91.876 Y160.709 E214.18717
G1 X91.876 Y159.820 E214.26806
G1 X66.926 Y134.870 E217.47647
G1 X67.815 Y134.870 E217.55737
G1 X91.876 Y158.930 E220.65137
G1 X91.876 Y158.040 E220.73227
G1 X68.705 Y134.870 E223.71187
G1 X69.595 Y134.870 E223.79276
G1 X91.876 Y157.151 E226.65796
G1 X91.876 Y156.261 E226.73886
G1 X70.484 Y134.870 E229.48966
G1 X71.374 Y134.870 E229.57055
G1 X91.876 Y155.372 E232.20695
G1 X91.876 Y154.482 E232.28784
G1 X72.264 Y134.870 E234.80984
G1 X73.153 Y134.870 E234.89073
G1 X91.876 Y153.592 E237.29832
G1 X91.876 Y152.703 E237.37922
G1 X74.043 Y134.870 E239.67241
G1 X74.932 Y134.870 E239.75330
G1 X91.876 Y151.813 E241.93209
G1 X91.876 Y150.923 E242.01298
G1 X75.822 Y134.870 E244.07737
G1 X76.712 Y134.870 E244.15826
G1 X91.876 Y150.034 E246.10824
G1 X91.876 Y149.144 E246.18914
G1 X77.601 Y134.870 E248.02472
G1 X78.491 Y134.870 E248.10561
G1 X91.876 Y148.254 E249.82679
G1 X91.876 Y147.365 E249.90769
G1 X79.381 Y134.870 E251.51446
G1 X80.270 Y134.870 E251.59536
G1 X91.876 Y146.475 E253.08773
G1 X91.876 Y145.586 E253.16862
G1 X81.160 Y134.870 E254.54660
G1 X82.050 Y134.870 E254.62749
G1 X91.876 Y144.696 E255.89106
G1 X91.876 Y143.806 E255.97195
G1 X82.939 Y134.870 E257.12112
G1 X83.829 Y134.870 E257.20201
G1 X91.876 Y142.917 E258.23678
G1 X91.876 Y142.027 E258.31767
G1 X84.719 Y134.870 E259.23804
G1 X85.608 Y134.870 E259.31893
G1 X91.876 Y141.137 E260.12489
G1 X91.876 Y140.248 E260.20578
G1 X86.498 Y134.870 E260.89734
G1 X87.387 Y134.870 E260.97824
G1 X91.876 Y139.358 E261.55539
G1 X91.876 Y138.468 E261.63629
G1 X88.277 Y134.870 E262.09904
G1 X89.167 Y134.870 E262.17993
G1 X91.876 Y137.579 E262.52828
G1 X91.876 Y136.689 E262.60918
G1 X90.056 Y134.870 E262.84313
G1 X90.946 Y134.870 E262.92402
G1 X91.876 Y135.799 E263.04357
G1 X91.876 Y134.910 E263.12446
G1 X91.836 Y134.870 E263.12961
G1 F1800.000 E258.62961
G92 E0
G1 X108.393 Y138.571 F7800.000
G1 E4.50000 F1800.000
G1 X108.393 Y137.568 E4.59119 F540.000
G1 X108.840 Y137.753 E4.63519
G1 X109.418 Y137.830 E4.68821
G1 X109.996 Y137.753 E4.74122
G1 X110.535 Y137.530 E4.79423
G1 X110.659 Y137.435 E4.80849
G1 X110.997 Y137.175 E4.84725
G1 X111.352 Y136.713 E4.90026
G1 X111.575 Y136.174 E4.95327
G1 X111.651 Y135.596 E5.00628
G1 X111.575 Y135.018 E5.05930
G1 X111.352 Y134.480 E5.11231
G1 X110.997 Y134.017 E5.16532
G1 X110.858 Y133.910 E5.18126
G1 X110.973 Y133.571 E5.21383
G1 X134.443 Y133.571 E7.34794
G1 X134.443 Y138.571 E7.80259
G1 X139.443 Y138.571 E8.25723
G1 X139.443 Y164.621 E10.62597
G1 X134.443 Y164.621 E11.08062
G1 X134.443 Y169.621 E11.53527
G1 X108.393 Y169.621 E13.90400
G1 X108.393 Y164.621 E14.35865
G1 X103.393 Y164.621 E14.81330
G1 X103.393 Y138.571 E17.18203
G1 X108.340 Y138.571 E17.63191
G1 X107.768 Y137.946 F7800.000
G1 X107.768 Y136.576 E17.75653 F378.000
G1 X108.166 Y136.576 E17.79275
G1 X108.284 Y136.730 E17.81041
G1 X108.616 Y136.985 E17.84846
G1 X109.003 Y137.145 E17.88651
G1 X109.418 Y137.199 E17.92456
G1 X109.833 Y137.145 E17.96261
G1 X110.219 Y136.985 E18.00066
G1 X110.551 Y136.730 E18.03872
G1 X110.761 Y136.457 E18.06998
G1 X110.806 Y136.398 E18.07677
G1 X110.966 Y136.011 E18.11482
G1 X111.021 Y135.596 E18.15287
G1 X110.966 Y135.181 E18.19092
G1 X110.806 Y134.795 E18.22897
G1 X110.551 Y134.463 E18.26703
G1 X110.219 Y134.208 E18.30507
G1 X109.833 Y134.048 E18.34313
G1 X109.418 Y133.993 E18.38118
G1 X109.003 Y134.048 E18.41923
G1 X108.616 Y134.208 E18.45728
G1 X108.284 Y134.463 E18.49534
G1 X108.107 Y134.694 E18.52181
G1 X107.768 Y134.579 E18.55439
G1 X107.768 Y132.946 E18.70282
G1 X135.068 Y132.946 E21.18520
G1 X135.068 Y137.946 E21.63984
G1 X140.068 Y137.946 E22.09449
G1 X140.068 Y165.246 E24.57687
G1 X135.068 Y165.246 E25.03152
G1 X135.068 Y170.246 E25.48617
G1 X107.768 Y170.246 E27.96854
G1 X107.768 Y165.246 E28.42319
G1 X102.768 Y165.246 E28.87784
G1 X102.768 Y137.946 E31.36022
G1 X107.715 Y137.946 E31.81009
G1 X108.118 Y137.946 F7800.000
G1 X133.970 Y134.004 F7800.000
G1 X134.010 Y134.044 E31.81524 F1080.000
G1 X134.010 Y134.931 E31.89585
G1 X133.083 Y134.004 E32.01501
G1 X132.197 Y134.004 E32.09562
G1 X134.010 Y135.817 E32.32879
G1 X134.010 Y136.704 E32.40941
G1 X131.310 Y134.004 E32.75658
G1 X130.424 Y134.004 E32.83720
G1 X134.010 Y137.591 E33.29839
G1 X134.010 Y138.477 E33.37900
G1 X129.537 Y134.004 E33.95420
G1 X128.650 Y134.004 E34.03482
G1 X139.010 Y144.364 E35.36699
G1 X139.010 Y143.477 E35.44761
G1 X134.537 Y139.004 E36.02281
G1 X135.424 Y139.004 E36.10342
G1 X139.010 Y142.591 E36.56461
G1 X139.010 Y141.704 E36.64523
G1 X136.310 Y139.004 E36.99240
G1 X137.197 Y139.004 E37.07302
G1 X139.010 Y140.817 E37.30618
G1 X139.010 Y139.931 E37.38680
G1 X138.083 Y139.004 E37.50595
G1 X138.970 Y139.004 E37.58657
G1 X139.010 Y139.044 E37.59172
G1 X139.010 Y145.250 F7800.000
G1 X127.764 Y134.004 E39.03790 F1080.000
G1 X126.877 Y134.004 E39.11852
G1 X139.010 Y146.137 E40.67872
G1 X139.010 Y147.024 E40.75933
G1 X125.991 Y134.004 E42.43354
G1 X125.104 Y134.004 E42.51416
G1 X139.010 Y147.910 E44.30238
G1 X139.010 Y148.797 E44.38299
G1 X124.217 Y134.004 E46.28522
G1 X123.331 Y134.004 E46.36584
G1 X139.010 Y149.683 E48.38208
G1 X139.010 Y150.570 E48.46269
G1 X122.444 Y134.004 E50.59294
G1 X121.558 Y134.004 E50.67356
G1 X139.010 Y151.456 E52.91782
G1 X139.010 Y152.343 E52.99844
G1 X120.671 Y134.004 E55.35671
G1 X119.785 Y134.004 E55.43733
G1 X139.010 Y153.230 E57.90961
G1 X139.010 Y154.116 E57.99022
G1 X118.898 Y134.004 E60.57651
G1 X118.011 Y134.004 E60.65713
G1 X139.010 Y155.003 E63.35743
G1 X139.010 Y155.889 E63.43805
G1 X117.125 Y134.004 E66.25236
G1 X116.238 Y134.004 E66.33298
G1 X139.010 Y156.776 E69.26130
G1 X139.010 Y157.663 E69.34192
G1 X115.352 Y134.004 E72.38425
G1 X114.465 Y134.004 E72.46487
G1 X139.010 Y158.549 E75.62121
G1 X139.010 Y159.436 E75.70183
G1 X113.578 Y134.004 E78.97218
G1 X112.692 Y134.004 E79.05280
G1 X139.010 Y160.322 E82.43717
G1 X139.010 Y161.209 E82.51778
G1 X111.805 Y134.004 E86.01616
G1 X112.024 Y135.109 E86.11861
G1 X139.010 Y162.096 E89.58886
G1 X139.010 Y162.982 E89.66948
G1 X112.034 Y136.006 E93.13843
G1 X111.830 Y136.689 E93.20324
G1 X139.010 Y163.869 E96.69835
G1 X138.443 Y164.188 E96.75754
G1 X111.494 Y137.239 E100.22302
G1 X111.049 Y137.681 E100.28003
G1 X137.556 Y164.188 E103.68868
G1 X136.670 Y164.188 E103.76930
G1 X110.496 Y138.015 E107.13504
G1 X109.810 Y138.215 E107.20007
G1 X135.783 Y164.188 E110.54012
G1 X134.897 Y164.188 E110.62074
G1 X108.907 Y138.199 E113.96279
G1 X108.826 Y139.004 E114.03637
G1 X134.010 Y164.188 E117.27490
G1 X134.010 Y165.075 E117.35552
G1 X107.939 Y139.004 E120.70806
G1 X107.053 Y139.004 E120.78868
G1 X134.010 Y165.962 E124.25523
G1 X134.010 Y166.848 E124.33584
G1 X106.166 Y139.004 E127.91641
G1 X105.279 Y139.004 E127.99702
G1 X134.010 Y167.735 E131.69159
G1 X134.010 Y168.621 E131.77221
G1 X104.393 Y139.004 E135.58079
G1 X103.826 Y139.324 E135.63998
G1 X133.690 Y169.188 E139.48038
G1 X132.804 Y169.188 E139.56100
G1 X103.826 Y140.210 E143.28740
G1 X103.826 Y141.097 E143.36801
G1 X131.917 Y169.188 E146.98040
G1 X131.031 Y169.188 E147.06102
G1 X103.826 Y141.984 E150.55939
G1 X103.826 Y142.870 E150.64001
G1 X130.144 Y169.188 E154.02437
G1 X129.257 Y169.188 E154.10499
G1 X103.826 Y143.757 E157.37534
G1 X103.826 Y144.643 E157.45596
G1 X128.371 Y169.188 E160.61231
G1 X127.484 Y169.188 E160.69292
G1 X103.826 Y145.530 E163.73526
G1 X103.826 Y146.416 E163.81587
G1 X126.598 Y169.188 E166.74419
G1 X125.711 Y169.188 E166.82481
G1 X103.826 Y147.303 E169.63912
G1 X103.826 Y148.190 E169.71974
G1 X124.825 Y169.188 E172.42004
G1 X123.938 Y169.188 E172.50066
G1 X103.826 Y149.076 E175.08695
G1 X103.826 Y149.963 E175.16757
G1 X123.051 Y169.188 E177.63985
G1 X122.165 Y169.188 E177.72047
G1 X103.826 Y150.849 E180.07874
G1 X103.826 Y151.736 E180.15935
G1 X121.278 Y169.188 E182.40361
G1 X120.392 Y169.188 E182.48423
G1 X103.826 Y152.623 E184.61448
G1 X103.826 Y153.509 E184.69510
G1 X119.505 Y169.188 E186.71134
G1 X118.618 Y169.188 E186.79195
G1 X103.826 Y154.396 E188.69418
G1 X103.826 Y155.282 E188.77480
G1 X117.732 Y169.188 E190.56302
G1 X116.845 Y169.188 E190.64363
G1 X103.826 Y156.169 E192.31784
G1 X103.826 Y157.056 E192.39846
G1 X115.959 Y169.188 E193.95866
G1 X115.072 Y169.188 E194.03927
G1 X103.826 Y157.942 E195.48546
G1 X103.826 Y158.829 E195.56608
G1 X114.185 Y169.188 E196.89825
G1 X113.299 Y169.188 E196.97887
G1 X103.826 Y159.715 E198.19704
G1 X103.826 Y160.602 E198.27765
G1 X107.412 Y164.188 E198.73884
G1 X106.526 Y164.188 E198.81946
G1 X103.826 Y161.489 E199.16663
G1 X103.826 Y162.375 E199.24725
G1 X105.639 Y164.188 E199.48041
G1 X104.752 Y164.188 E199.56103
G1 X103.826 Y163.262 E199.68019
G1 X103.826 Y164.148 E199.76080
G1 X103.866 Y164.188 E199.76595
G1 X108.826 Y165.602 F7800.000
G1 X112.412 Y169.188 E200.22713 F1080.000
G1 X111.526 Y169.188 E200.30775
G1 X108.826 Y166.489 E200.65493
G1 X108.826 Y167.375 E200.73554
G1 X110.639 Y169.188 E200.96871
G1 X109.752 Y169.188 E201.04932
G1 X108.826 Y168.262 E201.16848
G1 X108.826 Y169.148 E201.24910
G1 X108.866 Y169.188 E201.25424
G1 X108.080 Y134.225 F7800.000
G1 X108.316 Y133.748 E201.28133 F360.000
G1 X108.414 Y133.592 E201.29072
G1 X108.890 Y133.502 E201.31538
G1 X109.445 Y133.469 E201.34373
G1 X110.011 Y133.511 E201.37260
G1 X110.622 Y133.632 E201.40436
G1 F1800.000 E196.90436
G92 E0
G1 X136.525 Y113.131 F7800.000
G1 E4.50000 F1800.000
G1 X136.525 Y103.181 E5.40473 F540.000
G1 X146.475 Y103.181 E6.30946
G1 X146.475 Y113.131 E7.21419
G1 X136.578 Y113.131 E8.11414
G1 X137.150 Y112.506 F7800.000
G1 X137.150 Y103.806 E8.90523 F378.000
G1 X145.850 Y103.806 E9.69632
G1 X145.850 Y112.506 E10.48740
G1 X137.202 Y112.506 E11.27372
G1 X136.800 Y112.506 F7800.000
G1 X136.525 Y118.181 F7800.000
G1 X146.475 Y118.181 E12.17845 F540.000
G1 X146.475 Y128.131 E13.08318
G1 X136.525 Y128.131 E13.98791
G1 X136.525 Y118.234 E14.88786
G1 X137.150 Y118.806 F7800.000
G1 X145.850 Y118.806 E15.67895 F378.000
G1 X145.850 Y127.506 E16.47003
G1 X137.150 Y127.506 E17.26112
G1 X137.150 Y118.858 E18.04744
G1 X137.150 Y118.456 F7800.000
G1 F1800.000 E13.54744
G92 E0
G1 X147.025 Y128.681 F7800.000
G1 E4.50000 F1800.000
G1 X102.975 Y128.681 E8.50547 F540.000
