; generated by Slic3r 1.1.7 on 2014-09-26 at 13:30:29

; perimeters extrusion width = 0.35mm
; infill extrusion width = 0.39mm
; solid infill extrusion width = 0.39mm
; top infill extrusion width = 0.39mm

G21 ; set units to millimeters
M107
M84 S0 ; don't let go of motors
M108 S155 ; make sure extruder and electronics fans are running
M140 S70
M104 S210
G28 X0 Y0; home X and Y
G1 F10800 ; set high speed
G1 Y20 ; move into the platform along Y
G1 X205 ; move off the platform end along X
G28 Z0 ; home Z now - blobs won't hit the platform
G1 F400
G1 Z10 ; lift Z a little
M190 S70
M109 S210 ; wait for temperature to be reached
G28 Z0 ; home Z
G92 E0 ; reset extruder position to 0
G1 F300 ; set suitable speed
G1 E25 ; extrude 25mm
G92 E0 ; reset extruder position to 0 - needed for cura/SF
G1 F10800 ; set wipe speed
G1 X0 ; wipe nozzle and move to X0
G90 ; use absolute coordinates
G92 E0
M82 ; use absolute distances for extrusion
G1 F1800.000 E-4.50000
G92 E0
G1 Z0.350 F7800.000
G1 X85.593 Y102.949 F7800.000
G1 E4.50000 F1800.000
G1 X87.745 Y102.156 E4.70854 F1080.000
G1 X88.925 Y102.050 E4.81625
G1 X104.652 Y102.075 E6.24633
G1 X105.725 Y102.169 E6.34422 F1080.000
G1 X106.862 Y102.370 E6.44921
G1 X107.902 Y102.648 E6.54709
G1 X108.987 Y103.043 E6.65210
G1 X109.962 Y103.498 E6.74997
G1 X110.962 Y104.075 E6.85497
G1 X111.844 Y104.693 E6.95285
G1 X112.729 Y105.435 E7.05784
G1 X113.490 Y106.196 E7.15573
G1 X114.232 Y107.081 E7.26072
G1 X114.355 Y107.256 E7.28015
G1 X114.850 Y107.963 E7.35861
G1 X115.427 Y108.963 E7.46360
G1 X115.882 Y109.938 E7.56149
G1 X116.277 Y111.023 E7.66649
G1 X116.555 Y112.063 E7.76436
G1 X116.756 Y113.200 E7.86938
G1 X116.875 Y114.850 E8.01977
G1 X116.850 Y125.727 E9.00884
G1 X116.756 Y126.800 E9.10671
G1 X116.555 Y127.937 E9.21173
G1 X116.277 Y128.977 E9.30960
G1 X115.882 Y130.062 E9.41459
G1 X115.792 Y130.255 E9.43403
G1 X115.427 Y131.037 E9.51248
G1 X114.850 Y132.037 E9.61746
G1 X114.232 Y132.919 E9.71536
G1 X113.490 Y133.804 E9.82035
G1 X112.729 Y134.565 E9.91824
G1 X111.844 Y135.307 E10.02323
G1 X110.962 Y135.925 E10.12112
G1 X109.962 Y136.502 E10.22611
G1 X108.987 Y136.957 E10.32399
G1 X107.902 Y137.352 E10.42900
G1 X106.862 Y137.630 E10.52688
G1 X105.725 Y137.831 E10.63188
G1 X104.075 Y137.950 E10.78227
G1 X88.925 Y137.950 E12.15986
G1 X86.666 Y137.553 E12.36840
G1 X84.678 Y136.410 E12.57694
G1 X83.199 Y134.657 E12.78548
G1 X82.406 Y132.505 E12.99403
G1 X82.300 Y131.325 E13.10173
G1 X82.300 Y108.675 E15.16129
G1 X82.697 Y106.416 E15.36983
G1 X83.840 Y104.428 E15.57837
G1 X85.553 Y102.983 E15.78214
G1 F1800.000 E11.28214
G92 E0
G1 X89.900 Y130.350 F7800.000
G1 E4.50000 F1800.000
G1 X89.900 Y109.650 E6.38226 F540.000
G1 X104.032 Y109.650 E7.66733
G1 X104.977 Y109.733 E7.75358
G1 X105.852 Y109.967 E7.83594
G1 X106.673 Y110.350 E7.91830
G1 X107.415 Y110.869 E8.00067
G1 X108.056 Y111.510 E8.08303
G1 X108.575 Y112.252 E8.16539
G1 X108.958 Y113.073 E8.24775
G1 X109.192 Y113.948 E8.33012
G1 X109.275 Y114.893 E8.41637
G1 X109.275 Y125.107 E9.34520
G1 X109.192 Y126.052 E9.43145
G1 X108.958 Y126.927 E9.51381
G1 X108.575 Y127.748 E9.59618
G1 X108.056 Y128.490 E9.67854
G1 X107.415 Y129.131 E9.76090
G1 X106.673 Y129.650 E9.84326
G1 X105.852 Y130.033 E9.92563
G1 X104.977 Y130.267 E10.00799
G1 X104.032 Y130.350 E10.09424
G1 X89.952 Y130.350 E11.37453
G1 X89.275 Y130.975 F7800.000
G1 X89.275 Y109.025 E13.37044 F378.000
G1 X104.060 Y109.025 E14.71480
G1 X105.086 Y109.115 E14.80850
G1 X106.067 Y109.378 E14.90081
G1 X106.987 Y109.807 E14.99312
G1 X107.818 Y110.389 E15.08542
G1 X108.536 Y111.107 E15.17773
G1 X109.118 Y111.938 E15.27003
G1 X109.547 Y112.858 E15.36234
G1 X109.810 Y113.839 E15.45464
G1 X109.900 Y114.865 E15.54834
G1 X109.900 Y125.135 E16.48214
G1 X109.810 Y126.161 E16.57584
G1 X109.547 Y127.142 E16.66814
G1 X109.118 Y128.062 E16.76045
G1 X108.536 Y128.893 E16.85276
G1 X107.818 Y129.611 E16.94506
G1 X106.987 Y130.193 E17.03737
G1 X106.067 Y130.622 E17.12967
G1 X105.086 Y130.885 E17.22198
G1 X104.060 Y130.975 E17.31568
G1 X89.328 Y130.975 E18.65527
G1 X89.450 Y130.672 F7800.000
G1 X90.373 Y129.917 F7800.000
G1 X90.333 Y129.877 E18.66042 F1080.000
G1 X90.333 Y128.991 E18.74100
G1 X91.259 Y129.917 E18.86011
G1 X92.145 Y129.917 E18.94069
G1 X90.333 Y128.105 E19.17376
G1 X90.333 Y127.218 E19.25435
G1 X93.032 Y129.917 E19.60139
G1 X93.918 Y129.917 E19.68197
G1 X90.333 Y126.332 E20.14297
G1 X90.333 Y125.446 E20.22356
G1 X94.804 Y129.917 E20.79852
G1 X95.690 Y129.917 E20.87910
G1 X90.333 Y124.560 E21.56803
G1 X90.333 Y123.673 E21.64862
G1 X96.577 Y129.917 E22.45151
G1 X97.463 Y129.917 E22.53209
G1 X90.333 Y122.787 E23.44895
G1 X90.333 Y121.901 E23.52954
G1 X98.349 Y129.917 E24.56036
G1 X99.235 Y129.917 E24.64094
G1 X90.333 Y121.015 E25.78573
G1 X90.333 Y120.129 E25.86631
G1 X100.121 Y129.917 E27.12506
G1 X101.008 Y129.917 E27.20565
G1 X90.333 Y119.242 E28.57836
G1 X90.333 Y118.356 E28.65894
G1 X101.894 Y129.917 E30.14562
G1 X102.780 Y129.917 E30.22621
G1 X90.333 Y117.470 E31.82685
G1 X90.333 Y116.584 E31.90743
G1 X103.666 Y129.917 E33.62204
G1 X104.509 Y129.874 E33.69878
G1 X90.333 Y115.697 E35.52177
G1 X90.333 Y114.811 E35.60236
G1 X105.264 Y129.742 E37.52242
G1 X105.928 Y129.520 E37.58608
G1 X90.333 Y113.925 E39.59150
G1 X90.333 Y113.039 E39.67209
G1 X106.522 Y129.228 E41.75388
G1 X107.043 Y128.862 E41.81174
G1 X90.333 Y112.152 E43.96053
G1 X90.333 Y111.266 E44.04112
G1 X107.486 Y128.419 E46.24689
G1 X107.904 Y127.951 E46.30396
G1 X90.333 Y110.380 E48.56353
G1 X90.922 Y110.083 E48.62353
G1 X108.253 Y127.414 E50.85221
G1 X108.535 Y126.810 E50.91285
G1 X91.808 Y110.083 E53.06380
G1 X92.695 Y110.083 E53.14439
G1 X108.727 Y126.116 E55.20609
G1 X108.822 Y125.324 E55.27860
G1 X93.581 Y110.083 E57.23847
G1 X94.467 Y110.083 E57.31905
G1 X108.842 Y124.458 E59.16759
G1 X108.842 Y123.572 E59.24818
G1 X95.353 Y110.083 E60.98275
G1 X96.240 Y110.083 E61.06334
G1 X108.842 Y122.685 E62.68395
G1 X108.842 Y121.799 E62.76454
G1 X97.126 Y110.083 E64.27119
G1 X98.012 Y110.083 E64.35177
G1 X108.842 Y120.913 E65.74446
G1 X108.842 Y120.027 E65.82504
G1 X98.898 Y110.083 E67.10376
G1 X99.784 Y110.083 E67.18435
G1 X108.842 Y119.141 E68.34910
G1 X108.842 Y118.254 E68.42969
G1 X100.671 Y110.083 E69.48048
G1 X101.557 Y110.083 E69.56107
G1 X108.842 Y117.368 E70.49790
G1 X108.842 Y116.482 E70.57848
G1 X102.443 Y110.083 E71.40134
G1 X103.329 Y110.083 E71.48193
G1 X108.842 Y115.596 E72.19083
G1 X108.823 Y114.690 E72.27319
G1 X104.235 Y110.102 E72.86315
G1 X105.281 Y110.262 E72.95939
G1 X108.663 Y113.644 E73.39423
G1 X107.789 Y111.884 F7800.000
G1 X107.041 Y111.136 E73.49033 F1080.000
M106 S255
M140 S60 ; set bed temperature
G1 F1800.000 E68.99033
G92 E0
G1 Z0.600 F7800.000
G1 X89.450 Y131.100 F7800.000
G1 E4.50000 F1800.000
G1 X89.450 Y108.900 E5.30760 F1522.561
G1 X104.052 Y108.900 E5.83880
G1 X105.108 Y108.992 E5.87735
G1 X106.109 Y109.261 E5.91507
G1 X107.049 Y109.699 E5.95278
G1 X107.898 Y110.294 E5.99050
G1 X108.631 Y111.027 E6.02822
G1 X109.226 Y111.876 E6.06594
G1 X109.664 Y112.816 E6.10365
G1 X109.933 Y113.817 E6.14137
G1 X110.025 Y114.873 E6.17992
G1 X110.025 Y125.127 E6.55295
G1 X109.933 Y126.183 E6.59151
G1 X109.664 Y127.184 E6.62922
G1 X109.226 Y128.124 E6.66694
G1 X108.631 Y128.973 E6.70466
G1 X107.898 Y129.706 E6.74238
G1 X107.049 Y130.301 E6.78009
G1 X106.109 Y130.739 E6.81781
G1 X105.108 Y131.008 E6.85553
G1 X104.052 Y131.100 E6.89408
G1 X89.503 Y131.100 E7.42337
G1 X89.100 Y131.450 F7800.000
G1 X89.100 Y108.550 E8.25643 F1065.793
G1 X104.067 Y108.550 E8.80092
G1 X105.169 Y108.646 E8.84114
G1 X106.229 Y108.931 E8.88109
G1 X107.225 Y109.395 E8.92103
G1 X108.124 Y110.024 E8.96098
G1 X108.901 Y110.801 E9.00092
G1 X109.530 Y111.700 E9.04087
G1 X109.994 Y112.695 E9.08081
G1 X110.279 Y113.756 E9.12076
G1 X110.375 Y114.858 E9.16098
G1 X110.375 Y125.142 E9.53512
G1 X110.279 Y126.244 E9.57535
G1 X109.994 Y127.305 E9.61529
G1 X109.530 Y128.300 E9.65524
G1 X108.901 Y129.199 E9.69518
G1 X108.124 Y129.976 E9.73513
G1 X107.225 Y130.605 E9.77507
G1 X106.229 Y131.069 E9.81502
G1 X105.169 Y131.354 E9.85496
G1 X104.067 Y131.450 E9.89519
G1 X89.153 Y131.450 E10.43776
G1 X89.275 Y131.147 F7800.000
G1 X106.306 Y130.381 F7800.000
G1 X109.306 Y127.381 E10.60751 F3045.122
G1 X109.582 Y126.556 F7800.000
G1 X105.481 Y130.657 E10.83951 F3045.122
G1 X104.799 Y130.792 E10.86734
G1 X109.717 Y125.874 E11.14558
G1 X109.770 Y125.273 E11.16970
G1 X104.198 Y130.845 E11.48489
G1 X103.636 Y130.858 E11.50736
G1 X109.783 Y124.711 E11.85510
G1 X109.783 Y124.163 E11.87702
G1 X103.088 Y130.858 E12.25575
G1 X102.540 Y130.858 E12.27767
G1 X109.783 Y123.615 E12.68741
G1 X109.783 Y123.067 E12.70933
G1 X101.992 Y130.858 E13.15007
G1 X101.444 Y130.858 E13.17199
G1 X109.783 Y122.519 E13.64373
G1 X109.783 Y121.971 E13.66565
G1 X100.896 Y130.858 E14.16839
G1 X100.348 Y130.858 E14.19031
G1 X109.783 Y121.423 E14.72406
G1 X109.783 Y120.875 E14.74598
G1 X99.800 Y130.858 E15.31072
G1 X99.252 Y130.858 E15.33264
G1 X109.783 Y120.327 E15.92838
G1 X109.783 Y119.779 E15.95030
G1 X98.704 Y130.858 E16.57705
G1 X98.156 Y130.858 E16.59897
G1 X109.783 Y119.231 E17.25671
G1 X109.783 Y118.683 E17.27863
G1 X97.608 Y130.858 E17.96738
G1 X97.060 Y130.858 E17.98930
G1 X109.783 Y118.135 E18.70905
G1 X109.783 Y117.587 E18.73097
G1 X96.512 Y130.858 E19.48172
G1 X95.964 Y130.858 E19.50364
G1 X109.783 Y117.039 E20.28539
G1 X109.783 Y116.491 E20.30731
G1 X95.416 Y130.858 E21.12006
G1 X94.868 Y130.858 E21.14198
G1 X109.783 Y115.943 E21.98573
G1 X109.783 Y115.395 E22.00765
G1 X94.320 Y130.858 E22.88240
G1 X93.772 Y130.858 E22.90432
G1 X109.780 Y114.850 E23.80991
G1 X109.736 Y114.346 E23.83014
G1 X93.224 Y130.858 E24.76423
G1 X92.676 Y130.858 E24.78615
G1 X109.690 Y113.844 E25.74861
G1 X109.574 Y113.412 E25.76651
G1 X92.128 Y130.858 E26.75342
G1 X91.580 Y130.858 E26.77534
G1 X109.458 Y112.980 E27.78670
G1 X109.295 Y112.595 E27.80342
G1 X91.032 Y130.858 E28.83655
G1 X90.484 Y130.858 E28.85847
G1 X109.121 Y112.221 E29.91273
G1 X108.926 Y111.868 E29.92887
G1 X89.936 Y130.858 E31.00311
G1 X89.692 Y130.555 E31.01870
G1 X108.700 Y111.546 E32.09399
G1 X108.466 Y111.232 E32.10966
G1 X89.692 Y130.006 E33.17172
G1 X89.692 Y129.458 E33.19365
G1 X108.192 Y110.958 E34.24021
G1 X107.918 Y110.684 E34.25571
G1 X89.692 Y128.910 E35.28678
G1 X89.692 Y128.362 E35.30870
G1 X107.644 Y110.410 E36.32423
G1 X107.321 Y110.185 E36.33997
G1 X89.692 Y127.814 E37.33726
G1 X89.692 Y127.266 E37.35918
G1 X106.999 Y109.959 E38.33824
G1 X106.637 Y109.773 E38.35453
G1 X89.692 Y126.718 E39.31309
G1 X89.692 Y126.170 E39.33501
G1 X106.263 Y109.599 E40.27243
G1 X105.868 Y109.446 E40.28938
G1 X89.692 Y125.622 E41.20445
G1 X89.692 Y125.074 E41.22637
G1 X105.436 Y109.330 E42.11698
G1 X104.993 Y109.225 E42.13518
G1 X89.692 Y124.526 E43.00076
G1 X89.692 Y123.978 E43.02268
G1 X104.489 Y109.181 E43.85975
G1 X103.980 Y109.142 E43.88017
G1 X89.692 Y123.430 E44.68845
G1 X89.692 Y122.882 E44.71037
G1 X103.432 Y109.142 E45.48766
G1 X102.884 Y109.142 E45.50958
G1 X89.692 Y122.334 E46.25587
G1 X89.692 Y121.786 E46.27779
G1 X102.336 Y109.142 E46.99307
G1 X101.788 Y109.142 E47.01499
G1 X89.692 Y121.238 E47.69927
G1 X89.692 Y120.690 E47.72120
G1 X101.240 Y109.142 E48.37448
G1 X100.692 Y109.142 E48.39640
G1 X89.692 Y120.142 E49.01868
G1 X89.692 Y119.594 E49.04060
G1 X100.144 Y109.142 E49.63188
G1 X99.596 Y109.142 E49.65380
G1 X89.692 Y119.046 E50.21408
G1 X89.692 Y118.498 E50.23600
G1 X99.048 Y109.142 E50.76528
G1 X98.500 Y109.142 E50.78720
G1 X89.692 Y117.950 E51.28548
G1 X89.692 Y117.402 E51.30740
G1 X97.952 Y109.142 E51.77468
G1 X97.404 Y109.142 E51.79660
G1 X89.692 Y116.854 E52.23287
G1 X89.692 Y116.306 E52.25479
G1 X96.856 Y109.142 E52.66007
G1 X96.308 Y109.142 E52.68199
G1 X89.692 Y115.758 E53.05626
G1 X89.692 Y115.210 E53.07818
G1 X95.760 Y109.142 E53.42146
G1 X95.212 Y109.142 E53.44338
G1 X89.692 Y114.662 E53.75565
G1 X89.692 Y114.114 E53.77757
G1 X94.664 Y109.142 E54.05884
G1 X94.116 Y109.142 E54.08076
G1 X89.692 Y113.566 E54.33103
G1 X89.692 Y113.018 E54.35295
G1 X93.568 Y109.142 E54.57222
G1 X93.020 Y109.142 E54.59414
G1 X89.692 Y112.470 E54.78241
G1 X89.692 Y111.922 E54.80433
G1 X92.472 Y109.142 E54.96160
G1 X91.924 Y109.142 E54.98352
G1 X89.692 Y111.374 E55.10979
G1 X89.692 Y110.826 E55.13171
G1 X91.376 Y109.142 E55.22697
G1 X90.828 Y109.142 E55.24890
G1 X89.692 Y110.278 E55.31316
G1 X89.692 Y109.730 E55.33508
G1 X90.280 Y109.142 E55.36834
G1 X89.732 Y109.142 E55.39027
G1 X89.692 Y109.182 E55.39253
G1 X108.512 Y128.723 F7800.000
G1 X107.648 Y129.587 E55.44138 F3045.122
G1 F1800.000 E50.94138
G92 E0
G1 Z0.850 F7800.000
G1 X89.450 Y131.350 F7800.000
G1 E4.50000 F1800.000
G1 X89.450 Y108.650 E5.32579 F717.730
G1 X104.052 Y108.650 E5.85699
G1 X105.151 Y108.746 E5.89712
G1 X106.195 Y109.026 E5.93643
G1 X107.174 Y109.482 E5.97573
G1 X108.059 Y110.102 E6.01503
G1 X108.823 Y110.866 E6.05433
G1 X109.443 Y111.751 E6.09364
G1 X109.899 Y112.730 E6.13294
G1 X110.179 Y113.774 E6.17224
G1 X110.275 Y114.873 E6.21238
G1 X110.275 Y125.127 E6.58541
G1 X110.179 Y126.226 E6.62555
G1 X109.899 Y127.270 E6.66485
G1 X109.443 Y128.249 E6.70415
G1 X108.823 Y129.134 E6.74346
G1 X108.059 Y129.898 E6.78276
G1 X107.174 Y130.518 E6.82206
G1 X106.195 Y130.974 E6.86136
G1 X105.151 Y131.254 E6.90067
G1 X104.052 Y131.350 E6.94081
G1 X89.503 Y131.350 E7.47009
G1 X89.100 Y131.700 F7800.000
G1 X89.100 Y108.300 E8.32135 F600.000
G1 X104.067 Y108.300 E8.86583
G1 X105.212 Y108.400 E8.90764
G1 X106.315 Y108.696 E8.94917
G1 X107.350 Y109.178 E8.99070
G1 X108.285 Y109.833 E9.03223
G1 X109.092 Y110.640 E9.07376
G1 X109.747 Y111.575 E9.11529
G1 X110.229 Y112.610 E9.15682
G1 X110.525 Y113.713 E9.19835
G1 X110.625 Y114.858 E9.24016
G1 X110.625 Y125.142 E9.61430
G1 X110.525 Y126.287 E9.65611
G1 X110.229 Y127.390 E9.69764
G1 X109.747 Y128.425 E9.73917
G1 X109.092 Y129.360 E9.78070
G1 X108.285 Y130.167 E9.82223
G1 X107.350 Y130.822 E9.86376
G1 X106.315 Y131.304 E9.90529
G1 X105.212 Y131.600 E9.94682
G1 X104.067 Y131.700 E9.98863
G1 X89.153 Y131.700 E10.53121
G1 X89.275 Y131.397 F7800.000
G1 X89.712 Y131.057 F7800.000
G1 X89.828 Y131.088 E10.53604 F1435.461
G1 X91.180 Y131.088 E10.59013
G1 X92.152 Y130.117 E10.64506
G1 X94.512 Y130.750 E10.74283
G1 X94.603 Y131.088 E10.75685
G1 X98.587 Y131.088 F7800.000
G1 X98.230 Y129.754 E10.81211 F1435.461
G1 X95.869 Y129.121 E10.90988
G1 X94.612 Y130.378 E10.98098
G1 X92.251 Y129.746 E11.07874
G1 X91.791 Y128.029 E11.14984
G1 X89.712 Y127.471 E11.23596
G1 X89.712 Y127.073 E11.25189
G1 X91.891 Y127.657 E11.34213
G1 X93.148 Y126.400 E11.41323
G1 X95.508 Y127.033 E11.51100
G1 X95.968 Y128.749 E11.58210
G1 X98.329 Y129.382 E11.67986
G1 X99.586 Y128.125 E11.75096
G1 X101.947 Y128.758 E11.84873
G1 X102.407 Y130.475 E11.91983
G1 X104.536 Y131.045 E12.00798
G1 X104.858 Y131.017 E12.02093
G1 X106.025 Y129.850 E12.08692
G1 X107.215 Y130.169 E12.13622
G1 X107.627 Y129.881 E12.15631
G1 X106.124 Y129.479 E12.21853
G1 X105.664 Y127.762 E12.28963
G1 X103.303 Y127.129 E12.38740
G1 X102.047 Y128.386 E12.45850
G1 X99.686 Y127.753 E12.55626
G1 X99.226 Y126.036 E12.62736
G1 X96.865 Y125.404 E12.72513
G1 X95.608 Y126.661 E12.79623
G1 X93.247 Y126.028 E12.89399
G1 X92.787 Y124.311 E12.96509
G1 X90.426 Y123.679 E13.06285
G1 X89.712 Y124.393 E13.10329
G1 X89.712 Y121.495 E13.21922
G1 X90.066 Y121.590 E13.23389
G1 X90.526 Y123.307 E13.30499
G1 X92.887 Y123.940 E13.40275
G1 X94.144 Y122.683 E13.47385
G1 X96.504 Y123.315 E13.57162
G1 X96.964 Y125.032 E13.64272
G1 X99.325 Y125.665 E13.74048
G1 X100.582 Y124.408 E13.81158
G1 X102.943 Y125.040 E13.90935
G1 X103.403 Y126.757 E13.98045
G1 X105.764 Y127.390 E14.07821
G1 X107.021 Y126.133 E14.14931
G1 X109.382 Y126.766 E14.24708
G1 X109.551 Y127.398 E14.27325
G1 X109.942 Y125.933 E14.33388
G1 X109.481 Y126.394 E14.35994
G1 X107.120 Y125.761 E14.45771
G1 X106.660 Y124.044 E14.52881
G1 X104.300 Y123.412 E14.62657
G1 X103.043 Y124.669 E14.69767
G1 X100.682 Y124.036 E14.79544
G1 X100.222 Y122.319 E14.86654
G1 X97.861 Y121.687 E14.96430
G1 X96.604 Y122.943 E15.03540
G1 X94.243 Y122.311 E15.13317
