; generated by Slic3r 1.1.7 on 2014-09-26 at 13:29:03

; perimeters extrusion width = 0.35mm
; infill extrusion width = 0.39mm
; solid infill extrusion width = 0.39mm
; top infill extrusion width = 0.39mm

G21 ; set units to millimeters
M107
M84 S0 ; don't let go of motors
M108 S155 ; make sure extruder and electronics fans are running
M140 S70
M104 S210
G28 X0 Y0; home X and Y
G1 F10800 ; set high speed
G1 Y20 ; move into the platform along Y
G1 X205 ; move off the platform end along X
G28 Z0 ; home Z now - blobs won't hit the platform
G1 F400
G1 Z10 ; lift Z a little
M190 S70
M109 S210 ; wait for temperature to be reached
G28 Z0 ; home Z
G92 E0 ; reset extruder position to 0
G1 F300 ; set suitable speed
G1 E25 ; extrude 25mm
G92 E0 ; reset extruder position to 0 - needed for cura/SF
G1 F10800 ; set wipe speed
G1 X0 ; wipe nozzle and move to X0
G90 ; use absolute coordinates
G92 E0
M82 ; use absolute distances for extrusion
G1 F1800.000 E-4.50000
G92 E0
G1 Z0.350 F7800.000
G1 X78.516 Y106.975 F7800.000
G1 E4.50000 F1800.000
G1 X79.113 Y106.557 E4.56620 F1041.474
G1 X80.113 Y105.980 E4.67119
G1 X80.772 Y105.673 E4.73738
G1 X81.857 Y105.278 E4.84238
G1 X82.560 Y105.089 E4.90855
G1 X83.698 Y104.889 E5.01356
G1 X85.000 Y104.800 E5.13226
G1 X105.666 Y104.800 E7.01137
G1 X115.577 Y104.825 E7.91265
G1 X116.302 Y104.889 E7.97882 F1041.474
G1 X117.440 Y105.089 E8.08383
G1 X118.143 Y105.278 E8.15001
G1 X119.366 Y105.737 E8.26883
G1 X119.887 Y105.980 E8.32114
G1 X120.887 Y106.557 E8.42613
G1 X121.483 Y106.975 E8.49231
G1 X122.368 Y107.717 E8.59732
G1 X122.883 Y108.232 E8.66350
G1 X123.713 Y109.241 E8.78232
G1 X124.042 Y109.713 E8.83463
G1 X124.620 Y110.713 E8.93963
G1 X124.927 Y111.372 E9.00581
G1 X125.322 Y112.457 E9.11081
G1 X125.511 Y113.160 E9.17699
G1 X125.725 Y114.450 E9.29581
G1 X125.800 Y115.600 E9.40064
G1 X125.775 Y126.177 E10.36244
G1 X125.711 Y126.902 E10.42863
G1 X125.471 Y128.187 E10.54745
G1 X125.322 Y128.743 E10.59975
G1 X124.927 Y129.828 E10.70475
G1 X124.620 Y130.487 E10.77093
G1 X124.042 Y131.487 E10.87594
G1 X123.625 Y132.084 E10.94212
G1 X122.883 Y132.968 E11.04711
G1 X122.368 Y133.483 E11.11329
G1 X121.484 Y134.225 E11.21828
G1 X120.887 Y134.642 E11.28448
G1 X119.887 Y135.220 E11.38946
G1 X119.228 Y135.527 E11.45565
G1 X118.143 Y135.922 E11.56065
G1 X117.440 Y136.111 E11.62682
G1 X116.302 Y136.311 E11.73183
G1 X115.000 Y136.400 E11.85053
G1 X84.423 Y136.375 E14.63092
G1 X83.698 Y136.311 E14.69709
G1 X82.560 Y136.111 E14.80210
G1 X81.857 Y135.922 E14.86828
G1 X80.772 Y135.527 E14.97327
G1 X80.113 Y135.220 E15.03945
G1 X79.113 Y134.642 E15.14445
G1 X78.516 Y134.225 E15.21063
G1 X77.632 Y133.483 E15.31564
G1 X77.117 Y132.968 E15.38182
G1 X76.375 Y132.084 E15.48679
G1 X75.958 Y131.487 E15.55299
G1 X75.380 Y130.487 E15.65799
G1 X75.073 Y129.828 E15.72417
G1 X74.678 Y128.743 E15.82918
G1 X74.489 Y128.040 E15.89535
G1 X74.289 Y126.902 E16.00036
G1 X74.200 Y125.600 E16.11905
G1 X74.225 Y115.023 E17.08085
G1 X74.289 Y114.298 E17.14702
G1 X74.489 Y113.160 E17.25203
G1 X74.678 Y112.457 E17.31820
G1 X75.073 Y111.372 E17.42322
G1 X75.380 Y110.713 E17.48939
G1 X75.957 Y109.713 E17.59437
G1 X76.375 Y109.116 E17.66057
G1 X77.117 Y108.232 E17.76557
G1 X77.632 Y107.717 E17.83174
G1 X78.476 Y107.009 E17.93195
G1 F1800.000 E13.43195
G92 E0
G1 X105.403 Y111.425 F7800.000
G1 E4.50000 F1800.000
G1 X106.009 Y112.012 E4.57672 F600.000
G1 X114.974 Y112.012 E5.39196
G1 X115.623 Y112.068 E5.45114
G1 X116.273 Y112.250 E5.51258
G1 X116.793 Y112.494 E5.56478
G1 X117.264 Y112.822 E5.61698
G1 X117.747 Y113.295 E5.67842
G1 X118.106 Y113.807 E5.73526
G1 X118.370 Y114.373 E5.79211
G1 X118.520 Y114.928 E5.84430
G1 X118.587 Y115.626 E5.90808
G1 X118.587 Y125.574 E6.81271
G1 X118.532 Y126.223 E6.87189
G1 X118.370 Y126.827 E6.92873
G1 X118.106 Y127.393 E6.98557
G1 X117.747 Y127.905 E7.04242
G1 X117.305 Y128.347 E7.09926
G1 X116.793 Y128.706 E7.15611
G1 X116.227 Y128.970 E7.21295
G1 X115.623 Y129.132 E7.26980
G1 X115.000 Y129.186 E7.32664
G1 X85.026 Y129.187 E10.05219
G1 X84.377 Y129.132 E10.11137
G1 X83.773 Y128.970 E10.16822
G1 X83.207 Y128.706 E10.22506
G1 X82.695 Y128.347 E10.28191
G1 X82.222 Y127.864 E10.34335
G1 X81.894 Y127.393 E10.39554
G1 X81.650 Y126.873 E10.44774
G1 X81.468 Y126.223 E10.50918
G1 X81.413 Y125.574 E10.56836
G1 X81.417 Y115.549 E11.47994
G1 X81.468 Y114.977 E11.53216
G1 X81.630 Y114.373 E11.58901
G1 X81.894 Y113.807 E11.64585
G1 X82.222 Y113.336 E11.69805
G1 X82.695 Y112.853 E11.75949
G1 X83.207 Y112.494 E11.81633
G1 X83.773 Y112.230 E11.87318
G1 X84.428 Y112.063 E11.93462
G1 X85.026 Y112.012 E11.98915
G1 X94.601 Y112.012 E12.85986
G1 X93.781 Y112.167 F7800.000
G1 X93.472 Y111.858 E12.89959 F1041.474
G1 X92.895 Y112.167 E12.95908
G1 X92.587 Y111.858 E12.99881
G1 X92.010 Y112.167 E13.05830
G1 X91.701 Y111.858 E13.09803
G1 X91.124 Y112.167 E13.15752
G1 X90.815 Y111.858 E13.19725
G1 X90.238 Y112.167 E13.25674
G1 X89.930 Y111.858 E13.29647
G1 X89.353 Y112.167 E13.35596
G1 X89.044 Y111.858 E13.39569
G1 X88.467 Y112.167 E13.45518
G1 X88.158 Y111.858 E13.49491
G1 X87.582 Y112.167 E13.55440
G1 X87.273 Y111.858 E13.59413
G1 X86.696 Y112.167 E13.65362
G1 X86.387 Y111.858 E13.69335
G1 X85.810 Y112.167 E13.75284
G1 X85.501 Y111.858 E13.79257
G1 X84.929 Y112.172 E13.85189
G1 X84.648 Y111.890 E13.88803
G1 X84.156 Y112.284 E13.94533
G1 X83.907 Y112.035 E13.97730
G1 X83.507 Y112.521 E14.03451
G1 X83.278 Y112.292 E14.06397
G1 X82.737 Y112.636 E14.12231
G1 X82.955 Y112.855 E14.15042
G1 X82.488 Y113.273 E14.20745
G1 X82.287 Y113.072 E14.23332
G1 X81.884 Y113.554 E14.29049
G1 X82.102 Y113.773 E14.31861
G1 X81.574 Y114.130 E14.37660
G1 X81.803 Y114.359 E14.40606
G1 X81.357 Y114.799 E14.46301
G1 X81.613 Y115.055 E14.49592
G1 X81.261 Y115.588 E14.55404
G1 X81.567 Y115.895 E14.59343
G1 X81.258 Y116.471 E14.65292
G1 X81.567 Y116.780 E14.69265
G1 X81.258 Y117.357 E14.75214
G1 X81.567 Y117.666 E14.79187
G1 X81.258 Y118.243 E14.85136
G1 X81.567 Y118.552 E14.89109
G1 X81.258 Y119.128 E14.95058
G1 X81.567 Y119.437 E14.99031
G1 X81.258 Y120.014 E15.04980
G1 X81.567 Y120.323 E15.08953
G1 X81.258 Y120.900 E15.14902
G1 X81.567 Y121.209 E15.18875
G1 X81.258 Y121.785 E15.24824
G1 X81.567 Y122.094 E15.28797
G1 X81.258 Y122.671 E15.34746
G1 X81.567 Y122.980 E15.38719
G1 X81.258 Y123.557 E15.44668
G1 X81.567 Y123.866 E15.48641
G1 X81.258 Y124.442 E15.54590
G1 X81.567 Y124.751 E15.58563
G1 X81.258 Y125.328 E15.64512
G1 X81.569 Y125.639 E15.68507
G1 X81.325 Y126.280 E15.74749
G1 X81.755 Y126.711 E15.80286
G1 X82.069 Y127.910 E15.91555
G1 X82.690 Y128.531 E15.99546
G1 X83.889 Y128.845 E16.10814
G1 X84.320 Y129.275 E16.16352
G1 X84.961 Y129.031 E16.22594
G1 X85.272 Y129.342 E16.26589
G1 X85.849 Y129.033 E16.32538
G1 X86.158 Y129.342 E16.36511
G1 X86.734 Y129.033 E16.42460
G1 X87.043 Y129.342 E16.46433
G1 X87.620 Y129.033 E16.52382
G1 X87.929 Y129.342 E16.56355
G1 X88.506 Y129.033 E16.62304
G1 X88.815 Y129.342 E16.66277
G1 X89.391 Y129.033 E16.72226
G1 X89.700 Y129.342 E16.76199
G1 X90.277 Y129.033 E16.82148
G1 X90.586 Y129.342 E16.86121
G1 X91.163 Y129.033 E16.92070
G1 X91.472 Y129.342 E16.96043
G1 X92.048 Y129.033 E17.01992
G1 X92.357 Y129.342 E17.05965
G1 X92.934 Y129.033 E17.11914
G1 X93.243 Y129.342 E17.15887
G1 X93.820 Y129.033 E17.21836
G1 X94.129 Y129.342 E17.25809
G1 X94.705 Y129.033 E17.31758
G1 X95.014 Y129.342 E17.35731
G1 X95.591 Y129.033 E17.41680
G1 X95.900 Y129.342 E17.45653
G1 X96.477 Y129.033 E17.51602
G1 X96.786 Y129.342 E17.55575
G1 X97.362 Y129.033 E17.61524
G1 X97.671 Y129.342 E17.65497
G1 X98.248 Y129.033 E17.71446
G1 X98.557 Y129.342 E17.75419
G1 X99.134 Y129.033 E17.81368
G1 X99.443 Y129.342 E17.85341
G1 X100.019 Y129.033 E17.91290
G1 X100.328 Y129.342 E17.95262
G1 X100.905 Y129.033 E18.01212
G1 X101.214 Y129.342 E18.05184
G1 X101.791 Y129.033 E18.11133
G1 X102.100 Y129.342 E18.15106
G1 X102.676 Y129.033 E18.21055
G1 X102.985 Y129.342 E18.25028
G1 X103.562 Y129.033 E18.30977
G1 X103.871 Y129.342 E18.34950
G1 X104.448 Y129.033 E18.40899
G1 X104.757 Y129.342 E18.44872
G1 X105.333 Y129.033 E18.50821
G1 X105.642 Y129.342 E18.54794
G1 X106.219 Y129.033 E18.60743
G1 X106.528 Y129.342 E18.64716
G1 X107.105 Y129.033 E18.70665
G1 X107.413 Y129.342 E18.74638
G1 X107.990 Y129.033 E18.80587
G1 X108.299 Y129.342 E18.84560
G1 X108.876 Y129.033 E18.90509
G1 X109.185 Y129.342 E18.94482
G1 X109.762 Y129.033 E19.00431
G1 X110.070 Y129.342 E19.04404
G1 X110.647 Y129.033 E19.10353
G1 X110.956 Y129.342 E19.14326
G1 X111.533 Y129.033 E19.20275
G1 X111.842 Y129.342 E19.24248
G1 X112.418 Y129.033 E19.30197
G1 X112.727 Y129.342 E19.34170
G1 X113.304 Y129.033 E19.40119
G1 X113.613 Y129.342 E19.44092
G1 X114.190 Y129.033 E19.50041
G1 X114.499 Y129.342 E19.54014
G1 X115.071 Y129.028 E19.59946
G1 X115.352 Y129.310 E19.63560
G1 X115.844 Y128.916 E19.69290
G1 X116.093 Y129.165 E19.72487
G1 X116.493 Y128.679 E19.78208
G1 X116.722 Y128.908 E19.81154
G1 X117.263 Y128.564 E19.86988
G1 X117.045 Y128.345 E19.89799
G1 X117.512 Y127.927 E19.95503
G1 X117.713 Y128.128 E19.98089
G1 X118.116 Y127.646 E20.03807
G1 X117.898 Y127.427 E20.06618
G1 X118.426 Y127.070 E20.12417
G1 X118.197 Y126.841 E20.15364
G1 X118.643 Y126.401 E20.21058
G1 X118.387 Y126.145 E20.24350
G1 X118.739 Y125.612 E20.30162
G1 X118.433 Y125.305 E20.34100
G1 X118.742 Y124.729 E20.40049
G1 X118.433 Y124.420 E20.44022
G1 X118.742 Y123.843 E20.49971
G1 X118.433 Y123.534 E20.53944
G1 X118.742 Y122.957 E20.59893
G1 X118.433 Y122.648 E20.63866
G1 X118.742 Y122.072 E20.69815
G1 X118.433 Y121.763 E20.73788
G1 X118.742 Y121.186 E20.79737
G1 X118.433 Y120.877 E20.83710
G1 X118.742 Y120.300 E20.89659
G1 X118.433 Y119.991 E20.93632
G1 X118.742 Y119.415 E20.99581
G1 X118.433 Y119.106 E21.03554
G1 X118.742 Y118.529 E21.09503
G1 X118.433 Y118.220 E21.13476
G1 X118.742 Y117.643 E21.19425
G1 X118.433 Y117.334 E21.23398
G1 X118.742 Y116.758 E21.29347
G1 X118.433 Y116.449 E21.33320
G1 X118.742 Y115.872 E21.39269
G1 X118.431 Y115.561 E21.43264
G1 X118.675 Y114.920 E21.49507
G1 X118.245 Y114.489 E21.55044
G1 X117.931 Y113.290 E21.66312
G1 X117.310 Y112.669 E21.74304
G1 X116.111 Y112.355 F7800.000
G1 X115.680 Y111.925 E21.79841 F1041.474
G1 X115.039 Y112.169 E21.86083
G1 X114.728 Y111.858 E21.90079
G1 X114.151 Y112.167 E21.96028
G1 X113.842 Y111.858 E22.00000
G1 X113.266 Y112.167 E22.05950
G1 X112.957 Y111.858 E22.09922
G1 X112.380 Y112.167 E22.15871
G1 X112.071 Y111.858 E22.19844
G1 X111.494 Y112.167 E22.25793
G1 X111.185 Y111.858 E22.29766
G1 X110.609 Y112.167 E22.35715
G1 X110.300 Y111.858 E22.39688
G1 X109.723 Y112.167 E22.45637
G1 X109.414 Y111.858 E22.49610
G1 X108.837 Y112.167 E22.55559
G1 X108.528 Y111.858 E22.59532
G1 X107.952 Y112.167 E22.65481
G1 X107.643 Y111.858 E22.69454
G1 X107.066 Y112.167 E22.75403
G1 X106.757 Y111.858 E22.79376
G1 X106.180 Y112.167 E22.85325
G1 X105.871 Y111.858 E22.89298
M106 S255
M140 S60 ; set bed temperature
G1 F1800.000 E18.39298
G92 E0
G1 Z0.600 F7800.000
G1 X105.417 Y112.075 F7800.000
G1 E4.50000 F1800.000
G1 X105.418 Y111.650 E4.51546 F906.279
G1 X114.977 Y111.650 E4.86322
G1 X115.686 Y111.712 E4.88909
G1 X116.350 Y111.890 E4.91413
G1 X116.684 Y112.046 E4.92752
G1 X116.974 Y112.181 E4.93916
G1 X117.538 Y112.576 E4.96420
G1 X118.024 Y113.062 E4.98923
G1 X118.419 Y113.626 E5.01427
G1 X118.710 Y114.250 E5.03930
G1 X118.888 Y114.914 E5.06434
G1 X118.950 Y115.623 E5.09021
G1 X118.950 Y125.577 E5.45232
G1 X118.888 Y126.286 E5.47820
G1 X118.710 Y126.950 E5.50323
G1 X118.419 Y127.574 E5.52827
G1 X118.024 Y128.138 E5.55330
G1 X117.538 Y128.624 E5.57834
G1 X116.974 Y129.019 E5.60337
G1 X116.350 Y129.310 E5.62840
G1 X115.686 Y129.488 E5.65344
G1 X114.977 Y129.550 E5.67931
G1 X85.023 Y129.550 E6.76899
G1 X84.314 Y129.488 E6.79486
G1 X83.650 Y129.310 E6.81990
G1 X83.026 Y129.019 E6.84493
G1 X82.462 Y128.624 E6.86997
G1 X82.202 Y128.364 E6.88336
G1 X81.976 Y128.138 E6.89500
G1 X81.581 Y127.574 E6.92004
G1 X81.290 Y126.950 E6.94507
G1 X81.112 Y126.286 E6.97011
G1 X81.050 Y125.577 E6.99598
G1 X81.050 Y115.623 E7.35809
G1 X81.112 Y114.914 E7.38397
G1 X81.290 Y114.250 E7.40900
G1 X81.581 Y113.626 E7.43404
G1 X81.976 Y113.062 E7.45907
G1 X82.462 Y112.576 E7.48411
G1 X83.026 Y112.181 E7.50914
G1 X83.650 Y111.890 E7.53418
G1 X84.314 Y111.712 E7.55921
G1 X85.023 Y111.650 E7.58508
G1 X94.579 Y111.650 E7.93272
G1 X94.575 Y112.075 E7.94819
G1 X84.977 Y112.075 E8.29736
G1 X84.388 Y112.127 E8.31889
G1 X83.794 Y112.286 E8.34125
G1 X83.236 Y112.546 E8.36362
G1 X82.733 Y112.898 E8.38598
G1 X82.298 Y113.333 E8.40835
G1 X81.946 Y113.836 E8.43071
G1 X81.686 Y114.394 E8.45308
G1 X81.527 Y114.987 E8.47544
G1 X81.475 Y115.577 E8.49697
G1 X81.475 Y125.623 E8.86242
G1 X81.527 Y126.212 E8.88395
G1 X81.686 Y126.806 E8.90632
G1 X81.946 Y127.364 E8.92868
G1 X82.298 Y127.867 E8.95105
G1 X82.733 Y128.302 E8.97341
G1 X83.236 Y128.654 E8.99578
G1 X83.794 Y128.914 E9.01814
G1 X84.387 Y129.073 E9.04051
G1 X84.977 Y129.125 E9.06204
G1 X115.023 Y129.125 E10.15505
G1 X115.612 Y129.073 E10.17658
G1 X116.206 Y128.914 E10.19895
G1 X116.764 Y128.654 E10.22131
G1 X117.267 Y128.302 E10.24368
G1 X117.702 Y127.867 E10.26604
G1 X118.054 Y127.364 E10.28841
G1 X118.314 Y126.806 E10.31077
G1 X118.473 Y126.212 E10.33314
G1 X118.525 Y125.623 E10.35466
G1 X118.525 Y115.577 E10.72012
G1 X118.473 Y114.988 E10.74164
G1 X118.314 Y114.394 E10.76401
G1 X118.054 Y113.836 E10.78637
G1 X117.702 Y113.333 E10.80874
G1 X117.267 Y112.898 E10.83111
G1 X116.764 Y112.546 E10.85347
G1 X116.206 Y112.286 E10.87583
G1 X115.613 Y112.127 E10.89820
G1 X115.023 Y112.075 E10.91973
G1 X105.470 Y112.075 E11.26726
G1 X105.067 Y112.425 F7800.000
M106 S255
G1 X105.068 Y111.300 E11.31226 F3600.000
G1 X105.228 Y111.300 E11.31865
M106 S255
G1 X114.992 Y111.300 E11.67388 F634.395
G1 X115.747 Y111.366 E11.70142
G1 X116.470 Y111.560 E11.72868
G1 X117.150 Y111.877 E11.75594
G1 X117.764 Y112.307 E11.78321
G1 X118.293 Y112.836 E11.81047
G1 X118.723 Y113.450 E11.83773
G1 X119.040 Y114.130 E11.86499
G1 X119.234 Y114.853 E11.89226
G1 X119.300 Y115.608 E11.91980
G1 X119.300 Y125.592 E12.28303
G1 X119.234 Y126.347 E12.31057
G1 X119.040 Y127.070 E12.33783
G1 X118.723 Y127.750 E12.36509
G1 X118.293 Y128.364 E12.39236
G1 X117.764 Y128.893 E12.41962
G1 X117.150 Y129.323 E12.44688
G1 X116.470 Y129.640 E12.47414
G1 X115.747 Y129.834 E12.50141
G1 X114.992 Y129.900 E12.52895
G1 X85.008 Y129.900 E13.61974
G1 X84.253 Y129.834 E13.64728
G1 X83.530 Y129.640 E13.67455
G1 X82.850 Y129.323 E13.70181
G1 X82.236 Y128.893 E13.72907
G1 X81.707 Y128.364 E13.75633
G1 X81.277 Y127.750 E13.78360
G1 X80.960 Y127.070 E13.81086
G1 X80.766 Y126.347 E13.83812
G1 X80.700 Y125.592 E13.86566
G1 X80.700 Y115.608 E14.22889
G1 X80.766 Y114.853 E14.25643
G1 X80.960 Y114.130 E14.28369
G1 X81.277 Y113.450 E14.31096
G1 X81.707 Y112.836 E14.33822
G1 X82.236 Y112.307 E14.36548
G1 X82.850 Y111.877 E14.39275
G1 X83.530 Y111.560 E14.42001
G1 X84.253 Y111.366 E14.44727
G1 X85.008 Y111.300 E14.47481
G1 X94.775 Y111.300 E14.83013
M106 S255
G1 X94.931 Y111.300 E14.83636 F3600.000
G1 X94.931 Y111.448 E14.84230
G1 X94.922 Y112.425 E14.88137
G1 X94.776 Y112.425 E14.88723
M106 S255
G1 X84.992 Y112.425 E15.24313 F634.395
G1 X84.449 Y112.473 E15.26299
G1 X83.914 Y112.616 E15.28313
G1 X83.412 Y112.850 E15.30327
G1 X82.959 Y113.167 E15.32341
G1 X82.567 Y113.559 E15.34354
G1 X82.250 Y114.012 E15.36368
G1 X82.016 Y114.514 E15.38382
G1 X81.873 Y115.049 E15.40395
G1 X81.825 Y115.592 E15.42381
G1 X81.825 Y125.608 E15.78815
G1 X81.873 Y126.151 E15.80801
G1 X82.016 Y126.686 E15.82815
G1 X82.250 Y127.188 E15.84829
G1 X82.567 Y127.641 E15.86842
G1 X82.959 Y128.033 E15.88856
G1 X83.412 Y128.350 E15.90870
G1 X83.914 Y128.584 E15.92883
G1 X84.449 Y128.727 E15.94897
G1 X84.992 Y128.775 E15.96883
G1 X115.008 Y128.775 E17.06073
G1 X115.551 Y128.727 E17.08059
G1 X116.086 Y128.584 E17.10073
G1 X116.588 Y128.350 E17.12087
G1 X117.041 Y128.033 E17.14101
G1 X117.433 Y127.641 E17.16114
G1 X117.750 Y127.188 E17.18128
G1 X117.984 Y126.686 E17.20142
G1 X118.127 Y126.151 E17.22156
G1 X118.175 Y125.608 E17.24141
G1 X118.175 Y115.592 E17.60575
