; generated by Slic3r 1.1.7 on 2014-09-26 at 13:34:12

; perimeters extrusion width = 0.35mm
; infill extrusion width = 0.39mm
; solid infill extrusion width = 0.39mm
; top infill extrusion width = 0.39mm

G21 ; set units to millimeters
M107
M84 S0 ; don't let go of motors
M108 S155 ; make sure extruder and electronics fans are running
M140 S70
M104 S210
G28 X0 Y0; home X and Y
G1 F10800 ; set high speed
G1 Y20 ; move into the platform along Y
G1 X205 ; move off the platform end along X
G28 Z0 ; home Z now - blobs won't hit the platform
G1 F400
G1 Z10 ; lift Z a little
M190 S70
M109 S210 ; wait for temperature to be reached
G28 Z0 ; home Z
G92 E0 ; reset extruder position to 0
G1 F300 ; set suitable speed
G1 E25 ; extrude 25mm
G92 E0 ; reset extruder position to 0 - needed for cura/SF
G1 F10800 ; set wipe speed
G1 X0 ; wipe nozzle and move to X0
G90 ; use absolute coordinates
G92 E0
M82 ; use absolute distances for extrusion
G1 F1800.000 E-4.50000
G92 E0
G1 Z0.350 F7800.000
G1 X72.904 Y104.117 F7800.000
G1 E4.50000 F1800.000
G1 X73.963 Y103.498 E4.61152 F1080.000
G1 X74.938 Y103.043 E4.70939
G1 X76.023 Y102.648 E4.81440
G1 X77.063 Y102.370 E4.91227
G1 X78.200 Y102.169 E5.01727
G1 X79.850 Y102.050 E5.16767
G1 X120.727 Y102.075 E8.88463
G1 X121.800 Y102.169 E8.98251 F1080.000
G1 X122.937 Y102.370 E9.08751
G1 X123.977 Y102.648 E9.18539
G1 X125.062 Y103.043 E9.29039
G1 X126.037 Y103.498 E9.38827
G1 X127.037 Y104.075 E9.49326
G1 X127.919 Y104.693 E9.59115
G1 X128.804 Y105.435 E9.69614
G1 X129.565 Y106.196 E9.79403
G1 X130.307 Y107.081 E9.89902
G1 X130.430 Y107.256 E9.91845
G1 X130.925 Y107.963 E9.99691
G1 X131.502 Y108.963 E10.10191
G1 X131.957 Y109.938 E10.19978
G1 X132.352 Y111.023 E10.30479
G1 X132.630 Y112.063 E10.40267
G1 X132.831 Y113.200 E10.50766
G1 X132.849 Y113.413 E10.52708
G1 X132.950 Y114.850 E10.65806
G1 X132.925 Y125.727 E11.64715
G1 X132.831 Y126.800 E11.74502
G1 X132.630 Y127.937 E11.85002
G1 X132.352 Y128.977 E11.94790
G1 X131.957 Y130.062 E12.05290
G1 X131.502 Y131.037 E12.15078
G1 X130.925 Y132.037 E12.25578
G1 X130.307 Y132.919 E12.35365
G1 X129.565 Y133.804 E12.45865
G1 X128.804 Y134.565 E12.55654
G1 X127.919 Y135.307 E12.66153
G1 X127.037 Y135.925 E12.75942
G1 X126.037 Y136.502 E12.86440
G1 X125.062 Y136.957 E12.96229
G1 X123.977 Y137.352 E13.06730
G1 X122.937 Y137.630 E13.16517
G1 X121.800 Y137.831 E13.27018
G1 X120.150 Y137.950 E13.42057
G1 X79.273 Y137.925 E17.13753
G1 X78.200 Y137.831 E17.23541
G1 X77.063 Y137.630 E17.34041
G1 X76.023 Y137.352 E17.43829
G1 X74.938 Y136.957 E17.54329
G1 X73.963 Y136.502 E17.64118
G1 X72.963 Y135.925 E17.74617
G1 X72.081 Y135.307 E17.84405
G1 X71.196 Y134.565 E17.94905
G1 X70.435 Y133.804 E18.04693
G1 X69.693 Y132.919 E18.15192
G1 X69.075 Y132.037 E18.24981
G1 X68.498 Y131.037 E18.35479
G1 X68.043 Y130.062 E18.45269
G1 X67.648 Y128.977 E18.55769
G1 X67.370 Y127.937 E18.65557
G1 X67.169 Y126.800 E18.76057
G1 X67.050 Y125.150 E18.91096
G1 X67.075 Y114.273 E19.90004
G1 X67.169 Y113.200 E19.99792
G1 X67.370 Y112.063 E20.10292
G1 X67.648 Y111.023 E20.20080
G1 X68.043 Y109.938 E20.30580
G1 X68.498 Y108.963 E20.40368
G1 X69.075 Y107.963 E20.50866
G1 X69.198 Y107.788 E20.52810
G1 X69.693 Y107.081 E20.60656
G1 X70.435 Y106.196 E20.71154
G1 X71.196 Y105.435 E20.80944
G1 X72.081 Y104.693 E20.91443
G1 X72.861 Y104.147 E21.00101
G1 F1800.000 E16.50101
G92 E0
G1 X105.975 Y130.350 F7800.000
G1 E4.50000 F1800.000
G1 X105.975 Y109.650 E6.38226 F540.000
G1 X120.107 Y109.650 E7.66733
G1 X121.052 Y109.733 E7.75358
G1 X121.927 Y109.967 E7.83594
G1 X122.748 Y110.350 E7.91830
G1 X123.490 Y110.869 E8.00067
G1 X124.131 Y111.510 E8.08303
G1 X124.650 Y112.252 E8.16539
G1 X125.033 Y113.073 E8.24776
G1 X125.267 Y113.948 E8.33012
G1 X125.350 Y114.893 E8.41637
G1 X125.350 Y125.107 E9.34520
G1 X125.267 Y126.052 E9.43145
G1 X125.033 Y126.927 E9.51381
G1 X124.650 Y127.748 E9.59618
G1 X124.131 Y128.490 E9.67854
G1 X123.490 Y129.131 E9.76090
G1 X122.748 Y129.650 E9.84327
G1 X121.927 Y130.033 E9.92563
G1 X121.052 Y130.267 E10.00799
G1 X120.107 Y130.350 E10.09424
G1 X106.027 Y130.350 E11.37453
G1 X105.350 Y130.975 F7800.000
G1 X105.350 Y109.025 E13.37044 F378.000
G1 X120.135 Y109.025 E14.71481
G1 X121.161 Y109.115 E14.80851
G1 X122.142 Y109.378 E14.90081
G1 X123.062 Y109.807 E14.99312
G1 X123.893 Y110.389 E15.08542
G1 X124.611 Y111.107 E15.17773
G1 X125.193 Y111.938 E15.27003
G1 X125.622 Y112.858 E15.36234
G1 X125.885 Y113.839 E15.45464
G1 X125.975 Y114.865 E15.54834
G1 X125.975 Y125.135 E16.48214
G1 X125.885 Y126.161 E16.57584
G1 X125.622 Y127.142 E16.66815
G1 X125.193 Y128.062 E16.76045
G1 X124.611 Y128.893 E16.85276
G1 X123.893 Y129.611 E16.94506
G1 X123.062 Y130.193 E17.03737
G1 X122.142 Y130.622 E17.12967
G1 X121.161 Y130.885 E17.22198
G1 X120.135 Y130.975 E17.31568
G1 X105.402 Y130.975 E18.65527
G1 X105.525 Y130.672 F7800.000
G1 X106.448 Y129.917 F7800.000
G1 X106.408 Y129.877 E18.66042 F1080.000
G1 X106.408 Y128.991 E18.74100
G1 X107.334 Y129.917 E18.86011
G1 X108.220 Y129.917 E18.94069
G1 X106.408 Y128.105 E19.17377
G1 X106.408 Y127.218 E19.25435
G1 X109.107 Y129.917 E19.60139
G1 X109.993 Y129.917 E19.68197
G1 X106.408 Y126.332 E20.14297
G1 X106.408 Y125.446 E20.22356
G1 X110.879 Y129.917 E20.79852
G1 X111.765 Y129.917 E20.87911
G1 X106.408 Y124.560 E21.56804
G1 X106.408 Y123.673 E21.64862
G1 X112.652 Y129.917 E22.45151
G1 X113.538 Y129.917 E22.53210
G1 X106.408 Y122.787 E23.44896
G1 X106.408 Y121.901 E23.52954
G1 X114.424 Y129.917 E24.56036
G1 X115.310 Y129.917 E24.64095
G1 X106.408 Y121.015 E25.78573
G1 X106.408 Y120.129 E25.86632
G1 X116.196 Y129.917 E27.12507
G1 X117.083 Y129.917 E27.20565
G1 X106.408 Y119.242 E28.57836
G1 X106.408 Y118.356 E28.65895
G1 X117.969 Y129.917 E30.14563
G1 X118.855 Y129.917 E30.22621
G1 X106.408 Y117.470 E31.82685
G1 X106.408 Y116.584 E31.90744
G1 X119.741 Y129.917 E33.62204
G1 X120.584 Y129.874 E33.69879
G1 X106.408 Y115.697 E35.52178
G1 X106.408 Y114.811 E35.60236
G1 X121.339 Y129.742 E37.52242
G1 X122.003 Y129.520 E37.58608
G1 X106.408 Y113.925 E39.59151
G1 X106.408 Y113.039 E39.67210
G1 X122.597 Y129.228 E41.75389
G1 X123.118 Y128.862 E41.81175
G1 X106.408 Y112.152 E43.96054
G1 X106.408 Y111.266 E44.04112
G1 X123.561 Y128.419 E46.24690
G1 X123.979 Y127.951 E46.30397
G1 X106.408 Y110.380 E48.56354
G1 X106.997 Y110.083 E48.62354
G1 X124.328 Y127.414 E50.85222
G1 X124.610 Y126.810 E50.91286
G1 X107.883 Y110.083 E53.06381
G1 X108.770 Y110.083 E53.14440
G1 X124.802 Y126.116 E55.20610
G1 X124.897 Y125.324 E55.27861
G1 X109.656 Y110.083 E57.23848
G1 X110.542 Y110.083 E57.31906
G1 X124.917 Y124.458 E59.16760
G1 X124.917 Y123.572 E59.24819
G1 X111.428 Y110.083 E60.98277
G1 X112.315 Y110.083 E61.06335
G1 X124.917 Y122.686 E62.68397
G1 X124.917 Y121.799 E62.76455
G1 X113.201 Y110.083 E64.27120
G1 X114.087 Y110.083 E64.35179
G1 X124.917 Y120.913 E65.74447
G1 X124.917 Y120.027 E65.82506
G1 X114.973 Y110.083 E67.10378
G1 X115.859 Y110.083 E67.18436
G1 X124.917 Y119.141 E68.34912
G1 X124.917 Y118.254 E68.42971
G1 X116.746 Y110.083 E69.48050
G1 X117.632 Y110.083 E69.56108
G1 X124.917 Y117.368 E70.49791
G1 X124.917 Y116.482 E70.57850
G1 X118.518 Y110.083 E71.40136
G1 X119.404 Y110.083 E71.48195
G1 X124.917 Y115.596 E72.19085
G1 X124.898 Y114.690 E72.27322
G1 X120.310 Y110.102 E72.86317
G1 X121.356 Y110.262 E72.95941
G1 X124.738 Y113.644 E73.39425
G1 X123.864 Y111.884 F7800.000
G1 X123.116 Y111.136 E73.49035 F1080.000
G1 F1800.000 E68.99035
G92 E0
G1 X94.025 Y130.350 F7800.000
G1 E4.50000 F1800.000
G1 X79.893 Y130.350 E5.78507 F540.000
G1 X78.948 Y130.267 E5.87131
G1 X78.073 Y130.033 E5.95368
G1 X77.252 Y129.650 E6.03604
G1 X76.510 Y129.131 E6.11840
G1 X75.869 Y128.490 E6.20077
G1 X75.350 Y127.748 E6.28313
G1 X74.967 Y126.927 E6.36549
G1 X74.733 Y126.052 E6.44786
G1 X74.650 Y125.107 E6.53411
G1 X74.650 Y114.893 E7.46294
G1 X74.733 Y113.948 E7.54919
G1 X74.967 Y113.073 E7.63155
G1 X75.350 Y112.252 E7.71391
G1 X75.869 Y111.510 E7.79628
G1 X76.510 Y110.869 E7.87864
G1 X77.252 Y110.350 E7.96100
G1 X78.073 Y109.967 E8.04336
G1 X78.948 Y109.733 E8.12573
G1 X79.893 Y109.650 E8.21198
G1 X94.025 Y109.650 E9.49704
G1 X94.025 Y130.298 E11.37453
G1 X94.650 Y130.975 F7800.000
G1 X79.865 Y130.975 E12.71890 F378.000
G1 X78.839 Y130.885 E12.81260
G1 X77.858 Y130.622 E12.90491
G1 X76.938 Y130.193 E12.99721
G1 X76.107 Y129.611 E13.08952
G1 X75.389 Y128.893 E13.18182
G1 X74.807 Y128.062 E13.27413
G1 X74.378 Y127.142 E13.36643
G1 X74.115 Y126.161 E13.45874
G1 X74.025 Y125.135 E13.55244
G1 X74.025 Y114.865 E14.48623
G1 X74.115 Y113.839 E14.57993
G1 X74.378 Y112.858 E14.67224
G1 X74.807 Y111.938 E14.76455
G1 X75.389 Y111.107 E14.85685
G1 X76.107 Y110.389 E14.94916
G1 X76.938 Y109.807 E15.04146
G1 X77.858 Y109.378 E15.13377
G1 X78.839 Y109.115 E15.22607
G1 X79.865 Y109.025 E15.31977
G1 X94.650 Y109.025 E16.66414
G1 X94.650 Y130.923 E18.65527
G1 X94.347 Y130.800 F7800.000
G1 X76.884 Y128.864 F7800.000
G1 X76.136 Y128.116 E18.75137 F1080.000
G1 X75.262 Y126.356 F7800.000
G1 X78.644 Y129.738 E19.18622 F1080.000
G1 X79.690 Y129.898 E19.28245
G1 X75.102 Y125.310 E19.87241
G1 X75.083 Y124.404 E19.95477
G1 X80.596 Y129.917 E20.66367
G1 X81.482 Y129.917 E20.74426
G1 X75.083 Y123.518 E21.56712
G1 X75.083 Y122.632 E21.64771
G1 X82.368 Y129.917 E22.58454
G1 X83.254 Y129.917 E22.66512
G1 X75.083 Y121.746 E23.71591
G1 X75.083 Y120.859 E23.79650
G1 X84.141 Y129.917 E24.96126
G1 X85.027 Y129.917 E25.04184
G1 X75.083 Y119.973 E26.32056
G1 X75.083 Y119.087 E26.40115
G1 X85.913 Y129.917 E27.79383
G1 X86.799 Y129.917 E27.87442
G1 X75.083 Y118.201 E29.38107
G1 X75.083 Y117.315 E29.46165
G1 X87.685 Y129.917 E31.08227
G1 X88.572 Y129.917 E31.16285
G1 X75.083 Y116.428 E32.89743
G1 X75.083 Y115.542 E32.97801
G1 X89.458 Y129.917 E34.82656
G1 X90.344 Y129.917 E34.90714
G1 X75.103 Y114.676 E36.86700
G1 X75.198 Y113.884 E36.93952
G1 X91.230 Y129.917 E39.00122
G1 X92.117 Y129.917 E39.08180
G1 X75.390 Y113.190 E41.23276
G1 X75.672 Y112.586 E41.29340
G1 X93.003 Y129.917 E43.52207
G1 X93.592 Y129.620 E43.58207
G1 X76.021 Y112.049 E45.84164
G1 X76.439 Y111.581 E45.89871
G1 X93.592 Y128.734 E48.10449
G1 X93.592 Y127.848 E48.18507
G1 X76.882 Y111.138 E50.33386
G1 X77.403 Y110.772 E50.39172
G1 X93.592 Y126.961 E52.47351
G1 X93.592 Y126.075 E52.55410
G1 X77.997 Y110.480 E54.55953
G1 X78.661 Y110.258 E54.62319
G1 X93.592 Y125.189 E56.54324
G1 X93.592 Y124.303 E56.62383
G1 X79.416 Y110.126 E58.44682
G1 X80.259 Y110.083 E58.52356
G1 X93.592 Y123.416 E60.23817
G1 X93.592 Y122.530 E60.31875
G1 X81.145 Y110.083 E61.91940
G1 X82.031 Y110.083 E61.99998
G1 X93.592 Y121.644 E63.48666
G1 X93.592 Y120.758 E63.56724
G1 X82.917 Y110.083 E64.93996
G1 X83.804 Y110.083 E65.02054
G1 X93.592 Y119.871 E66.27929
G1 X93.592 Y118.985 E66.35988
G1 X84.690 Y110.083 E67.50466
G1 X85.576 Y110.083 E67.58525
G1 X93.592 Y118.099 E68.61607
G1 X93.592 Y117.213 E68.69665
G1 X86.462 Y110.083 E69.61351
G1 X87.348 Y110.083 E69.69409
G1 X93.592 Y116.327 E70.49699
G1 X93.592 Y115.440 E70.57757
G1 X88.235 Y110.083 E71.26650
G1 X89.121 Y110.083 E71.34709
G1 X93.592 Y114.554 E71.92205
G1 X93.592 Y113.668 E72.00263
G1 X90.007 Y110.083 E72.46364
G1 X90.893 Y110.083 E72.54422
G1 X93.592 Y112.782 E72.89126
G1 X93.592 Y111.895 E72.97184
G1 X91.780 Y110.083 E73.20491
G1 X92.666 Y110.083 E73.28550
G1 X93.592 Y111.009 E73.40461
G1 X93.592 Y110.123 E73.48519
G1 X93.552 Y110.083 E73.49033
M106 S140
M140 S60 ; set bed temperature
G1 F1800.000 E68.99033
G92 E0
G1 Z0.600 F7800.000
G1 X105.525 Y131.100 F7800.000
G1 E4.50000 F1800.000
G1 X105.525 Y108.900 E5.30760 F1800.000
G1 X120.127 Y108.900 E5.83880
G1 X121.183 Y108.992 E5.87735
G1 X122.184 Y109.261 E5.91507
G1 X123.124 Y109.699 E5.95278
G1 X123.973 Y110.294 E5.99050
G1 X124.706 Y111.027 E6.02822
G1 X125.301 Y111.876 E6.06594
G1 X125.739 Y112.816 E6.10365
G1 X126.008 Y113.817 E6.14137
G1 X126.100 Y114.873 E6.17992
G1 X126.100 Y125.127 E6.55295
G1 X126.008 Y126.183 E6.59151
G1 X125.739 Y127.184 E6.62922
G1 X125.301 Y128.124 E6.66694
G1 X124.706 Y128.973 E6.70466
G1 X123.973 Y129.706 E6.74238
G1 X123.124 Y130.301 E6.78009
G1 X122.184 Y130.739 E6.81781
G1 X121.183 Y131.008 E6.85553
G1 X120.127 Y131.100 E6.89408
G1 X105.577 Y131.100 E7.42337
G1 X105.175 Y131.450 F7800.000
G1 X105.175 Y108.550 E8.25643 F1260.000
G1 X120.142 Y108.550 E8.80092
G1 X121.244 Y108.646 E8.84114
G1 X122.305 Y108.931 E8.88109
G1 X123.300 Y109.395 E8.92103
G1 X124.199 Y110.024 E8.96098
G1 X124.976 Y110.801 E9.00092
G1 X125.605 Y111.700 E9.04087
G1 X126.069 Y112.696 E9.08081
G1 X126.354 Y113.756 E9.12076
G1 X126.450 Y114.858 E9.16098
G1 X126.450 Y125.142 E9.53512
G1 X126.354 Y126.244 E9.57535
G1 X126.069 Y127.305 E9.61529
G1 X125.605 Y128.300 E9.65524
G1 X124.976 Y129.199 E9.69518
G1 X124.199 Y129.976 E9.73513
G1 X123.300 Y130.605 E9.77507
G1 X122.305 Y131.069 E9.81502
G1 X121.244 Y131.354 E9.85496
G1 X120.142 Y131.450 E9.89519
G1 X105.227 Y131.450 E10.43776
G1 X105.350 Y131.147 F7800.000
G1 X122.381 Y130.381 F7800.000
G1 X125.381 Y127.381 E10.60751 F3600.000
G1 X125.657 Y126.556 F7800.000
G1 X121.556 Y130.657 E10.83951 F3600.000
G1 X120.874 Y130.792 E10.86734
G1 X125.792 Y125.874 E11.14558
G1 X125.845 Y125.273 E11.16970
G1 X120.273 Y130.845 E11.48489
G1 X119.711 Y130.858 E11.50736
G1 X125.858 Y124.711 E11.85510
G1 X125.858 Y124.163 E11.87702
G1 X119.163 Y130.858 E12.25575
G1 X118.615 Y130.858 E12.27768
G1 X125.858 Y123.615 E12.68741
G1 X125.858 Y123.067 E12.70933
G1 X118.067 Y130.858 E13.15007
G1 X117.519 Y130.858 E13.17199
G1 X125.858 Y122.519 E13.64373
G1 X125.858 Y121.971 E13.66565
G1 X116.971 Y130.858 E14.16839
G1 X116.423 Y130.858 E14.19032
G1 X125.858 Y121.423 E14.72406
G1 X125.858 Y120.875 E14.74598
G1 X115.875 Y130.858 E15.31072
G1 X115.327 Y130.858 E15.33264
G1 X125.858 Y120.327 E15.92839
G1 X125.858 Y119.779 E15.95031
G1 X114.779 Y130.858 E16.57705
G1 X114.231 Y130.858 E16.59897
G1 X125.858 Y119.231 E17.25672
G1 X125.858 Y118.683 E17.27864
G1 X113.683 Y130.858 E17.96738
G1 X113.135 Y130.858 E17.98930
G1 X125.858 Y118.135 E18.70905
G1 X125.858 Y117.587 E18.73097
G1 X112.587 Y130.858 E19.48172
G1 X112.039 Y130.858 E19.50364
G1 X125.858 Y117.039 E20.28539
G1 X125.858 Y116.491 E20.30731
G1 X111.491 Y130.858 E21.12006
G1 X110.943 Y130.858 E21.14198
G1 X125.858 Y115.943 E21.98573
G1 X125.858 Y115.395 E22.00765
G1 X110.395 Y130.858 E22.88241
G1 X109.847 Y130.858 E22.90433
G1 X125.855 Y114.850 E23.80991
G1 X125.811 Y114.346 E23.83015
G1 X109.299 Y130.858 E24.76424
G1 X108.751 Y130.858 E24.78616
G1 X125.765 Y113.844 E25.74862
G1 X125.649 Y113.412 E25.76652
G1 X108.203 Y130.858 E26.75343
G1 X107.655 Y130.858 E26.77535
G1 X125.533 Y112.980 E27.78671
G1 X125.370 Y112.595 E27.80343
G1 X107.107 Y130.858 E28.83655
G1 X106.559 Y130.858 E28.85847
G1 X125.196 Y112.221 E29.91274
G1 X125.001 Y111.868 E29.92887
G1 X106.011 Y130.858 E31.00312
G1 X105.767 Y130.555 E31.01871
G1 X124.775 Y111.546 E32.09400
G1 X124.541 Y111.232 E32.10966
G1 X105.767 Y130.006 E33.17173
G1 X105.767 Y129.458 E33.19365
G1 X124.267 Y110.958 E34.24022
G1 X123.993 Y110.684 E34.25572
G1 X105.767 Y128.910 E35.28678
G1 X105.767 Y128.362 E35.30870
G1 X123.719 Y110.410 E36.32423
G1 X123.396 Y110.185 E36.33997
G1 X105.767 Y127.814 E37.33727
G1 X105.767 Y127.266 E37.35919
G1 X123.074 Y109.959 E38.33825
G1 X122.712 Y109.773 E38.35454
G1 X105.767 Y126.718 E39.31310
G1 X105.767 Y126.170 E39.33502
G1 X122.338 Y109.599 E40.27244
G1 X121.943 Y109.446 E40.28939
G1 X105.767 Y125.622 E41.20445
G1 X105.767 Y125.074 E41.22637
G1 X121.511 Y109.330 E42.11699
G1 X121.068 Y109.225 E42.13519
G1 X105.767 Y124.526 E43.00077
G1 X105.767 Y123.978 E43.02269
G1 X120.564 Y109.181 E43.85976
G1 X120.055 Y109.142 E43.88018
G1 X105.767 Y123.430 E44.68846
G1 X105.767 Y122.882 E44.71038
G1 X119.507 Y109.142 E45.48767
G1 X118.959 Y109.142 E45.50959
G1 X105.767 Y122.334 E46.25588
G1 X105.767 Y121.786 E46.27780
G1 X118.411 Y109.142 E46.99308
G1 X117.863 Y109.142 E47.01500
G1 X105.767 Y121.238 E47.69929
G1 X105.767 Y120.690 E47.72121
G1 X117.315 Y109.142 E48.37449
G1 X116.767 Y109.142 E48.39641
