; generated by Slic3r 1.1.7 on 2014-09-18 at 16:42:45

; perimeters extrusion width = 0.35mm
; infill extrusion width = 0.39mm
; solid infill extrusion width = 0.39mm
; top infill extrusion width = 0.39mm

G21 ; set units to millimeters
M107
M84 S0 ; don't let go of motors
M108 S155 ; make sure extruder and electronics fans are running
M140 S70
M104 S210
G28 X0 Y0; home X and Y
G1 F10800 ; set high speed
G1 Y20 ; move into the platform along Y
G1 X205 ; move off the platform end along X
G28 Z0 ; home Z now - blobs won't hit the platform
G1 F400
G1 Z10 ; lift Z a little
M190 S70
M109 S210 ; wait for temperature to be reached
G28 Z0 ; home Z
G92 E0 ; reset extruder position to 0
G1 F300 ; set suitable speed
G1 E25 ; extrude 25mm
G92 E0 ; reset extruder position to 0 - needed for cura/SF
G1 F10800 ; set wipe speed
G1 X0 ; wipe nozzle and move to X0
G90 ; use absolute coordinates
G92 E0
M82 ; use absolute distances for extrusion
G1 F1800.000 E-4.50000
G92 E0
G1 Z0.350 F7800.000
G1 X91.668 Y109.274 F7800.000
G1 E4.50000 F1800.000
G1 X93.820 Y108.481 E4.70854 F695.589
G1 X95.000 Y108.375 E4.81625
G1 X105.000 Y108.375 E5.72555
G1 X107.259 Y108.772 E5.93409
G1 X109.247 Y109.915 E6.14263 F695.589
G1 X110.726 Y111.668 E6.35117
G1 X111.519 Y113.820 E6.55972
G1 X111.625 Y115.000 E6.66743
G1 X111.625 Y125.000 E7.57672
G1 X111.228 Y127.259 E7.78526
G1 X110.085 Y129.247 E7.99381
G1 X108.332 Y130.726 E8.20235
G1 X106.180 Y131.519 E8.41089
G1 X105.000 Y131.625 E8.51860
G1 X95.000 Y131.625 E9.42790
G1 X92.741 Y131.228 E9.63644
G1 X90.753 Y130.085 E9.84498
G1 X89.274 Y128.332 E10.05352
G1 X88.481 Y126.180 E10.26207
G1 X88.375 Y125.000 E10.36977
G1 X88.375 Y115.000 E11.27907
G1 X88.772 Y112.741 E11.48761
G1 X89.915 Y110.753 E11.69615
G1 X91.628 Y109.308 E11.89992
G1 F1800.000 E7.39992
G92 E0
G1 X104.025 Y124.025 F7800.000
G1 E4.50000 F1800.000
G1 X95.975 Y124.025 E5.23200 F600.000
G1 X95.975 Y115.975 E5.96401
G1 X104.025 Y115.975 E6.69601
G1 X104.025 Y123.973 E7.42324
G1 X104.650 Y124.650 F7800.000
G1 X95.350 Y124.650 E8.26888 F600.000
G1 X95.350 Y115.350 E9.11453
G1 X104.650 Y115.350 E9.96017
G1 X104.650 Y124.598 E10.80105
G1 X104.347 Y124.475 F7800.000
G1 X96.448 Y123.592 F7800.000
G1 X96.408 Y123.552 E10.80619 F695.589
G1 X96.408 Y122.659 E10.88739
G1 X97.341 Y123.592 E11.00737
G1 X98.234 Y123.592 E11.08857
G1 X96.408 Y121.766 E11.32339
G1 X96.408 Y120.873 E11.40459
G1 X99.127 Y123.592 E11.75425
G1 X100.020 Y123.592 E11.83545
G1 X96.408 Y119.980 E12.29994
G1 X96.408 Y119.087 E12.38115
G1 X100.913 Y123.592 E12.96047
G1 X101.806 Y123.592 E13.04168
G1 X96.408 Y118.194 E13.73584
G1 X96.408 Y117.301 E13.81704
G1 X102.699 Y123.592 E14.62605
G1 X103.572 Y123.572 E14.70545
G1 X96.428 Y116.428 E15.62415
G1 X97.301 Y116.408 E15.70355
G1 X103.592 Y122.699 E16.51256
G1 X103.592 Y121.806 E16.59376
G1 X98.194 Y116.408 E17.28792
G1 X99.087 Y116.408 E17.36913
G1 X103.592 Y120.913 E17.94846
G1 X103.592 Y120.020 E18.02966
G1 X99.980 Y116.408 E18.49415
G1 X100.873 Y116.408 E18.57535
G1 X103.592 Y119.127 E18.92501
G1 X103.592 Y118.234 E19.00621
G1 X101.766 Y116.408 E19.24103
G1 X102.659 Y116.408 E19.32223
G1 X103.592 Y117.341 E19.44221
G1 X103.592 Y116.448 E19.52341
G1 X103.552 Y116.408 E19.52856
M106 S255
M140 S60 ; set bed temperature
G1 F1800.000 E15.02856
G92 E0
G1 Z0.600 F7800.000
G1 X104.475 Y124.475 F7800.000
G1 E4.50000 F1800.000
G1 X95.525 Y124.475 E4.82559 F600.000
G1 X95.525 Y115.525 E5.15117
G1 X104.475 Y115.525 E5.47676
G1 X104.475 Y124.423 E5.80043
G1 X104.825 Y124.825 F7800.000
G1 X95.175 Y124.825 E6.15148 F600.000
G1 X95.175 Y115.175 E6.50253
G1 X104.825 Y115.175 E6.85358
G1 X104.825 Y124.773 E7.20272
G1 X104.522 Y124.650 F7800.000
G1 X104.233 Y124.193 F7800.000
G1 X104.193 Y124.233 E7.20499 F757.806
G1 X103.632 Y124.233 E7.22746
G1 X104.233 Y123.632 E7.26150
G1 X104.233 Y123.070 E7.28397
G1 X103.070 Y124.233 E7.34980
G1 X102.508 Y124.233 E7.37227
G1 X104.233 Y122.508 E7.46987
G1 X104.233 Y121.946 E7.49234
G1 X101.946 Y124.233 E7.62172
G1 X101.384 Y124.233 E7.64419
G1 X104.233 Y121.384 E7.80535
G1 X104.233 Y120.823 E7.82783
G1 X100.823 Y124.233 E8.02077
G1 X100.261 Y124.233 E8.04324
G1 X104.233 Y120.261 E8.26796
G1 X104.233 Y119.699 E8.29043
G1 X99.699 Y124.233 E8.54693
G1 X99.137 Y124.233 E8.56940
G1 X104.233 Y119.137 E8.85768
G1 X104.233 Y118.576 E8.88015
G1 X98.576 Y124.233 E9.20021
G1 X98.014 Y124.233 E9.22269
G1 X104.233 Y118.014 E9.57453
G1 X104.233 Y117.452 E9.59700
G1 X97.452 Y124.233 E9.98062
G1 X96.890 Y124.233 E10.00309
G1 X104.233 Y116.890 E10.41849
G1 X104.233 Y116.328 E10.44096
G1 X96.328 Y124.233 E10.88814
G1 X95.787 Y124.213 E10.90982
G1 X104.213 Y115.787 E11.38652
G1 X103.672 Y115.767 E11.40820
G1 X95.767 Y123.672 E11.85538
G1 X95.767 Y123.110 E11.87785
G1 X103.110 Y115.767 E12.29325
G1 X102.548 Y115.767 E12.31572
G1 X95.767 Y122.548 E12.69934
G1 X95.767 Y121.986 E12.72182
G1 X101.986 Y115.767 E13.07365
G1 X101.424 Y115.767 E13.09613
G1 X95.767 Y121.424 E13.41619
G1 X95.767 Y120.863 E13.43866
G1 X100.863 Y115.767 E13.72694
G1 X100.301 Y115.767 E13.74941
G1 X95.767 Y120.301 E14.00591
G1 X95.767 Y119.739 E14.02838
G1 X99.739 Y115.767 E14.25310
G1 X99.177 Y115.767 E14.27557
G1 X95.767 Y119.177 E14.46851
G1 X95.767 Y118.616 E14.49099
G1 X98.616 Y115.767 E14.65215
G1 X98.054 Y115.767 E14.67462
G1 X95.767 Y118.054 E14.80400
G1 X95.767 Y117.492 E14.82647
G1 X97.492 Y115.767 E14.92407
G1 X96.930 Y115.767 E14.94655
G1 X95.767 Y116.930 E15.01237
G1 X95.767 Y116.368 E15.03484
G1 X96.368 Y115.767 E15.06888
G1 X95.807 Y115.767 E15.09135
G1 X95.767 Y115.807 E15.09362
G1 F1800.000 E10.59362
G92 E0
G1 Z0.850 F7800.000
G1 X104.475 Y124.475 F7800.000
G1 E4.50000 F1800.000
G1 X95.525 Y124.475 E4.82559 F600.000
G1 X95.525 Y115.525 E5.15117
G1 X104.475 Y115.525 E5.47676
G1 X104.475 Y124.423 E5.80043
G1 X104.825 Y124.825 F7800.000
G1 X95.175 Y124.825 E6.15148 F600.000
G1 X95.175 Y115.175 E6.50253
G1 X104.825 Y115.175 E6.85358
G1 X104.825 Y124.773 E7.20272
G1 X104.522 Y124.650 F7800.000
G1 X95.807 Y124.233 F7800.000
G1 X95.767 Y124.193 E7.20499 F757.806
G1 X95.767 Y123.632 E7.22746
G1 X96.368 Y124.233 E7.26150
G1 X96.930 Y124.233 E7.28397
G1 X95.767 Y123.070 E7.34979
G1 X95.767 Y122.508 E7.37227
G1 X97.492 Y124.233 E7.46987
G1 X98.054 Y124.233 E7.49234
G1 X95.767 Y121.946 E7.62172
G1 X95.767 Y121.384 E7.64419
G1 X98.616 Y124.233 E7.80535
G1 X99.177 Y124.233 E7.82783
G1 X95.767 Y120.823 E8.02077
G1 X95.767 Y120.261 E8.04324
G1 X99.739 Y124.233 E8.26796
G1 X100.301 Y124.233 E8.29043
G1 X95.767 Y119.699 E8.54693
G1 X95.767 Y119.137 E8.56940
G1 X100.863 Y124.233 E8.85768
G1 X101.424 Y124.233 E8.88015
G1 X95.767 Y118.576 E9.20021
G1 X95.767 Y118.014 E9.22269
G1 X101.986 Y124.233 E9.57452
G1 X102.548 Y124.233 E9.59700
G1 X95.767 Y117.452 E9.98062
G1 X95.767 Y116.890 E10.00309
G1 X103.110 Y124.233 E10.41849
G1 X103.672 Y124.233 E10.44096
G1 X95.767 Y116.328 E10.88814
G1 X95.787 Y115.787 E10.90982
G1 X104.213 Y124.213 E11.38652
G1 X104.233 Y123.672 E11.40820
G1 X96.328 Y115.767 E11.85538
G1 X96.890 Y115.767 E11.87785
G1 X104.233 Y123.110 E12.29325
G1 X104.233 Y122.548 E12.31572
G1 X97.452 Y115.767 E12.69934
G1 X98.014 Y115.767 E12.72181
G1 X104.233 Y121.986 E13.07365
G1 X104.233 Y121.424 E13.09613
G1 X98.576 Y115.767 E13.41619
G1 X99.137 Y115.767 E13.43866
G1 X104.233 Y120.863 E13.72694
G1 X104.233 Y120.301 E13.74941
G1 X99.699 Y115.767 E14.00591
G1 X100.261 Y115.767 E14.02838
G1 X104.233 Y119.739 E14.25310
G1 X104.233 Y119.177 E14.27557
G1 X100.823 Y115.767 E14.46851
G1 X101.384 Y115.767 E14.49099
G1 X104.233 Y118.616 E14.65215
G1 X104.233 Y118.054 E14.67462
G1 X101.946 Y115.767 E14.80400
G1 X102.508 Y115.767 E14.82647
G1 X104.233 Y117.492 E14.92407
G1 X104.233 Y116.930 E14.94654
G1 X103.070 Y115.767 E15.01237
G1 X103.632 Y115.767 E15.03484
G1 X104.233 Y116.368 E15.06888
G1 X104.233 Y115.807 E15.09135
G1 X104.193 Y115.767 E15.09362
G1 F1800.000 E10.59362
G92 E0
G1 Z1.100 F7800.000
G1 X104.475 Y124.475 F7800.000
G1 E4.50000 F1800.000
G1 X95.525 Y124.475 E4.82559 F600.000
G1 X95.525 Y115.525 E5.15117
G1 X104.475 Y115.525 E5.47676
G1 X104.475 Y124.423 E5.80043
G1 X104.825 Y124.825 F7800.000
G1 X95.175 Y124.825 E6.15148 F600.000
G1 X95.175 Y115.175 E6.50253
G1 X104.825 Y115.175 E6.85358
G1 X104.825 Y124.773 E7.20272
G1 X104.522 Y124.650 F7800.000
G1 X104.233 Y124.193 F7800.000
G1 X104.193 Y124.233 E7.20499 F697.262
G1 X103.632 Y124.233 E7.22746
G1 X104.233 Y123.632 E7.26150
G1 X104.233 Y123.070 E7.28397
G1 X103.070 Y124.233 E7.34980
G1 X102.508 Y124.233 E7.37227
G1 X104.233 Y122.508 E7.46987
G1 X104.233 Y121.946 E7.49234
G1 X101.946 Y124.233 E7.62172
G1 X101.384 Y124.233 E7.64419
G1 X104.233 Y121.384 E7.80535
G1 X104.233 Y120.823 E7.82783
G1 X100.823 Y124.233 E8.02077
G1 X100.261 Y124.233 E8.04324
G1 X104.233 Y120.261 E8.26796
G1 X104.233 Y119.699 E8.29043
G1 X99.699 Y124.233 E8.54693
G1 X99.137 Y124.233 E8.56940
G1 X104.233 Y119.137 E8.85768
G1 X104.233 Y118.576 E8.88015
G1 X98.576 Y124.233 E9.20021
G1 X98.014 Y124.233 E9.22269
G1 X104.233 Y118.014 E9.57453
G1 X104.233 Y117.452 E9.59700
G1 X97.452 Y124.233 E9.98062
G1 X96.890 Y124.233 E10.00309
G1 X104.233 Y116.890 E10.41849
G1 X104.233 Y116.328 E10.44096
G1 X96.328 Y124.233 E10.88814
G1 X95.787 Y124.213 E10.90982
G1 X104.213 Y115.787 E11.38652
G1 X103.672 Y115.767 E11.40820
G1 X95.767 Y123.672 E11.85538
G1 X95.767 Y123.110 E11.87785
G1 X103.110 Y115.767 E12.29325
G1 X102.548 Y115.767 E12.31572
G1 X95.767 Y122.548 E12.69934
G1 X95.767 Y121.986 E12.72182
G1 X101.986 Y115.767 E13.07365
G1 X101.424 Y115.767 E13.09613
G1 X95.767 Y121.424 E13.41619
G1 X95.767 Y120.863 E13.43866
G1 X100.863 Y115.767 E13.72694
G1 X100.301 Y115.767 E13.74941
G1 X95.767 Y120.301 E14.00591
G1 X95.767 Y119.739 E14.02838
G1 X99.739 Y115.767 E14.25310
G1 X99.177 Y115.767 E14.27557
G1 X95.767 Y119.177 E14.46851
G1 X95.767 Y118.616 E14.49099
G1 X98.616 Y115.767 E14.65215
G1 X98.054 Y115.767 E14.67462
G1 X95.767 Y118.054 E14.80400
G1 X95.767 Y117.492 E14.82647
G1 X97.492 Y115.767 E14.92407
G1 X96.930 Y115.767 E14.94655
G1 X95.767 Y116.930 E15.01237
G1 X95.767 Y116.368 E15.03484
G1 X96.368 Y115.767 E15.06888
G1 X95.807 Y115.767 E15.09135
G1 X95.767 Y115.807 E15.09362
G1 F1800.000 E10.59362
G92 E0
G1 Z1.350 F7800.000
G1 X104.445 Y121.475 F7800.000
G1 E4.50000 F1800.000
G1 X95.555 Y121.475 E4.82343 F600.000
G1 X95.555 Y118.525 E4.93075
G1 X104.445 Y118.525 E5.25418
G1 X104.445 Y121.423 E5.35958
G1 X104.795 Y121.825 F7800.000
G1 X95.205 Y121.825 E5.70848 F600.000
G1 X95.205 Y118.175 E5.84126
G1 X104.795 Y118.175 E6.19015
G1 X104.795 Y121.773 E6.32102
G1 X104.492 Y121.650 F7800.000
G1 X104.164 Y118.767 F7800.000
G1 X104.204 Y118.807 E6.32329 F600.000
G1 X104.204 Y119.375 E6.34601
G1 X103.596 Y118.767 E6.38041
G1 X103.028 Y118.767 E6.40314
G1 X104.204 Y119.943 E6.46968
G1 X104.204 Y120.511 E6.49240
G1 X102.459 Y118.767 E6.59108
G1 X101.891 Y118.767 E6.61381
G1 X104.204 Y121.079 E6.74462
G1 X103.790 Y121.233 E6.76229
G1 X101.323 Y118.767 E6.90183
G1 X100.755 Y118.767 E6.92456
G1 X103.222 Y121.233 E7.06410
G1 X102.654 Y121.233 E7.08683
G1 X100.187 Y118.767 E7.22637
G1 X99.619 Y118.767 E7.24910
G1 X102.086 Y121.233 E7.38864
G1 X101.517 Y121.233 E7.41137
G1 X99.051 Y118.767 E7.55092
G1 X98.483 Y118.767 E7.57364
G1 X100.949 Y121.233 E7.71319
G1 X100.381 Y121.233 E7.73591
G1 X97.914 Y118.767 E7.87546
G1 X97.346 Y118.767 E7.89818
G1 X99.813 Y121.233 E8.03773
G1 X99.245 Y121.233 E8.06045
G1 X96.778 Y118.767 E8.20000
G1 X96.210 Y118.767 E8.22272
G1 X98.677 Y121.233 E8.36227
G1 X98.109 Y121.233 E8.38499
G1 X95.796 Y118.921 E8.51581
G1 X95.796 Y119.489 E8.53854
G1 X97.541 Y121.233 E8.63721
G1 X96.972 Y121.233 E8.65994
G1 X95.796 Y120.057 E8.72648
G1 X95.796 Y120.625 E8.74920
G1 X96.404 Y121.233 E8.78360
G1 X95.836 Y121.233 E8.80633
G1 X95.796 Y121.193 E8.80859
G1 F1800.000 E4.30859
G92 E0
G1 Z1.600 F7800.000
G1 X104.412 Y121.475 F7800.000
G1 E4.50000 F1800.000
G1 X95.588 Y121.475 E4.82104 F600.000
G1 X95.588 Y118.525 E4.92835
G1 X104.412 Y118.525 E5.24939
G1 X104.412 Y121.423 E5.35479
G1 X104.762 Y121.825 F7800.000
G1 X95.238 Y121.825 E5.70129 F600.000
G1 X95.238 Y118.175 E5.83407
G1 X104.762 Y118.175 E6.18058
G1 X104.762 Y121.773 E6.31145
G1 X104.459 Y121.650 F7800.000
G1 X104.171 Y121.193 F7800.000
G1 X104.131 Y121.233 E6.31371 F600.000
G1 X103.566 Y121.233 E6.33630
G1 X104.171 Y120.629 E6.37050
G1 X104.171 Y120.064 E6.39309
G1 X103.002 Y121.233 E6.45923
G1 X102.437 Y121.233 E6.48182
G1 X104.171 Y119.499 E6.57991
G1 X104.171 Y118.935 E6.60250
G1 X101.872 Y121.233 E6.73253
G1 X101.308 Y121.233 E6.75512
G1 X103.774 Y118.767 E6.89466
G1 X103.210 Y118.767 E6.91725
G1 X100.743 Y121.233 E7.05679
G1 X100.178 Y121.233 E7.07938
G1 X102.645 Y118.767 E7.21893
G1 X102.080 Y118.767 E7.24151
G1 X99.614 Y121.233 E7.38106
G1 X99.049 Y121.233 E7.40364
G1 X101.516 Y118.767 E7.54319
G1 X100.951 Y118.767 E7.56578
G1 X98.484 Y121.233 E7.70532
G1 X97.920 Y121.233 E7.72791
G1 X100.386 Y118.767 E7.86745
G1 X99.822 Y118.767 E7.89004
G1 X97.355 Y121.233 E8.02959
G1 X96.790 Y121.233 E8.05217
G1 X99.257 Y118.767 E8.19172
G1 X98.692 Y118.767 E8.21431
G1 X96.226 Y121.233 E8.35385
G1 X95.829 Y121.065 E8.37108
G1 X98.128 Y118.767 E8.50111
G1 X97.563 Y118.767 E8.52370
G1 X95.829 Y120.501 E8.62179
G1 X95.829 Y119.936 E8.64437
G1 X96.998 Y118.767 E8.71052
G1 X96.434 Y118.767 E8.73311
G1 X95.829 Y119.371 E8.76731
G1 X95.829 Y118.807 E8.78990
G1 X95.869 Y118.767 E8.79216
G1 F1800.000 E4.29216
G92 E0
G1 Z1.850 F7800.000
G1 X104.380 Y121.475 F7800.000
G1 E4.50000 F1800.000
G1 X95.620 Y121.475 E4.81864 F600.000
G1 X95.620 Y118.525 E4.92596
G1 X104.380 Y118.525 E5.24460
G1 X104.380 Y121.423 E5.35000
G1 X104.730 Y121.825 F7800.000
G1 X95.270 Y121.825 E5.69411 F600.000
G1 X95.270 Y118.175 E5.82689
G1 X104.730 Y118.175 E6.17100
G1 X104.730 Y121.773 E6.30187
G1 X104.426 Y121.650 F7800.000
G1 X104.098 Y118.767 F7800.000
G1 X104.138 Y118.807 E6.30413 F600.000
G1 X104.138 Y119.368 E6.32658
G1 X103.537 Y118.767 E6.36059
G1 X102.976 Y118.767 E6.38304
G1 X104.138 Y119.929 E6.44879
G1 X104.138 Y120.490 E6.47124
G1 X102.414 Y118.767 E6.56874
G1 X101.853 Y118.767 E6.59119
G1 X104.138 Y121.051 E6.72044
G1 X103.759 Y121.233 E6.73726
G1 X101.292 Y118.767 E6.87681
G1 X100.731 Y118.767 E6.89925
G1 X103.198 Y121.233 E7.03880
G1 X102.636 Y121.233 E7.06125
G1 X100.170 Y118.767 E7.20079
G1 X99.608 Y118.767 E7.22324
G1 X102.075 Y121.233 E7.36279
G1 X101.514 Y121.233 E7.38523
G1 X99.047 Y118.767 E7.52478
G1 X98.486 Y118.767 E7.54723
G1 X100.953 Y121.233 E7.68677
G1 X100.392 Y121.233 E7.70922
G1 X97.925 Y118.767 E7.84877
G1 X97.364 Y118.767 E7.87122
G1 X99.830 Y121.233 E8.01076
G1 X99.269 Y121.233 E8.03321
G1 X96.802 Y118.767 E8.17275
G1 X96.241 Y118.767 E8.19520
G1 X98.708 Y121.233 E8.33475
G1 X98.147 Y121.233 E8.35720
G1 X95.862 Y118.949 E8.48644
G1 X95.862 Y119.510 E8.50889
G1 X97.586 Y121.233 E8.60639
G1 X97.024 Y121.233 E8.62884
G1 X95.862 Y120.071 E8.69460
G1 X95.862 Y120.632 E8.71704
G1 X96.463 Y121.233 E8.75105
G1 X95.902 Y121.233 E8.77350
G1 X95.862 Y121.193 E8.77576
G1 F1800.000 E4.27576
G92 E0
G1 Z2.100 F7800.000
G1 X104.347 Y121.475 F7800.000
G1 E4.50000 F1800.000
G1 X95.653 Y121.475 E4.81625 F600.000
G1 X95.653 Y118.525 E4.92356
G1 X104.347 Y118.525 E5.23981
G1 X104.347 Y121.423 E5.34521
G1 X104.697 Y121.825 F7800.000
G1 X95.303 Y121.825 E5.68692 F600.000
G1 X95.303 Y118.175 E5.81971
G1 X104.697 Y118.175 E6.16142
G1 X104.697 Y121.773 E6.29229
G1 X104.394 Y121.650 F7800.000
G1 X104.105 Y121.193 F7800.000
G1 X104.065 Y121.233 E6.29455 F600.000
G1 X103.507 Y121.233 E6.31686
G1 X104.105 Y120.636 E6.35067
G1 X104.105 Y120.078 E6.37298
G1 X102.950 Y121.233 E6.43835
G1 X102.392 Y121.233 E6.46065
G1 X104.105 Y119.520 E6.55757
G1 X104.105 Y118.962 E6.57988
G1 X101.834 Y121.233 E6.70834
G1 X101.276 Y121.233 E6.73065
G1 X103.743 Y118.767 E6.87020
G1 X103.185 Y118.767 E6.89251
G1 X100.719 Y121.233 E7.03205
G1 X100.161 Y121.233 E7.05436
G1 X102.628 Y118.767 E7.19391
G1 X102.070 Y118.767 E7.21622
G1 X99.603 Y121.233 E7.35576
G1 X99.045 Y121.233 E7.37807
G1 X101.512 Y118.767 E7.51762
