; generated by Slic3r 1.1.7 on 2014-09-16 at 14:54:53

; perimeters extrusion width = 0.35mm
; infill extrusion width = 0.39mm
; solid infill extrusion width = 0.39mm
; top infill extrusion width = 0.39mm

G21 ; set units to millimeters
M107
 M84 S0 ; don't let go of motors
M108 S155 ; make sure extruder and electronics fans are running
M140 S70
M104 S210
G28 X0 Y0; home X and Y
G1 F10800 ; set high speed
G1 Y20 ; move into the platform along Y
G1 X205 ; move off the platform end along X
G28 Z0 ; home Z now - blobs won't hit the platform
G1 F400
G1 Z10 ; lift Z a little
M190 S70
M109 S210 ; wait for temperature to be reached
G28 Z0 ; home Z
G92 E0 ; reset extruder position to 0
G1 F300 ; set suitable speed
G1 E25 ; extrude 25mm
G92 E0 ; reset extruder position to 0 - needed for cura/SF
G1 F10800 ; set wipe speed
G1 X0 ; wipe nozzle and move to X0
G90 ; use absolute coordinates
G92 E0
M82 ; use absolute distances for extrusion
G1 F1800.000 E-1.00000
G92 E0
G1 Z0.350 F7800.000
G1 X66.915 Y69.753 F7800.000
G1 E1.00000 F1800.000
G1 X68.668 Y68.274 E1.20854 F1080.000
G1 X70.820 Y67.481 E1.41708
G1 X72.000 Y67.375 E1.52479
G1 X128.000 Y67.375 E6.61685
G1 X130.259 Y67.772 E6.82539
G1 X132.247 Y68.915 E7.03393 F1080.000
G1 X133.726 Y70.668 E7.24248
G1 X134.519 Y72.820 E7.45102
G1 X134.625 Y74.000 E7.55873
G1 X134.625 Y166.000 E15.92425
G1 X134.228 Y168.259 E16.13279
G1 X133.085 Y170.247 E16.34133
G1 X131.332 Y171.726 E16.54988
G1 X129.180 Y172.519 E16.75842
G1 X128.000 Y172.625 E16.86613
G1 X72.000 Y172.625 E21.95818
G1 X69.741 Y172.228 E22.16673
G1 X67.753 Y171.085 E22.37527
G1 X66.274 Y169.332 E22.58381
G1 X65.481 Y167.180 E22.79235
G1 X65.375 Y166.000 E22.90006
G1 X65.375 Y74.000 E31.26558
G1 X65.772 Y71.741 E31.47413
G1 X66.889 Y69.799 E31.67790
G1 F1800.000 E30.67790
G92 E0
G1 X124.600 Y162.600 F7800.000
G1 E1.00000 F1800.000
G1 X105.400 Y162.600 E2.74581 F540.000
G1 X105.400 Y143.400 E4.49162
G1 X124.600 Y143.400 E6.23742
G1 X124.600 Y162.547 E7.97846
G1 X123.975 Y161.975 F7800.000
G1 X106.025 Y161.975 E9.61062 F540.000
G1 X106.025 Y144.025 E11.24279
G1 X123.975 Y144.025 E12.87495
G1 X123.975 Y161.922 E14.50235
G1 F1800.000 E13.50235
G92 E0
G1 X111.350 Y152.350 F7800.000
G1 E1.00000 F1800.000
G1 X106.650 Y152.350 E1.42737 F378.000
G1 X106.650 Y144.650 E2.12753
G1 X111.350 Y144.650 E2.55490
G1 X111.350 Y152.298 E3.25028
G1 X111.047 Y152.175 F7800.000
G1 X112.650 Y152.350 F7800.000
G1 X112.650 Y144.650 E3.95044 F378.000
G1 X117.350 Y144.650 E4.37781
G1 X117.350 Y152.350 E5.07796
G1 X112.703 Y152.350 E5.50056
G1 X112.825 Y152.047 F7800.000
G1 X118.650 Y152.350 F7800.000
G1 X118.650 Y144.650 E6.20072 F378.000
G1 X123.350 Y144.650 E6.62809
G1 X123.350 Y152.350 E7.32824
G1 X118.703 Y152.350 E7.75084
G1 X118.825 Y152.047 F7800.000
G1 X118.650 Y153.650 F7800.000
G1 X123.350 Y153.650 E8.17821 F378.000
G1 X123.350 Y161.350 E8.87836
G1 X118.650 Y161.350 E9.30573
G1 X118.650 Y153.703 E10.00112
G1 X118.953 Y153.825 F7800.000
G1 X117.350 Y153.650 F7800.000
G1 X117.350 Y161.350 E10.70128 F378.000
G1 X112.650 Y161.350 E11.12864
G1 X112.650 Y153.650 E11.82880
G1 X117.297 Y153.650 E12.25140
G1 X117.175 Y153.953 F7800.000
G1 X111.350 Y153.650 F7800.000
G1 X111.350 Y161.350 E12.95155 F378.000
G1 X106.650 Y161.350 E13.37892
G1 X106.650 Y153.650 E14.07908
G1 X111.297 Y153.650 E14.50168
G1 X111.700 Y153.650 F7800.000
G1 F1800.000 E13.50168
G92 E0
G1 X94.600 Y162.600 F7800.000
G1 E1.00000 F1800.000
G1 X75.400 Y162.600 E2.74581 F540.000
G1 X75.400 Y143.400 E4.49162
G1 X94.600 Y143.400 E6.23742
G1 X94.600 Y162.547 E7.97846
G1 X93.975 Y161.975 F7800.000
G1 X76.025 Y161.975 E9.61062 F540.000
G1 X76.025 Y144.025 E11.24279
G1 X93.975 Y144.025 E12.87495
G1 X93.975 Y161.922 E14.50235
G1 F1800.000 E13.50235
G92 E0
G1 X81.350 Y152.350 F7800.000
G1 E1.00000 F1800.000
G1 X76.650 Y152.350 E1.42737 F378.000
G1 X76.650 Y144.650 E2.12753
G1 X81.350 Y144.650 E2.55490
G1 X81.350 Y152.298 E3.25028
G1 X81.047 Y152.175 F7800.000
G1 X82.650 Y152.350 F7800.000
G1 X82.650 Y144.650 E3.95044 F378.000
G1 X87.350 Y144.650 E4.37781
G1 X87.350 Y152.350 E5.07796
G1 X82.703 Y152.350 E5.50056
G1 X82.825 Y152.047 F7800.000
G1 X88.650 Y152.350 F7800.000
G1 X88.650 Y144.650 E6.20072 F378.000
G1 X93.350 Y144.650 E6.62809
G1 X93.350 Y152.350 E7.32824
G1 X88.703 Y152.350 E7.75084
G1 X88.825 Y152.047 F7800.000
G1 X88.650 Y153.650 F7800.000
G1 X93.350 Y153.650 E8.17821 F378.000
G1 X93.350 Y161.350 E8.87836
G1 X88.650 Y161.350 E9.30573
G1 X88.650 Y153.703 E10.00112
G1 X88.953 Y153.825 F7800.000
G1 X87.350 Y153.650 F7800.000
G1 X87.350 Y161.350 E10.70128 F378.000
G1 X82.650 Y161.350 E11.12864
G1 X82.650 Y153.650 E11.82880
G1 X87.297 Y153.650 E12.25140
G1 X87.175 Y153.953 F7800.000
G1 X81.350 Y153.650 F7800.000
G1 X81.350 Y161.350 E12.95155 F378.000
G1 X76.650 Y161.350 E13.37892
G1 X76.650 Y153.650 E14.07908
G1 X81.297 Y153.650 E14.50168
G1 X81.700 Y153.650 F7800.000
G1 F1800.000 E13.50168
G92 E0
G1 X73.600 Y164.400 F7800.000
G1 E1.00000 F1800.000
G1 X73.600 Y75.600 E9.07459 F540.000
G1 X126.400 Y75.600 E13.87571
G1 X126.400 Y164.400 E21.95030
G1 X73.652 Y164.400 E26.74664
G1 X72.975 Y165.025 F7800.000
G1 X72.975 Y74.975 E34.93487 F540.000
G1 X127.025 Y74.975 E39.84964
G1 X127.025 Y165.025 E48.03787
G1 X73.027 Y165.025 E52.94786
G1 X72.350 Y165.650 F7800.000
G1 X72.350 Y74.350 E61.24973 F378.000
G1 X127.650 Y74.350 E66.27813
G1 X127.650 Y165.650 E74.58000
G1 X72.403 Y165.650 E79.60363
G1 X72.525 Y165.347 F7800.000
G1 X74.073 Y163.967 F7800.000
G1 X74.033 Y163.927 E79.60878 F1080.000
G1 X74.033 Y163.042 E79.68923
G1 X74.958 Y163.967 E79.80814
G1 X104.967 Y162.126 F7800.000
G1 X95.033 Y152.192 E81.08564 F1080.000
G1 X95.033 Y151.307 E81.16609
G1 X104.967 Y161.242 E82.44360
G1 X104.967 Y160.357 E82.52404
G1 X95.033 Y150.422 E83.80155
G1 X95.033 Y149.538 E83.88199
G1 X104.967 Y159.472 E85.15950
G1 X104.967 Y158.587 E85.23995
G1 X95.033 Y148.653 E86.51745
G1 X95.033 Y147.768 E86.59790
G1 X104.967 Y157.703 E87.87540
G1 X104.967 Y156.818 E87.95585
G1 X95.033 Y146.883 E89.23335
G1 X95.033 Y145.999 E89.31380
G1 X104.967 Y155.933 E90.59130
G1 X104.967 Y155.048 E90.67175
G1 X95.033 Y145.114 E91.94925
G1 X95.033 Y144.229 E92.02970
G1 X104.967 Y154.164 E93.30720
G1 X106.000 Y144.000 F7800.000
G1 X127.000 Y137.000 F7800.000
G1 X125.967 Y145.082 F7800.000
G1 X125.033 Y144.148 E93.42736 F1080.000
G1 X125.033 Y145.033 E93.50781
G1 X125.967 Y145.967 E93.62797
G1 X125.967 Y146.852 E93.70841
G1 X125.033 Y145.918 E93.82857
G1 X125.033 Y146.802 E93.90902
G1 X125.967 Y147.737 E94.02918
G1 X125.967 Y148.621 E94.10963
G1 X125.033 Y147.687 E94.22978
G1 X125.033 Y148.572 E94.31023
G1 X125.967 Y149.506 E94.43039
G1 X125.967 Y150.391 E94.51084
G1 X125.033 Y149.457 E94.63100
G1 X125.033 Y150.341 E94.71145
G1 X125.967 Y151.276 E94.83160
G1 X125.967 Y152.160 E94.91205
G1 X125.033 Y151.226 E95.03221
G1 X125.033 Y152.111 E95.11266
G1 X125.967 Y153.045 E95.23282
G1 X125.967 Y153.930 E95.31327
G1 X125.033 Y152.995 E95.43342
G1 X125.033 Y153.880 E95.51387
G1 X125.967 Y154.815 E95.63403
G1 X125.967 Y155.699 E95.71448
G1 X125.033 Y154.765 E95.83464
G1 X125.033 Y155.650 E95.91508
G1 X125.967 Y156.584 E96.03524
G1 X125.967 Y157.469 E96.11569
G1 X125.033 Y156.534 E96.23585
G1 X125.033 Y157.419 E96.31630
G1 X125.967 Y158.354 E96.43645
G1 X125.967 Y159.238 E96.51690
G1 X125.033 Y158.304 E96.63706
G1 X125.033 Y159.189 E96.71751
G1 X125.967 Y160.123 E96.83767
G1 X125.967 Y161.008 E96.91812
G1 X125.033 Y160.073 E97.03827
G1 X125.033 Y160.958 E97.11872
G1 X125.967 Y161.893 E97.23888
G1 X125.967 Y162.777 E97.31933
G1 X125.033 Y161.843 E97.43949
G1 X125.033 Y162.728 E97.51994
G1 X125.967 Y163.662 E97.64009
G1 X125.388 Y163.967 E97.69965
G1 X124.453 Y163.033 E97.81981
G1 X123.569 Y163.033 E97.90026
G1 X124.503 Y163.967 E98.02041
G1 X123.618 Y163.967 E98.10086
G1 X122.684 Y163.033 E98.22102
G1 X121.799 Y163.033 E98.30147
G1 X122.733 Y163.967 E98.42163
G1 X121.849 Y163.967 E98.50207
G1 X120.914 Y163.033 E98.62223
G1 X120.030 Y163.033 E98.70268
G1 X120.964 Y163.967 E98.82284
G1 X120.079 Y163.967 E98.90329
G1 X119.145 Y163.033 E99.02344
G1 X118.260 Y163.033 E99.10389
G1 X119.195 Y163.967 E99.22405
G1 X118.310 Y163.967 E99.30450
G1 X117.375 Y163.033 E99.42466
G1 X116.491 Y163.033 E99.50511
G1 X117.425 Y163.967 E99.62526
G1 X116.540 Y163.967 E99.70571
G1 X115.606 Y163.033 E99.82587
G1 X114.721 Y163.033 E99.90632
G1 X115.656 Y163.967 E100.02648
G1 X114.771 Y163.967 E100.10692
G1 X113.836 Y163.033 E100.22708
G1 X112.952 Y163.033 E100.30753
G1 X113.886 Y163.967 E100.42769
G1 X113.001 Y163.967 E100.50814
G1 X112.067 Y163.033 E100.62829
G1 X111.182 Y163.033 E100.70874
G1 X112.117 Y163.967 E100.82890
G1 X111.232 Y163.967 E100.90935
G1 X110.297 Y163.033 E101.02951
G1 X109.413 Y163.033 E101.10996
G1 X110.347 Y163.967 E101.23011
G1 X109.462 Y163.967 E101.31056
G1 X108.528 Y163.033 E101.43072
G1 X107.643 Y163.033 E101.51117
G1 X108.578 Y163.967 E101.63133
G1 X107.693 Y163.967 E101.71177
G1 X106.758 Y163.033 E101.83193
G1 X105.874 Y163.033 E101.91238
G1 X106.808 Y163.967 E102.03254
G1 X105.923 Y163.967 E102.11299
G1 X95.033 Y153.077 E103.51345
G1 X95.033 Y153.961 E103.59390
G1 X105.039 Y163.967 E104.88059
G1 X104.154 Y163.967 E104.96104
G1 X95.033 Y154.846 E106.13396
G1 X95.033 Y155.731 E106.21441
G1 X103.269 Y163.967 E107.27356
G1 X102.384 Y163.967 E107.35401
G1 X95.033 Y156.616 E108.29939
G1 X95.033 Y157.500 E108.37984
G1 X101.500 Y163.967 E109.21144
G1 X100.615 Y163.967 E109.29189
G1 X95.033 Y158.385 E110.00973
G1 X95.033 Y159.270 E110.09017
G1 X99.730 Y163.967 E110.69424
G1 X98.846 Y163.967 E110.77468
G1 X95.033 Y160.155 E111.26497
G1 X95.033 Y161.039 E111.34542
G1 X97.961 Y163.967 E111.72194
G1 X97.076 Y163.967 E111.80239
G1 X95.033 Y161.924 E112.06513
G1 X95.033 Y162.809 E112.14558
G1 X96.191 Y163.967 E112.29456
G1 X95.307 Y163.967 E112.37501
G1 X94.372 Y163.033 E112.49516
G1 X93.487 Y163.033 E112.57561
G1 X94.422 Y163.967 E112.69577
G1 X93.537 Y163.967 E112.77622
G1 X92.603 Y163.033 E112.89637
G1 X91.718 Y163.033 E112.97682
G1 X92.652 Y163.967 E113.09698
G1 X91.768 Y163.967 E113.17743
G1 X90.833 Y163.033 E113.29759
G1 X89.948 Y163.033 E113.37804
G1 X90.883 Y163.967 E113.49819
G1 X89.998 Y163.967 E113.57864
G1 X89.064 Y163.033 E113.69880
G1 X88.179 Y163.033 E113.77925
G1 X89.113 Y163.967 E113.89941
G1 X88.229 Y163.967 E113.97985
G1 X87.294 Y163.033 E114.10001
G1 X86.410 Y163.033 E114.18046
G1 X87.344 Y163.967 E114.30062
G1 X86.459 Y163.967 E114.38107
G1 X85.525 Y163.033 E114.50122
G1 X84.640 Y163.033 E114.58167
G1 X85.574 Y163.967 E114.70183
G1 X84.690 Y163.967 E114.78228
G1 X83.755 Y163.033 E114.90244
G1 X82.871 Y163.033 E114.98289
G1 X83.805 Y163.967 E115.10304
G1 X82.920 Y163.967 E115.18349
G1 X81.986 Y163.033 E115.30365
G1 X81.101 Y163.033 E115.38410
G1 X82.035 Y163.967 E115.50426
G1 X81.151 Y163.967 E115.58470
G1 X80.216 Y163.033 E115.70486
G1 X79.332 Y163.033 E115.78531
G1 X80.266 Y163.967 E115.90547
G1 X79.381 Y163.967 E115.98592
G1 X78.447 Y163.033 E116.10607
G1 X77.562 Y163.033 E116.18652
G1 X78.497 Y163.967 E116.30668
G1 X77.612 Y163.967 E116.38713
G1 X76.677 Y163.033 E116.50729
G1 X75.793 Y163.033 E116.58774
G1 X76.727 Y163.967 E116.70789
G1 X75.842 Y163.967 E116.78834
G1 X74.033 Y162.158 E117.02103
G1 X74.033 Y161.273 E117.10148
G1 X74.967 Y162.207 E117.22164
G1 X74.967 Y161.323 E117.30209
G1 X74.033 Y160.388 E117.42224
G1 X74.033 Y159.504 E117.50269
G1 X74.967 Y160.438 E117.62285
G1 X74.967 Y159.553 E117.70330
G1 X74.033 Y158.619 E117.82345
G1 X74.033 Y157.734 E117.90390
G1 X74.967 Y158.668 E118.02406
G1 X74.967 Y157.784 E118.10451
G1 X74.033 Y156.849 E118.22467
G1 X74.033 Y155.965 E118.30512
G1 X74.967 Y156.899 E118.42527
G1 X74.967 Y156.014 E118.50572
G1 X74.033 Y155.080 E118.62588
G1 X74.033 Y154.195 E118.70633
G1 X74.967 Y155.129 E118.82649
G1 X74.967 Y154.245 E118.90693
G1 X74.033 Y153.310 E119.02709
G1 X74.033 Y152.426 E119.10754
G1 X74.967 Y153.360 E119.22770
G1 X74.967 Y152.475 E119.30815
G1 X74.033 Y151.541 E119.42830
G1 X74.033 Y150.656 E119.50875
G1 X74.967 Y151.591 E119.62891
G1 X74.967 Y150.706 E119.70936
G1 X74.033 Y149.771 E119.82952
G1 X74.033 Y148.887 E119.90997
G1 X74.967 Y149.821 E120.03012
G1 X74.967 Y148.936 E120.11057
G1 X74.033 Y148.002 E120.23073
G1 X74.033 Y147.117 E120.31118
G1 X74.967 Y148.052 E120.43133
G1 X74.967 Y147.167 E120.51178
G1 X74.033 Y146.232 E120.63194
G1 X74.033 Y145.348 E120.71239
G1 X74.967 Y146.282 E120.83255
G1 X74.967 Y145.397 E120.91300
G1 X74.033 Y144.463 E121.03315
G1 X74.033 Y143.578 E121.11360
G1 X74.967 Y144.513 E121.23376
G1 X74.967 Y143.628 E121.31421
G1 X74.033 Y142.693 E121.43437
G1 X74.033 Y141.809 E121.51481
G1 X75.191 Y142.967 E121.66379
G1 X76.076 Y142.967 E121.74424
G1 X74.033 Y140.924 E122.00698
G1 X74.033 Y140.039 E122.08743
G1 X76.961 Y142.967 E122.46395
G1 X77.846 Y142.967 E122.54440
G1 X74.033 Y139.155 E123.03469
G1 X74.033 Y138.270 E123.11513
G1 X78.730 Y142.967 E123.71920
G1 X79.615 Y142.967 E123.79965
G1 X74.033 Y137.385 E124.51748
G1 X74.033 Y136.500 E124.59793
G1 X80.500 Y142.967 E125.42953
G1 X81.384 Y142.967 E125.50998
G1 X74.033 Y135.616 E126.45536
G1 X74.033 Y134.731 E126.53581
G1 X82.269 Y142.967 E127.59496
G1 X83.154 Y142.967 E127.67541
G1 X74.033 Y133.846 E128.84833
G1 X74.033 Y132.961 E128.92878
G1 X84.039 Y142.967 E130.21547
G1 X84.923 Y142.967 E130.29592
G1 X74.033 Y132.077 E131.69638
G1 X74.033 Y131.192 E131.77683
G1 X85.808 Y142.967 E133.29107
G1 X86.693 Y142.967 E133.37152
G1 X74.033 Y130.307 E134.99953
G1 X74.033 Y129.422 E135.07998
G1 X87.578 Y142.967 E136.82176
G1 X88.462 Y142.967 E136.90221
G1 X74.033 Y128.538 E138.75776
G1 X74.033 Y127.653 E138.83821
G1 X89.347 Y142.967 E140.80753
G1 X90.232 Y142.967 E140.88798
G1 X74.033 Y126.768 E142.97108
G1 X74.033 Y125.883 E143.05153
G1 X91.117 Y142.967 E145.24840
G1 X92.001 Y142.967 E145.32885
G1 X74.033 Y124.999 E147.63949
G1 X74.033 Y124.114 E147.71994
G1 X92.886 Y142.967 E150.14435
G1 X93.771 Y142.967 E150.22480
G1 X74.033 Y123.229 E152.76299
G1 X74.033 Y122.344 E152.84343
G1 X104.967 Y153.279 E156.82141
G1 X104.967 Y152.394 E156.90186
G1 X74.033 Y121.460 E160.87983
G1 X74.033 Y120.575 E160.96028
G1 X104.967 Y151.509 E164.93825
G1 X104.967 Y150.625 E165.01870
G1 X74.033 Y119.690 E168.99667
G1 X74.033 Y118.806 E169.07712
G1 X104.967 Y149.740 E173.05509
G1 X104.967 Y148.855 E173.13554
G1 X74.033 Y117.921 E177.11351
G1 X74.033 Y117.036 E177.19396
G1 X104.967 Y147.970 E181.17193
G1 X104.967 Y147.086 E181.25238
G1 X74.033 Y116.151 E185.23036
G1 X74.033 Y115.267 E185.31081
G1 X104.967 Y146.201 E189.28878
G1 X104.967 Y145.316 E189.36923
G1 X74.033 Y114.382 E193.34720
G1 X74.033 Y113.497 E193.42765
G1 X104.967 Y144.431 E197.40562
G1 X104.967 Y143.547 E197.48607
G1 X74.033 Y112.612 E201.46404
G1 X74.033 Y111.728 E201.54449
G1 X105.272 Y142.967 E205.56171
G1 X106.157 Y142.967 E205.64216
G1 X74.033 Y110.843 E209.77315
G1 X74.033 Y109.958 E209.85360
G1 X107.042 Y142.967 E214.09837
G1 X107.927 Y142.967 E214.17882
G1 X74.033 Y109.073 E218.53736
G1 X74.033 Y108.189 E218.61780
G1 X108.811 Y142.967 E223.09011
G1 X109.696 Y142.967 E223.17056
G1 X74.033 Y107.304 E227.75664
G1 X74.033 Y106.419 E227.83709
G1 X110.581 Y142.967 E232.53695
G1 X111.466 Y142.967 E232.61740
G1 X74.033 Y105.534 E237.43102
G1 X74.033 Y104.650 E237.51147
G1 X112.350 Y142.967 E242.43887
G1 X113.235 Y142.967 E242.51932
G1 X74.033 Y103.765 E247.56049
G1 X74.033 Y102.880 E247.64093
G1 X114.120 Y142.967 E252.79588
G1 X115.005 Y142.967 E252.87632
G1 X74.033 Y101.995 E258.14504
G1 X74.033 Y101.111 E258.22549
G1 X115.889 Y142.967 E263.60797
G1 X116.774 Y142.967 E263.68842
G1 X74.033 Y100.226 E269.18468
G1 X74.033 Y99.341 E269.26513
G1 X117.659 Y142.967 E274.87516
G1 X118.544 Y142.967 E274.95561
G1 X74.033 Y98.457 E280.67941
G1 X74.033 Y97.572 E280.75986
G1 X119.428 Y142.967 E286.59743
G1 X120.313 Y142.967 E286.67788
G1 X74.033 Y96.687 E292.62922
G1 X74.033 Y95.802 E292.70967
G1 X121.198 Y142.967 E298.77479
G1 X122.082 Y142.967 E298.85524
G1 X74.033 Y94.918 E305.03413
G1 X74.033 Y94.033 E305.11458
