; generated by Slic3r 1.1.7 on 2014-09-16 at 14:54:09

; perimeters extrusion width = 0.35mm
; infill extrusion width = 0.39mm
; solid infill extrusion width = 0.39mm
; top infill extrusion width = 0.39mm

G21 ; set units to millimeters
M107
 M84 S0 ; don't let go of motors
M108 S155 ; make sure extruder and electronics fans are running
M140 S70
M104 S210
G28 X0 Y0; home X and Y
G1 F10800 ; set high speed
G1 Y20 ; move into the platform along Y
G1 X205 ; move off the platform end along X
G28 Z0 ; home Z now - blobs won't hit the platform
G1 F400
G1 Z10 ; lift Z a little
M190 S70
M109 S210 ; wait for temperature to be reached
G28 Z0 ; home Z
G92 E0 ; reset extruder position to 0
G1 F300 ; set suitable speed
G1 E25 ; extrude 25mm
G92 E0 ; reset extruder position to 0 - needed for cura/SF
G1 F10800 ; set wipe speed
G1 X0 ; wipe nozzle and move to X0
G90 ; use absolute coordinates
G92 E0
M82 ; use absolute distances for extrusion
G1 F1800.000 E-1.00000
G92 E0
G1 Z0.350 F7800.000
G1 X50.668 Y86.274 F7800.000
G1 E1.00000 F1800.000
G1 X52.820 Y85.481 E1.20854 F1080.000
G1 X54.000 Y85.375 E1.31625
G1 X146.000 Y85.375 E9.68177
G1 X148.259 Y85.772 E9.89031
G1 X150.247 Y86.915 E10.09886 F1080.000
G1 X151.726 Y88.668 E10.30740
G1 X152.519 Y90.820 E10.51594
G1 X152.625 Y92.000 E10.62365
G1 X152.625 Y148.000 E15.71571
G1 X152.228 Y150.259 E15.92425
G1 X151.085 Y152.247 E16.13279
G1 X149.332 Y153.726 E16.34133
G1 X147.180 Y154.519 E16.54988
G1 X146.000 Y154.625 E16.65759
G1 X54.000 Y154.625 E25.02311
G1 X51.741 Y154.228 E25.23165
G1 X49.753 Y153.085 E25.44019
G1 X48.274 Y151.332 E25.64873
G1 X47.481 Y149.180 E25.85728
G1 X47.375 Y148.000 E25.96499
G1 X47.375 Y92.000 E31.05704
G1 X47.772 Y89.741 E31.26558
G1 X48.915 Y87.753 E31.47413
G1 X50.628 Y86.308 E31.67789
G1 F1800.000 E30.67789
G92 E0
G1 X76.600 Y114.600 F7800.000
G1 E1.00000 F1800.000
G1 X57.400 Y114.600 E2.74581 F540.000
G1 X57.400 Y95.400 E4.49162
G1 X76.600 Y95.400 E6.23742
G1 X76.600 Y114.547 E7.97846
G1 X75.975 Y113.975 F7800.000
G1 X58.025 Y113.975 E9.61062 F540.000
G1 X58.025 Y96.025 E11.24279
G1 X75.975 Y96.025 E12.87495
G1 X75.975 Y113.922 E14.50235
G1 X75.350 Y113.350 F7800.000
G1 X67.650 Y113.350 E15.20250 F378.000
G1 X67.650 Y108.650 E15.62987
G1 X75.350 Y108.650 E16.33003
G1 X75.350 Y113.298 E16.75263
G1 X75.047 Y113.175 F7800.000
G1 X75.350 Y107.350 F7800.000
G1 X67.650 Y107.350 E17.45278 F378.000
G1 X67.650 Y102.650 E17.88015
G1 X75.350 Y102.650 E18.58031
G1 X75.350 Y107.298 E19.00290
G1 X75.047 Y107.175 F7800.000
G1 X75.350 Y101.350 F7800.000
G1 X67.650 Y101.350 E19.70306 F378.000
G1 X67.650 Y96.650 E20.13043
G1 X75.350 Y96.650 E20.83059
G1 X75.350 Y101.298 E21.25318
G1 X75.047 Y101.175 F7800.000
G1 X66.350 Y101.350 F7800.000
G1 X58.650 Y101.350 E21.95334 F378.000
G1 X58.650 Y96.650 E22.38071
G1 X66.350 Y96.650 E23.08087
G1 X66.350 Y101.298 E23.50346
G1 X66.047 Y101.175 F7800.000
G1 X66.350 Y102.650 F7800.000
G1 X66.350 Y107.350 E23.93083 F378.000
G1 X58.650 Y107.350 E24.63099
G1 X58.650 Y102.650 E25.05836
G1 X66.297 Y102.650 E25.75374
G1 X66.175 Y102.953 F7800.000
G1 X66.350 Y108.650 F7800.000
G1 X66.350 Y113.350 E26.18111 F378.000
G1 X58.650 Y113.350 E26.88127
G1 X58.650 Y108.650 E27.30864
G1 X66.297 Y108.650 E28.00402
G1 X66.700 Y108.650 F7800.000
G1 F1800.000 E27.00402
G92 E0
G1 X57.400 Y125.400 F7800.000
G1 E1.00000 F1800.000
G1 X76.600 Y125.400 E2.74581 F540.000
G1 X76.600 Y144.600 E4.49162
G1 X57.400 Y144.600 E6.23742
G1 X57.400 Y125.453 E7.97846
G1 X58.025 Y126.025 F7800.000
G1 X75.975 Y126.025 E9.61062 F540.000
G1 X75.975 Y143.975 E11.24279
G1 X58.025 Y143.975 E12.87495
G1 X58.025 Y126.078 E14.50235
G1 F1800.000 E13.50235
G92 E0
G1 X67.650 Y138.650 F7800.000
G1 E1.00000 F1800.000
G1 X75.350 Y138.650 E1.70016 F378.000
G1 X75.350 Y143.350 E2.12753
G1 X67.650 Y143.350 E2.82768
G1 X67.650 Y138.703 E3.25028
G1 X67.953 Y138.825 F7800.000
G1 X67.650 Y137.350 F7800.000
G1 X67.650 Y132.650 E3.67765 F378.000
G1 X75.350 Y132.650 E4.37781
G1 X75.350 Y137.350 E4.80517
G1 X67.703 Y137.350 E5.50056
G1 X67.825 Y137.047 F7800.000
G1 X67.650 Y131.350 F7800.000
G1 X67.650 Y126.650 E5.92793 F378.000
G1 X75.350 Y126.650 E6.62809
G1 X75.350 Y131.350 E7.05545
G1 X67.703 Y131.350 E7.75084
G1 X67.825 Y131.047 F7800.000
G1 X66.350 Y131.350 F7800.000
G1 X58.650 Y131.350 E8.45100 F378.000
G1 X58.650 Y126.650 E8.87836
G1 X66.350 Y126.650 E9.57852
G1 X66.350 Y131.298 E10.00112
G1 X66.047 Y131.175 F7800.000
G1 X66.350 Y132.650 F7800.000
G1 X66.350 Y137.350 E10.42849 F378.000
G1 X58.650 Y137.350 E11.12864
G1 X58.650 Y132.650 E11.55601
G1 X66.297 Y132.650 E12.25140
G1 X66.175 Y132.953 F7800.000
G1 X66.350 Y138.650 F7800.000
G1 X66.350 Y143.350 E12.67877 F378.000
G1 X58.650 Y143.350 E13.37892
G1 X58.650 Y138.650 E13.80629
G1 X66.297 Y138.650 E14.50168
G1 X66.700 Y138.650 F7800.000
G1 F1800.000 E13.50168
G92 E0
G1 X55.600 Y146.400 F7800.000
G1 E1.00000 F1800.000
G1 X55.600 Y93.600 E5.80112 F540.000
G1 X144.400 Y93.600 E13.87571
G1 X144.400 Y146.400 E18.67683
G1 X55.652 Y146.400 E26.74664
G1 X54.975 Y147.025 F7800.000
G1 X54.975 Y92.975 E31.66141 F540.000
G1 X145.025 Y92.975 E39.84964
G1 X145.025 Y147.025 E44.76440
G1 X55.027 Y147.025 E52.94785
G1 X54.350 Y147.650 F7800.000
G1 X54.350 Y92.350 E57.97626 F378.000
G1 X145.650 Y92.350 E66.27813
G1 X145.650 Y147.650 E71.30654
G1 X54.403 Y147.650 E79.60363
G1 X54.525 Y147.347 F7800.000
G1 X56.033 Y145.927 F7800.000
G1 X56.073 Y145.967 E79.60878 F1080.000
G1 X56.958 Y145.967 E79.68922
G1 X56.033 Y145.042 E79.80814
G1 X56.033 Y144.158 E79.88859
G1 X57.842 Y145.967 E80.12128
G1 X57.793 Y145.033 E80.20636
G1 X58.727 Y145.967 E80.32652
G1 X59.612 Y145.967 E80.40697
G1 X58.677 Y145.033 E80.52712
G1 X59.562 Y145.033 E80.60757
G1 X60.497 Y145.967 E80.72773
G1 X61.381 Y145.967 E80.80818
G1 X60.447 Y145.033 E80.92834
G1 X61.332 Y145.033 E81.00878
G1 X62.266 Y145.967 E81.12894
G1 X63.151 Y145.967 E81.20939
G1 X62.216 Y145.033 E81.32955
G1 X63.101 Y145.033 E81.41000
G1 X64.035 Y145.967 E81.53015
G1 X64.920 Y145.967 E81.61060
G1 X63.986 Y145.033 E81.73076
G1 X64.871 Y145.033 E81.81121
G1 X65.805 Y145.967 E81.93136
G1 X66.690 Y145.967 E82.01181
G1 X65.755 Y145.033 E82.13197
G1 X66.640 Y145.033 E82.21242
G1 X67.574 Y145.967 E82.33258
G1 X68.459 Y145.967 E82.41303
G1 X67.525 Y145.033 E82.53318
G1 X68.410 Y145.033 E82.61363
G1 X69.344 Y145.967 E82.73379
G1 X70.229 Y145.967 E82.81424
G1 X69.294 Y145.033 E82.93439
G1 X70.179 Y145.033 E83.01484
G1 X71.113 Y145.967 E83.13500
G1 X71.998 Y145.967 E83.21545
G1 X71.064 Y145.033 E83.33560
G1 X71.948 Y145.033 E83.41605
G1 X72.883 Y145.967 E83.53621
G1 X73.768 Y145.967 E83.61666
G1 X72.833 Y145.033 E83.73682
G1 X73.718 Y145.033 E83.81727
G1 X74.652 Y145.967 E83.93742
G1 X75.537 Y145.967 E84.01787
G1 X74.603 Y145.033 E84.13803
G1 X75.487 Y145.033 E84.21848
G1 X76.422 Y145.967 E84.33863
G1 X77.307 Y145.967 E84.41908
G1 X76.372 Y145.033 E84.53924
G1 X77.033 Y144.809 E84.60267
G1 X78.191 Y145.967 E84.75165
G1 X79.076 Y145.967 E84.83210
G1 X77.033 Y143.924 E85.09484
G1 X77.033 Y143.039 E85.17529
G1 X79.961 Y145.967 E85.55181
G1 X80.846 Y145.967 E85.63226
G1 X77.033 Y142.155 E86.12255
G1 X77.033 Y141.270 E86.20299
G1 X81.730 Y145.967 E86.80706
G1 X82.615 Y145.967 E86.88750
G1 X77.033 Y140.385 E87.60534
G1 X77.033 Y139.500 E87.68579
G1 X83.500 Y145.967 E88.51739
G1 X84.384 Y145.967 E88.59784
G1 X77.033 Y138.616 E89.54322
G1 X77.033 Y137.731 E89.62367
G1 X85.269 Y145.967 E90.68282
G1 X86.154 Y145.967 E90.76326
G1 X77.033 Y136.846 E91.93619
G1 X77.033 Y135.961 E92.01663
G1 X87.039 Y145.967 E93.30333
G1 X87.923 Y145.967 E93.38378
G1 X77.033 Y135.077 E94.78424
G1 X77.033 Y134.192 E94.86469
G1 X88.808 Y145.967 E96.37893
G1 X89.693 Y145.967 E96.45938
G1 X77.033 Y133.307 E98.08739
G1 X77.033 Y132.422 E98.16784
G1 X90.578 Y145.967 E99.90962
G1 X91.462 Y145.967 E99.99007
G1 X77.033 Y131.538 E101.84562
G1 X77.033 Y130.653 E101.92607
G1 X92.347 Y145.967 E103.89539
G1 X93.232 Y145.967 E103.97584
G1 X77.033 Y129.768 E106.05894
G1 X77.033 Y128.883 E106.13939
G1 X94.117 Y145.967 E108.33626
G1 X95.001 Y145.967 E108.41671
G1 X77.033 Y127.999 E110.72735
G1 X77.033 Y127.114 E110.80780
G1 X95.886 Y145.967 E113.23221
G1 X96.771 Y145.967 E113.31266
G1 X77.033 Y126.229 E115.85084
G1 X77.033 Y125.344 E115.93129
G1 X97.656 Y145.967 E118.58325
G1 X98.540 Y145.967 E118.66370
G1 X67.606 Y115.033 E122.64167
G1 X66.721 Y115.033 E122.72212
G1 X76.656 Y124.967 E123.99962
G1 X75.771 Y124.967 E124.08007
G1 X65.836 Y115.033 E125.35757
G1 X64.952 Y115.033 E125.43802
G1 X74.886 Y124.967 E126.71552
G1 X74.001 Y124.967 E126.79597
G1 X64.067 Y115.033 E128.07347
G1 X63.182 Y115.033 E128.15392
G1 X73.117 Y124.967 E129.43143
G1 X72.232 Y124.967 E129.51187
G1 X62.297 Y115.033 E130.78938
G1 X61.413 Y115.033 E130.86982
G1 X71.347 Y124.967 E132.14733
G1 X70.462 Y124.967 E132.22778
G1 X60.528 Y115.033 E133.50528
G1 X59.643 Y115.033 E133.58573
G1 X69.578 Y124.967 E134.86323
G1 X68.693 Y124.967 E134.94368
G1 X58.759 Y115.033 E136.22118
G1 X57.874 Y115.033 E136.30163
G1 X67.808 Y124.967 E137.57913
G1 X66.923 Y124.967 E137.65958
G1 X56.033 Y114.077 E139.06004
G1 X56.033 Y113.192 E139.14049
G1 X56.967 Y114.126 E139.26065
G1 X56.967 Y113.242 E139.34110
G1 X56.033 Y112.307 E139.46126
G1 X56.033 Y111.422 E139.54171
G1 X56.967 Y112.357 E139.66186
G1 X56.967 Y111.472 E139.74231
G1 X56.033 Y110.538 E139.86247
G1 X56.033 Y109.653 E139.94292
G1 X56.967 Y110.587 E140.06308
G1 X56.967 Y109.703 E140.14352
G1 X56.033 Y108.768 E140.26368
G1 X56.033 Y107.883 E140.34413
G1 X56.967 Y108.818 E140.46429
G1 X56.967 Y107.933 E140.54474
G1 X56.033 Y106.999 E140.66489
G1 X56.033 Y106.114 E140.74534
G1 X56.967 Y107.048 E140.86550
G1 X56.967 Y106.164 E140.94595
G1 X56.033 Y105.229 E141.06611
G1 X56.033 Y104.344 E141.14655
G1 X56.967 Y105.279 E141.26671
G1 X56.967 Y104.394 E141.34716
G1 X56.033 Y103.460 E141.46732
G1 X56.033 Y102.575 E141.54777
G1 X56.967 Y103.509 E141.66792
G1 X56.967 Y102.625 E141.74837
G1 X56.033 Y101.690 E141.86853
G1 X56.033 Y100.806 E141.94898
G1 X56.967 Y101.740 E142.06914
G1 X56.967 Y100.855 E142.14959
G1 X56.033 Y99.921 E142.26974
G1 X56.033 Y99.036 E142.35019
G1 X56.967 Y99.970 E142.47035
G1 X56.967 Y99.086 E142.55080
G1 X56.033 Y98.151 E142.67095
G1 X56.033 Y97.267 E142.75140
G1 X56.967 Y98.201 E142.87156
G1 X56.967 Y97.316 E142.95201
G1 X56.033 Y96.382 E143.07217
G1 X56.033 Y95.497 E143.15262
G1 X56.967 Y96.431 E143.27277
G1 X56.967 Y95.547 E143.35322
G1 X56.033 Y94.612 E143.47338
G1 X56.338 Y94.033 E143.53294
G1 X57.272 Y94.967 E143.65309
G1 X58.157 Y94.967 E143.73354
G1 X57.223 Y94.033 E143.85370
G1 X58.108 Y94.033 E143.93415
G1 X59.042 Y94.967 E144.05431
G1 X59.927 Y94.967 E144.13476
G1 X58.992 Y94.033 E144.25491
G1 X59.877 Y94.033 E144.33536
G1 X60.811 Y94.967 E144.45552
G1 X61.696 Y94.967 E144.53597
G1 X60.762 Y94.033 E144.65613
G1 X61.646 Y94.033 E144.73657
G1 X62.581 Y94.967 E144.85673
G1 X63.466 Y94.967 E144.93718
G1 X62.531 Y94.033 E145.05734
G1 X63.416 Y94.033 E145.13779
G1 X64.350 Y94.967 E145.25794
G1 X65.235 Y94.967 E145.33839
G1 X64.301 Y94.033 E145.45855
G1 X65.185 Y94.033 E145.53900
G1 X66.120 Y94.967 E145.65916
G1 X67.005 Y94.967 E145.73961
G1 X66.070 Y94.033 E145.85976
G1 X66.955 Y94.033 E145.94021
G1 X67.889 Y94.967 E146.06037
G1 X68.774 Y94.967 E146.14082
G1 X67.840 Y94.033 E146.26098
G1 X68.724 Y94.033 E146.34142
G1 X69.659 Y94.967 E146.46158
G1 X70.544 Y94.967 E146.54203
G1 X69.609 Y94.033 E146.66219
G1 X70.494 Y94.033 E146.74264
G1 X71.428 Y94.967 E146.86279
G1 X72.313 Y94.967 E146.94324
G1 X71.379 Y94.033 E147.06340
G1 X72.263 Y94.033 E147.14385
G1 X73.198 Y94.967 E147.26401
G1 X74.082 Y94.967 E147.34446
G1 X73.148 Y94.033 E147.46461
G1 X74.033 Y94.033 E147.54506
G1 X74.967 Y94.967 E147.66522
G1 X75.852 Y94.967 E147.74567
G1 X74.918 Y94.033 E147.86583
G1 X75.802 Y94.033 E147.94627
G1 X127.737 Y145.967 E154.62472
G1 X128.621 Y145.967 E154.70517
G1 X76.687 Y94.033 E161.38361
G1 X77.572 Y94.033 E161.46406
G1 X129.506 Y145.967 E168.14250
G1 X130.391 Y145.967 E168.22295
G1 X78.457 Y94.033 E174.90139
G1 X79.341 Y94.033 E174.98184
G1 X131.276 Y145.967 E181.66028
G1 X132.160 Y145.967 E181.74073
G1 X80.226 Y94.033 E188.41918
G1 X81.111 Y94.033 E188.49962
G1 X133.045 Y145.967 E195.17807
G1 X133.930 Y145.967 E195.25852
G1 X81.995 Y94.033 E201.93696
G1 X82.880 Y94.033 E202.01741
G1 X134.815 Y145.967 E208.69585
G1 X135.699 Y145.967 E208.77630
G1 X83.765 Y94.033 E215.45474
G1 X84.650 Y94.033 E215.53519
G1 X136.584 Y145.967 E222.21363
G1 X137.469 Y145.967 E222.29408
G1 X85.534 Y94.033 E228.97253
G1 X86.419 Y94.033 E229.05297
G1 X138.354 Y145.967 E235.73142
G1 X139.238 Y145.967 E235.81187
G1 X87.304 Y94.033 E242.49031
G1 X88.189 Y94.033 E242.57076
G1 X140.123 Y145.967 E249.24920
G1 X141.008 Y145.967 E249.32965
G1 X89.073 Y94.033 E256.00809
G1 X89.958 Y94.033 E256.08854
G1 X141.893 Y145.967 E262.76698
G1 X142.777 Y145.967 E262.84743
G1 X90.843 Y94.033 E269.52587
G1 X91.728 Y94.033 E269.60632
G1 X143.662 Y145.967 E276.28477
G1 X143.967 Y145.388 E276.34432
G1 X92.612 Y94.033 E282.94824
G1 X93.497 Y94.033 E283.02869
G1 X143.967 Y144.503 E289.51884
G1 X143.967 Y143.618 E289.59929
G1 X94.382 Y94.033 E295.97567
G1 X95.267 Y94.033 E296.05611
G1 X143.967 Y142.733 E302.31872
G1 X143.967 Y141.849 E302.39917
G1 X96.151 Y94.033 E308.54800
G1 X97.036 Y94.033 E308.62845
G1 X143.967 Y140.964 E314.66351
G1 X143.967 Y140.079 E314.74396
G1 X97.921 Y94.033 E320.66525
G1 X98.806 Y94.033 E320.74570
G1 X143.967 Y139.195 E326.55321
G1 X143.967 Y138.310 E326.63366
G1 X99.690 Y94.033 E332.32740
G1 X100.575 Y94.033 E332.40785
G1 X143.967 Y137.425 E337.98783
G1 X143.967 Y136.540 E338.06827
G1 X101.460 Y94.033 E343.53447
G1 X102.344 Y94.033 E343.61492
G1 X143.967 Y135.656 E348.96735
G1 X143.967 Y134.771 E349.04780
G1 X103.229 Y94.033 E354.28646
G1 X104.114 Y94.033 E354.36691
G1 X143.967 Y133.886 E359.49179
G1 X143.967 Y133.001 E359.57224
G1 X104.999 Y94.033 E364.58335
G1 X105.883 Y94.033 E364.66380
G1 X143.967 Y132.117 E369.56114
G1 X143.967 Y131.232 E369.64159
G1 X106.768 Y94.033 E374.42516
G1 X107.653 Y94.033 E374.50561
G1 X143.967 Y130.347 E379.17540
G1 X143.967 Y129.462 E379.25585
G1 X108.538 Y94.033 E383.81188
G1 X109.422 Y94.033 E383.89232
G1 X143.967 Y128.578 E388.33458
G1 X143.967 Y127.693 E388.41503
G1 X110.307 Y94.033 E392.74351
G1 X111.192 Y94.033 E392.82395
G1 X143.967 Y126.808 E397.03866
G1 X143.967 Y125.923 E397.11911
G1 X112.077 Y94.033 E401.22005
G1 X112.961 Y94.033 E401.30050
G1 X143.967 Y125.039 E405.28766
G1 X143.967 Y124.154 E405.36811
G1 X113.846 Y94.033 E409.24150
G1 X114.731 Y94.033 E409.32195
G1 X143.967 Y123.269 E413.08157
G1 X143.967 Y122.384 E413.16202
G1 X115.616 Y94.033 E416.80787
G1 X116.500 Y94.033 E416.88832
G1 X143.967 Y121.500 E420.42039
G1 X143.967 Y120.615 E420.50084
G1 X117.385 Y94.033 E423.91915
G1 X118.270 Y94.033 E423.99959
G1 X143.967 Y119.730 E427.30413
G1 X143.967 Y118.846 E427.38458
G1 X119.155 Y94.033 E430.57534
G1 X120.039 Y94.033 E430.65578
G1 X143.967 Y117.961 E433.73277
G1 X143.967 Y117.076 E433.81322
G1 X120.924 Y94.033 E436.77644
G1 X121.809 Y94.033 E436.85689
G1 X143.967 Y116.191 E439.70633
G1 X143.967 Y115.307 E439.78678
G1 X122.693 Y94.033 E442.52245
G1 X123.578 Y94.033 E442.60290
G1 X143.967 Y114.422 E445.22480
G1 X143.967 Y113.537 E445.30525
G1 X124.463 Y94.033 E447.81338
G1 X125.348 Y94.033 E447.89383
G1 X143.967 Y112.652 E450.28818
G1 X143.967 Y111.768 E450.36863
G1 X126.232 Y94.033 E452.64922
G1 X127.117 Y94.033 E452.72966
G1 X143.967 Y110.883 E454.89648
G1 X143.967 Y109.998 E454.97692
G1 X128.002 Y94.033 E457.02996
G1 X128.887 Y94.033 E457.11041
G1 X143.967 Y109.113 E459.04968
G1 X143.967 Y108.229 E459.13013
G1 X129.771 Y94.033 E460.95563
G1 X130.656 Y94.033 E461.03608
G1 X143.967 Y107.344 E462.74780
G1 X143.967 Y106.459 E462.82825
G1 X131.541 Y94.033 E464.42620
G1 X132.426 Y94.033 E464.50665
G1 X143.967 Y105.574 E465.99083
G1 X143.967 Y104.690 E466.07128
G1 X133.310 Y94.033 E467.44169
G1 X134.195 Y94.033 E467.52214
G1 X143.967 Y103.805 E468.77877
G1 X143.967 Y102.920 E468.85922
