; generated by Slic3r 1.1.7 on 2014-10-01 at 16:13:53

; perimeters extrusion width = 0.35mm
; infill extrusion width = 0.39mm
; solid infill extrusion width = 0.39mm
; top infill extrusion width = 0.39mm

G21 ; set units to millimeters
M107
M84 S0 ; don't let go of motors
M108 S155 ; make sure extruder and electronics fans are running
M140 S70
M104 S210
G28 X0 Y0; home X and Y
G1 F10800 ; set high speed
G1 Y20 ; move into the platform along Y
G1 X205 ; move off the platform end along X
G28 Z0 ; home Z now - blobs won't hit the platform
G1 F400
G1 Z10 ; lift Z a little
M190 S70
M109 S210 ; wait for temperature to be reached
G28 Z0 ; home Z
G92 E0 ; reset extruder position to 0
G1 F300 ; set suitable speed
G1 E25 ; extrude 25mm
G92 E0 ; reset extruder position to 0 - needed for cura/SF
G1 F10800 ; set wipe speed
G1 X0 ; wipe nozzle and move to X0
G90 ; use absolute coordinates
G92 E0
M82 ; use absolute distances for extrusion
G1 F1800.000 E-4.50000
G92 E0
G1 Z0.350 F7800.000
G1 X47.691 Y42.343 F7800.000
G1 E4.50000 F1800.000
G1 X59.817 Y28.685 E6.16074 F1080.000
G1 X61.614 Y27.260 E6.36929
G1 X64.771 Y26.459 E6.66548
G1 X135.231 Y26.459 E13.07238
G1 X137.490 Y26.856 E13.28092
G1 X140.185 Y28.686 E13.57713 F1080.000
G1 X194.881 Y90.292 E21.06817
G1 X196.084 Y92.244 E21.27672
G1 X196.521 Y95.328 E21.55992
G1 X194.199 Y119.328 E23.75242
G1 X193.397 Y121.906 E23.99793
G1 X192.717 Y123.095 E24.12244
G1 X191.940 Y124.248 E24.24891
G1 X191.088 Y125.329 E24.37403
G1 X190.250 Y126.254 E24.48749
G1 X105.071 Y211.836 E35.46699
G1 X104.695 Y212.102 E35.50888
G1 X103.255 Y212.874 E35.65746
G1 X102.825 Y213.040 E35.69938
G1 X101.315 Y213.427 E35.84113
G1 X100.019 Y213.541 E35.95939
G1 X99.105 Y213.483 E36.04263
G1 X98.685 Y213.427 E36.08116
G1 X97.166 Y213.037 E36.22383
G1 X96.737 Y212.871 E36.26560
G1 X95.321 Y212.112 E36.41171
G1 X94.942 Y211.846 E36.45379
G1 X94.056 Y211.098 E36.55929
G1 X9.506 Y125.993 E47.46760
G1 X8.604 Y124.954 E47.59267
G1 X7.773 Y123.841 E47.71903
G1 X7.037 Y122.684 E47.84368
G1 X6.605 Y121.906 E47.92459
G1 X5.803 Y119.329 E48.17006
G1 X3.479 Y95.329 E50.36257
G1 X3.656 Y93.042 E50.57112
G1 X5.119 Y90.291 E50.85438
G1 X47.656 Y42.382 E56.68003
G1 F1800.000 E52.18003
G92 E0
G1 X100.000 Y103.587 F7800.000
G1 E4.50000 F1800.000
G1 X99.650 Y104.147 E4.56005 F540.000
G1 X92.632 Y104.147 E5.19816
G1 X92.632 Y98.897 E5.67548
G1 X107.368 Y98.897 E7.01536
G1 X107.368 Y104.147 E7.49268
G1 X100.350 Y104.147 E8.13079
G1 X100.028 Y103.631 E8.18606
G1 X100.000 Y102.408 F7800.000
G1 X99.304 Y103.522 E8.30553 F540.000
G1 X93.257 Y103.522 E8.85533
G1 X93.257 Y99.522 E9.21901
G1 X106.743 Y99.522 E10.44524
G1 X106.743 Y103.522 E10.80892
G1 X100.696 Y103.522 E11.35872
G1 X100.028 Y102.452 E11.47342
G1 X100.000 Y101.229 F7800.000
G1 X98.957 Y102.897 E11.65230 F540.000
G1 X93.882 Y102.897 E12.11379
G1 X93.882 Y100.147 E12.36383
G1 X106.118 Y100.147 E13.47642
G1 X106.118 Y102.897 E13.72646
G1 X101.043 Y102.897 E14.18794
G1 X100.028 Y101.273 E14.36206
G1 X100.452 Y100.772 F7800.000
G1 X105.493 Y100.772 E14.82048 F378.000
G1 X105.493 Y102.272 E14.95687
G1 X101.389 Y102.272 E15.33004
G1 X100.479 Y100.817 E15.48611
G1 X100.782 Y100.888 F7800.000
G1 X99.548 Y100.772 F7800.000
G1 X98.611 Y102.272 E15.64695 F378.000
G1 X94.507 Y102.272 E16.02013
G1 X94.507 Y100.772 E16.15652
G1 X99.496 Y100.772 E16.61017
G1 X99.874 Y100.899 F7800.000
G1 F1800.000 E12.11017
G92 E0
G1 X97.501 Y142.866 F7800.000
G1 E4.50000 F1800.000
G1 X102.499 Y142.866 E4.95443 F540.000
G1 X102.499 Y177.674 E8.11946
G1 X97.501 Y177.674 E8.57389
G1 X97.501 Y142.919 E11.73415
G1 X98.126 Y143.491 F7800.000
G1 X101.874 Y143.491 E12.07494 F540.000
G1 X101.874 Y177.049 E15.12633
G1 X98.126 Y177.049 E15.46711
G1 X98.126 Y143.544 E18.51374
G1 X98.751 Y144.116 F7800.000
G1 X101.249 Y144.116 E18.74088 F378.000
G1 X101.249 Y176.424 E21.67863
G1 X98.751 Y176.424 E21.90577
G1 X98.751 Y144.168 E24.83875
G1 X98.751 Y143.766 F7800.000
G1 X97.400 Y178.299 F7800.000
G1 X102.600 Y178.299 E25.31163 F540.000
G1 X102.267 Y183.104 E25.74962
G1 X101.773 Y188.628 E26.25397
G1 X101.180 Y194.009 E26.74614
G1 X100.472 Y199.444 E27.24458
G1 X100.216 Y201.140 E27.40051
G1 X99.786 Y201.140 E27.43963
G1 X99.530 Y199.444 E27.59555
G1 X98.822 Y194.009 E28.09400
G1 X98.223 Y188.561 E28.59234
G1 X97.733 Y183.104 E29.09057
G1 X97.403 Y178.351 E29.52376
G1 X99.799 Y205.266 F7800.000
G1 X99.725 Y204.926 E29.55535 F540.000
G1 X98.911 Y199.531 E30.05145
G1 X98.201 Y194.083 E30.55103
G1 X97.601 Y188.623 E31.05052
G1 X97.110 Y183.153 E31.54989
G1 X96.730 Y177.674 E32.04934
G1 X96.462 Y172.188 E32.54876
G1 X96.303 Y166.698 E33.04816
G1 X96.255 Y161.204 E33.54774
G1 X96.316 Y155.712 E34.04714
G1 X96.489 Y150.223 E34.54655
G1 X96.774 Y144.737 E35.04605
G1 X97.012 Y141.426 E35.34789
G1 X102.990 Y141.426 E35.89146
G1 X103.228 Y144.737 E36.19330
G1 X103.511 Y150.222 E36.69277
G1 X103.684 Y155.712 E37.19223
G1 X103.747 Y161.204 E37.69161
G1 X103.697 Y166.698 E38.19116
G1 X103.543 Y172.020 E38.67532
G1 X103.270 Y177.674 E39.19001
G1 X102.890 Y183.153 E39.68948
G1 X102.401 Y188.623 E40.18884
G1 X101.801 Y194.083 E40.68830
G1 X101.084 Y199.583 E41.19259
G1 X100.277 Y204.923 E41.68367
G1 X100.201 Y205.267 E41.71569
G1 X99.852 Y205.266 E41.74746
G1 X96.430 Y140.801 F7800.000
G1 X103.572 Y140.801 E42.39680 F540.000
G1 X103.852 Y144.698 E42.75209
G1 X104.135 Y150.196 E43.25271
G1 X104.308 Y155.699 E43.75331
G1 X104.372 Y161.203 E44.25384
G1 X104.322 Y166.709 E44.75454
G1 X104.163 Y172.212 E45.25510
G1 X103.894 Y177.710 E45.75567
G1 X103.513 Y183.203 E46.25629
G1 X103.023 Y188.685 E46.75679
G1 X102.421 Y194.158 E47.25739
G1 X101.710 Y199.618 E47.75812
G1 X100.892 Y205.037 E48.25645
G1 X100.825 Y205.337 E48.28439
G1 X100.727 Y205.535 E48.30445
G1 X100.583 Y205.702 E48.32448
G1 X100.405 Y205.828 E48.34436
G1 X100.196 Y205.909 E48.36475
G1 X100.000 Y205.935 E48.38270
G1 X99.805 Y205.909 E48.40058
G1 X99.597 Y205.828 E48.42091
G1 X99.416 Y205.701 E48.44102
G1 X99.273 Y205.535 E48.46093
G1 X99.176 Y205.339 E48.48080
G1 X99.110 Y205.039 E48.50870
G1 X98.292 Y199.618 E49.00722
G1 X97.581 Y194.158 E49.50794
G1 X96.979 Y188.685 E50.00856
G1 X96.487 Y183.203 E50.50908
G1 X96.106 Y177.710 E51.00969
G1 X95.837 Y172.212 E51.51025
G1 X95.678 Y166.710 E52.01079
G1 X95.630 Y161.203 E52.51151
G1 X95.692 Y155.699 E53.01205
G1 X95.865 Y150.197 E53.51262
G1 X96.150 Y144.698 E54.01326
G1 X96.427 Y140.853 E54.36378
G1 F1800.000 E49.86378
G92 E0
G1 X100.006 Y138.388 F7800.000
G1 E4.50000 F1800.000
G1 X98.942 Y136.903 E4.66610 F540.000
G1 X95.780 Y136.903 E4.95357
G1 X21.059 Y122.847 E11.86717
G1 X20.348 Y122.664 E11.93386
G1 X19.662 Y122.432 E11.99979
G1 X18.992 Y122.148 E12.06591
G1 X18.346 Y121.816 E12.13199
G1 X17.725 Y121.438 E12.19805
G1 X17.136 Y121.016 E12.26398
G1 X16.580 Y120.551 E12.32988
G1 X16.059 Y120.044 E12.39598
G1 X15.574 Y119.500 E12.46220
G1 X15.133 Y118.926 E12.52807
G1 X14.735 Y118.318 E12.59416
G1 X14.567 Y118.015 E12.62566
G1 X12.544 Y97.128 E14.53381
G1 X64.940 Y101.494 E19.31465
G1 X71.335 Y101.128 E19.89707
G1 X77.619 Y100.101 E20.47612
G1 X83.760 Y98.421 E21.05504
G1 X89.692 Y96.108 E21.63396
G1 X96.066 Y92.816 E22.28629
G1 X97.184 Y89.272 E22.62421
G1 X97.926 Y86.534 E22.88212
G1 X98.556 Y83.768 E23.14011
G1 X99.073 Y80.979 E23.39803
G1 X99.476 Y78.173 E23.65579
G1 X99.774 Y75.238 E23.92400
G1 X100.226 Y75.238 E23.96506
G1 X100.527 Y78.174 E24.23338
G1 X100.929 Y80.979 E24.49107
G1 X101.446 Y83.768 E24.74898
G1 X102.076 Y86.534 E25.00697
G1 X102.817 Y89.271 E25.26481
G1 X103.933 Y92.816 E25.60270
G1 X110.310 Y96.108 E26.25529
G1 X116.242 Y98.421 E26.83419
G1 X122.383 Y100.101 E27.41311
G1 X128.665 Y101.128 E27.99197
G1 X135.062 Y101.494 E28.57458
G1 X187.456 Y97.128 E33.35526
G1 X185.435 Y118.015 E35.26341
G1 X185.267 Y118.318 E35.29489
G1 X184.869 Y118.926 E35.36099
G1 X184.428 Y119.501 E35.42686
G1 X183.945 Y120.043 E35.49292
G1 X183.422 Y120.550 E35.55915
G1 X182.864 Y121.016 E35.62520
G1 X182.275 Y121.438 E35.69114
G1 X181.654 Y121.816 E35.75720
G1 X181.007 Y122.148 E35.82337
G1 X180.339 Y122.432 E35.88932
G1 X179.654 Y122.664 E35.95516
G1 X178.943 Y122.847 E36.02185
G1 X104.222 Y136.903 E42.93545
G1 X101.044 Y136.903 E43.22439
G1 X100.036 Y138.345 E43.38438
G1 F1800.000 E38.88438
G92 E0
G1 X89.019 Y95.056 F7800.000
G1 X95.854 Y100.122 F7800.000
G1 X98.102 Y79.121 F7800.000
G1 X104.468 Y56.531 F7800.000
G1 E4.50000 F1800.000
G1 X104.468 Y48.360 E5.24291 F540.000
G1 X104.870 Y40.143 E5.99106
G1 X132.566 Y35.758 E8.54077
G1 X131.747 Y41.051 E9.02776
G1 X131.374 Y42.965 E9.20507
G1 X131.153 Y43.827 E9.28597
G1 X130.570 Y45.627 E9.45810
G1 X130.252 Y46.436 E9.53707
G1 X129.490 Y48.069 E9.70095
G1 X128.087 Y50.388 E9.94744
G1 X127.663 Y50.967 E10.01265
G1 X126.014 Y52.232 E10.20165
G1 X123.362 Y54.187 E10.50119
G1 X120.683 Y56.084 E10.79973
G1 X117.977 Y57.924 E11.09726
G1 X115.245 Y59.702 E11.39364
G1 X112.488 Y61.423 E11.68919
G1 X109.708 Y63.082 E11.98358
G1 X106.902 Y64.683 E12.27728
G1 X104.075 Y66.221 E12.56996
G1 X100.001 Y68.334 E12.98723
G1 X95.925 Y66.221 E13.40475
G1 X93.098 Y64.683 E13.69737
G1 X90.294 Y63.082 E13.99094
G1 X87.512 Y61.423 E14.28553
G1 X84.755 Y59.702 E14.58104
G1 X82.023 Y57.924 E14.87742
G1 X79.317 Y56.084 E15.17495
G1 X76.638 Y54.187 E15.47349
G1 X73.987 Y52.232 E15.77298
G1 X72.338 Y50.966 E15.96199
G1 X71.913 Y50.387 E16.02735
G1 X70.510 Y48.069 E16.27370
G1 X69.748 Y46.436 E16.43758
G1 X69.431 Y45.628 E16.51645
G1 X68.848 Y43.826 E16.68872
G1 X68.626 Y42.963 E16.76976
G1 X68.253 Y41.051 E16.94685
G1 X67.435 Y35.758 E17.43386
G1 X95.132 Y40.143 E19.98364
G1 X95.534 Y48.360 E20.73178
G1 X95.534 Y56.531 E21.47469
G1 X104.415 Y56.531 E22.28222
G1 X103.843 Y55.906 F7800.000
G1 X103.843 Y48.345 E22.96970 F540.000
G1 X104.271 Y39.605 E23.76542
G1 X133.315 Y35.007 E26.43921
G1 X132.363 Y41.158 E27.00522
G1 X131.984 Y43.102 E27.18530
G1 X131.754 Y44.001 E27.26963
G1 X131.158 Y45.838 E27.44528
G1 X130.826 Y46.682 E27.52775
G1 X130.042 Y48.363 E27.69644
G1 X128.607 Y50.735 E27.94851
G1 X128.114 Y51.408 E28.02434
G1 X126.389 Y52.731 E28.22201
G1 X123.728 Y54.693 E28.52264
G1 X121.039 Y56.598 E28.82226
G1 X118.323 Y58.444 E29.12090
G1 X115.581 Y60.229 E29.41839
G1 X112.813 Y61.956 E29.71505
G1 X110.023 Y63.622 E30.01057
G1 X107.206 Y65.228 E30.30539
G1 X104.368 Y66.773 E30.59921
G1 X100.611 Y68.722 E30.98404
G1 X100.706 Y72.781 E31.35321
G1 X100.860 Y75.300 E31.58274
G1 X101.147 Y78.097 E31.83840
G1 X101.546 Y80.877 E32.09379
G1 X102.058 Y83.641 E32.34939
G1 X102.682 Y86.383 E32.60507
G1 X103.417 Y89.096 E32.86061
G1 X104.451 Y92.380 E33.17369
G1 X110.568 Y95.538 E33.79963
G1 X116.438 Y97.827 E34.37257
G1 X122.516 Y99.489 E34.94552
G1 X128.734 Y100.506 E35.51842
G1 X135.054 Y100.868 E36.09405
G1 X188.150 Y96.443 E40.93881
G1 X186.045 Y118.204 E42.92684
G1 X185.803 Y118.641 E42.97221
G1 X185.379 Y119.288 E43.04251
G1 X184.910 Y119.899 E43.11262
G1 X184.396 Y120.476 E43.18284
G1 X183.840 Y121.014 E43.25323
G1 X183.247 Y121.510 E43.32350
G1 X182.620 Y121.959 E43.39365
G1 X181.960 Y122.362 E43.46390
G1 X181.272 Y122.714 E43.53421
G1 X180.562 Y123.016 E43.60435
G1 X179.832 Y123.264 E43.67445
G1 X179.079 Y123.458 E43.74514
G1 X104.280 Y137.528 E50.66592
G1 X101.369 Y137.528 E50.93055
G1 X100.012 Y139.470 E51.14600
G1 X98.621 Y137.528 E51.36319
G1 X95.722 Y137.528 E51.62677
G1 X20.923 Y123.458 E58.54755
G1 X20.170 Y123.264 E58.61824
G1 X19.439 Y123.016 E58.68841
G1 X18.727 Y122.714 E58.75871
G1 X18.040 Y122.362 E58.82896
G1 X17.380 Y121.959 E58.89921
G1 X16.753 Y121.510 E58.96936
G1 X16.161 Y121.015 E59.03952
G1 X15.607 Y120.477 E59.10977
G1 X15.092 Y119.899 E59.18011
G1 X14.623 Y119.288 E59.25021
G1 X14.200 Y118.641 E59.32051
G1 X13.957 Y118.204 E59.36589
G1 X11.850 Y96.443 E61.35393
G1 X64.948 Y100.868 E66.19886
G1 X71.266 Y100.506 E66.77430
G1 X77.486 Y99.489 E67.34738
G1 X83.564 Y97.827 E67.92034
G1 X89.434 Y95.538 E68.49329
G1 X95.548 Y92.380 E69.11900
G1 X96.585 Y89.096 E69.43212
G1 X97.320 Y86.383 E69.68771
G1 X97.944 Y83.641 E69.94339
G1 X98.456 Y80.877 E70.19899
G1 X98.855 Y78.097 E70.45443
G1 X99.140 Y75.301 E70.71000
G1 X99.295 Y72.778 E70.93978
G1 X99.391 Y68.722 E71.30872
G1 X95.632 Y66.773 E71.69380
G1 X92.794 Y65.229 E71.98757
G1 X89.979 Y63.622 E72.28226
G1 X87.186 Y61.956 E72.57796
G1 X84.419 Y60.229 E72.87459
G1 X81.677 Y58.444 E73.17208
G1 X78.961 Y56.598 E73.47072
G1 X76.272 Y54.693 E73.77034
G1 X73.611 Y52.732 E74.07094
G1 X71.888 Y51.408 E74.26857
G1 X71.393 Y50.734 E74.34455
G1 X69.958 Y48.363 E74.59651
G1 X69.174 Y46.682 E74.76520
G1 X68.842 Y45.839 E74.84761
G1 X68.248 Y44.000 E75.02334
G1 X68.016 Y43.101 E75.10778
G1 X67.637 Y41.159 E75.28770
G1 X66.687 Y35.007 E75.85371
G1 X95.731 Y39.605 E78.52756
G1 X96.159 Y48.345 E79.32327
G1 X96.159 Y55.906 E80.01075
G1 X103.790 Y55.906 E80.70464
G1 X103.218 Y55.281 F7800.000
G1 X103.218 Y48.330 E81.33669 F540.000
G1 X103.672 Y39.067 E82.17997
G1 X134.063 Y34.256 E84.97785
G1 X132.978 Y41.266 E85.62288
G1 X132.594 Y43.240 E85.80572
G1 X132.354 Y44.175 E85.89348
G1 X131.747 Y46.049 E86.07265
G1 X131.401 Y46.929 E86.15863
G1 X130.594 Y48.658 E86.33214
G1 X129.127 Y51.082 E86.58977
G1 X128.565 Y51.849 E86.67624
G1 X126.765 Y53.231 E86.88257
G1 X124.094 Y55.200 E87.18429
G1 X121.395 Y57.111 E87.48499
G1 X118.669 Y58.964 E87.78475
G1 X115.917 Y60.756 E88.08335
G1 X113.139 Y62.490 E88.38111
G1 X110.338 Y64.162 E88.67776
G1 X107.510 Y65.774 E88.97371
G1 X104.661 Y67.325 E89.26865
G1 X101.244 Y69.098 E89.61872
G1 X101.330 Y72.753 E89.95114
G1 X101.483 Y75.249 E90.17861
G1 X101.767 Y78.021 E90.43195
G1 X102.163 Y80.776 E90.68504
G1 X102.670 Y83.515 E90.93833
G1 X103.289 Y86.232 E91.19169
G1 X104.017 Y88.920 E91.44493
G1 X104.969 Y91.944 E91.73320
G1 X110.825 Y94.968 E92.33249
G1 X116.634 Y97.233 E92.89947
G1 X122.649 Y98.878 E93.46646
G1 X128.802 Y99.884 E94.03339
G1 X135.046 Y100.241 E94.60204
G1 X188.844 Y95.758 E99.51087
G1 X186.654 Y118.394 E101.57878
G1 X186.338 Y118.964 E101.63803
G1 X185.889 Y119.650 E101.71253
G1 X185.392 Y120.298 E101.78687
G1 X184.847 Y120.909 E101.86126
G1 X184.258 Y121.479 E101.93580
G1 X183.630 Y122.005 E102.01029
G1 X182.965 Y122.480 E102.08466
G1 X182.266 Y122.907 E102.15910
G1 X181.537 Y123.281 E102.23356
G1 X180.785 Y123.600 E102.30787
G1 X180.011 Y123.863 E102.38224
G1 X179.215 Y124.068 E102.45694
G1 X104.338 Y138.153 E109.38489
G1 X101.695 Y138.153 E109.62522
G1 X100.018 Y140.552 E109.89134
G1 X98.300 Y138.153 E110.15963
G1 X95.664 Y138.153 E110.39932
G1 X20.787 Y124.068 E117.32727
G1 X19.991 Y123.863 E117.40197
G1 X19.216 Y123.600 E117.47638
G1 X18.462 Y123.280 E117.55086
G1 X17.734 Y122.907 E117.62528
G1 X17.035 Y122.480 E117.69971
G1 X16.370 Y122.005 E117.77408
G1 X15.742 Y121.479 E117.84851
G1 X15.155 Y120.909 E117.92292
G1 X14.610 Y120.298 E117.99738
G1 X14.113 Y119.650 E118.07171
G1 X13.664 Y118.964 E118.14621
G1 X13.348 Y118.394 E118.20547
G1 X11.156 Y95.758 E120.27339
G1 X64.956 Y100.241 E125.18239
G1 X71.198 Y99.884 E125.75085
G1 X77.353 Y98.878 E126.31796
G1 X83.368 Y97.233 E126.88496
G1 X89.177 Y94.968 E127.45194
G1 X95.031 Y91.944 E128.05104
G1 X95.985 Y88.920 E128.33935
G1 X96.713 Y86.232 E128.59262
G1 X97.332 Y83.515 E128.84598
G1 X97.839 Y80.776 E129.09927
G1 X98.235 Y78.021 E129.35239
G1 X98.517 Y75.250 E129.60567
G1 X98.671 Y72.751 E129.83329
G1 X98.758 Y69.098 E130.16557
G1 X95.338 Y67.325 E130.51586
G1 X92.490 Y65.774 E130.81077
G1 X89.664 Y64.162 E131.10658
G1 X86.861 Y62.490 E131.40340
G1 X84.083 Y60.756 E131.70115
G1 X81.331 Y58.964 E131.99975
G1 X78.605 Y57.111 E132.29950
G1 X75.906 Y55.200 E132.60020
G1 X73.235 Y53.231 E132.90190
G1 X71.437 Y51.849 E133.10815
G1 X70.872 Y51.082 E133.19475
G1 X69.406 Y48.658 E133.45232
G1 X68.599 Y46.929 E133.62583
G1 X68.253 Y46.050 E133.71177
G1 X67.648 Y44.174 E133.89097
G1 X67.406 Y43.239 E133.97882
G1 X67.022 Y41.266 E134.16156
G1 X65.938 Y34.256 E134.80658
G1 X96.330 Y39.067 E137.60449
G1 X96.784 Y48.330 E138.44777
G1 X96.784 Y55.281 E139.07982
G1 X99.204 Y55.281 E139.29981
G1 X99.424 Y48.321 E139.93295
