; generated by Slic3r 1.1.7 on 2014-10-01 at 14:41:40

; perimeters extrusion width = 0.35mm
; infill extrusion width = 0.39mm
; solid infill extrusion width = 0.39mm
; top infill extrusion width = 0.39mm

G21 ; set units to millimeters
M107
M84 S0 ; don't let go of motors
M108 S155 ; make sure extruder and electronics fans are running
M140 S70
M104 S210
G28 X0 Y0; home X and Y
G1 F10800 ; set high speed
G1 Y20 ; move into the platform along Y
G1 X205 ; move off the platform end along X
G28 Z0 ; home Z now - blobs won't hit the platform
G1 F400
G1 Z10 ; lift Z a little
M190 S70
M109 S210 ; wait for temperature to be reached
G28 Z0 ; home Z
G92 E0 ; reset extruder position to 0
G1 F300 ; set suitable speed
G1 E25 ; extrude 25mm
G92 E0 ; reset extruder position to 0 - needed for cura/SF
G1 F10800 ; set wipe speed
G1 X0 ; wipe nozzle and move to X0
G90 ; use absolute coordinates
G92 E0
M82 ; use absolute distances for extrusion
G1 F1800.000 E-4.50000
G92 E0
G1 Z0.350 F7800.000
G1 X88.287 Y96.052 F7800.000
G1 E4.50000 F1800.000
G1 X89.788 Y94.877 E4.67330 F1074.784
G1 X90.179 Y94.637 E4.71509
G1 X91.454 Y93.952 E4.84667
G1 X93.244 Y93.298 E5.01999
G1 X95.115 Y92.933 E5.19328
G1 X96.500 Y92.844 E5.31948
G1 X104.020 Y92.865 E6.00325
G1 X104.478 Y92.901 E6.04503 F1074.784
G1 X105.912 Y93.096 E6.17660
G1 X106.358 Y93.203 E6.21838
G1 X107.744 Y93.619 E6.34997
G1 X108.169 Y93.795 E6.39175
G1 X109.472 Y94.423 E6.52333
G1 X111.053 Y95.488 E6.69664
G1 X111.403 Y95.786 E6.73842
G1 X112.448 Y96.787 E6.86999
G1 X112.747 Y97.136 E6.91177
G1 X113.623 Y98.288 E7.04335
G1 X113.863 Y98.679 E7.08514
G1 X114.548 Y99.954 E7.21672
G1 X115.202 Y101.744 E7.39002
G1 X115.309 Y102.191 E7.43180
G1 X115.567 Y103.615 E7.56339
G1 X115.656 Y105.000 E7.68958
G1 X115.635 Y135.520 E10.46473
G1 X115.404 Y137.412 E10.63804
G1 X114.881 Y139.244 E10.81134
G1 X114.705 Y139.669 E10.85313
G1 X114.077 Y140.972 E10.98471
G1 X113.790 Y141.440 E11.03458
G1 X113.012 Y142.553 E11.15809
G1 X111.713 Y143.948 E11.33139
G1 X110.212 Y145.123 E11.50469
G1 X109.821 Y145.363 E11.54648
G1 X108.546 Y146.048 E11.67805
G1 X106.756 Y146.702 E11.85138
G1 X104.885 Y147.067 E12.02467
G1 X103.500 Y147.156 E12.15087
G1 X95.980 Y147.135 E12.83464
G1 X95.522 Y147.099 E12.87642
G1 X94.088 Y146.904 E13.00799
G1 X93.642 Y146.797 E13.04977
G1 X92.256 Y146.381 E13.18136
G1 X91.831 Y146.205 E13.22314
G1 X90.528 Y145.577 E13.35472
G1 X88.947 Y144.512 E13.52803
G1 X88.597 Y144.214 E13.56981
G1 X87.552 Y143.213 E13.70138
G1 X87.253 Y142.864 E13.74316
G1 X86.377 Y141.712 E13.87474
G1 X86.137 Y141.321 E13.91653
G1 X85.452 Y140.046 E14.04811
G1 X84.798 Y138.256 E14.22141
G1 X84.691 Y137.809 E14.26319
G1 X84.433 Y136.385 E14.39478
G1 X84.344 Y135.000 E14.52097
G1 X84.365 Y104.480 E17.29612
G1 X84.596 Y102.588 E17.46943
G1 X85.119 Y100.756 E17.64273
G1 X85.295 Y100.331 E17.68452
G1 X85.923 Y99.028 E17.81610
G1 X86.210 Y98.560 E17.86597
G1 X86.988 Y97.447 E17.98947
G1 X88.251 Y96.090 E18.15800
G1 F1800.000 E13.65800
G92 E0
G1 X108.857 Y122.219 F7800.000
G1 E4.50000 F1800.000
G1 X108.500 Y122.683 E4.55327 F600.000
G1 X108.500 Y134.979 E5.67135
G1 X108.438 Y135.782 E5.74457
G1 X108.255 Y136.545 E5.81591
G1 X107.954 Y137.270 E5.88724
G1 X107.690 Y137.702 E5.93332
G1 X107.544 Y137.938 E5.95857
G1 X107.035 Y138.535 E6.02990
G1 X106.438 Y139.044 E6.10123
G1 X105.770 Y139.454 E6.17256
G1 X105.084 Y139.739 E6.24011
G1 X104.241 Y139.942 E6.31893
G1 X103.479 Y140.000 E6.38838
G1 X96.521 Y140.000 E7.02109
G1 X95.677 Y139.929 E7.09807
G1 X94.955 Y139.755 E7.16562
G1 X94.230 Y139.454 E7.23695
G1 X93.562 Y139.044 E7.30828
G1 X92.965 Y138.535 E7.37961
G1 X92.456 Y137.938 E7.45094
G1 X92.046 Y137.270 E7.52227
G1 X91.745 Y136.545 E7.59360
G1 X91.558 Y135.741 E7.66868
G1 X91.500 Y134.979 E7.73813
G1 X91.501 Y105.000 E10.46412
G1 X91.562 Y104.218 E10.53545
G1 X91.746 Y103.455 E10.60678
G1 X91.905 Y103.069 E10.64476
G1 X92.046 Y102.730 E10.67811
G1 X92.456 Y102.062 E10.74944
G1 X92.965 Y101.465 E10.82077
G1 X93.562 Y100.956 E10.89210
G1 X94.230 Y100.546 E10.96343
G1 X94.955 Y100.245 E11.03477
G1 X95.718 Y100.062 E11.10610
G1 X96.521 Y100.000 E11.17932
G1 X103.479 Y100.000 E11.81204
G1 X104.282 Y100.062 E11.88527
G1 X105.084 Y100.261 E11.96034
G1 X105.770 Y100.546 E12.02789
G1 X106.403 Y100.933 E12.09544
G1 X107.035 Y101.465 E12.17052
G1 X107.544 Y102.062 E12.24185
G1 X107.954 Y102.730 E12.31318
G1 X108.255 Y103.455 E12.38452
G1 X108.442 Y104.259 E12.45959
G1 X108.500 Y105.021 E12.52904
G1 X108.500 Y117.858 E13.69632
G1 F1800.000 E9.19632
G92 E0
G1 X92.566 Y107.172 F7800.000
G1 E4.50000 F1800.000
G1 X92.649 Y106.844 E4.53079 F600.000
G1 X93.027 Y106.301 E4.59097
G1 X93.550 Y105.732 E4.66121
G1 X94.207 Y105.202 E4.73802
G1 X94.612 Y104.951 E4.78136
G1 X94.918 Y104.788 E4.81283
G1 X95.243 Y104.645 E4.84509
G1 X95.683 Y104.485 E4.88766
G1 X96.485 Y104.300 E4.96250
G1 X97.299 Y104.236 E5.03681
G1 X102.700 Y104.236 E5.52790
G1 X103.405 Y104.283 E5.59215
G1 X104.093 Y104.421 E5.65593
G1 X104.713 Y104.622 E5.71521
G1 X105.390 Y104.946 E5.78346
G1 X106.111 Y105.438 E5.86283
G1 X106.501 Y105.787 E5.91036
G1 X106.725 Y106.018 E5.93966
G1 X106.968 Y106.305 E5.97385
G1 X107.232 Y106.666 E6.01452
G1 X107.500 Y107.093 E6.06035
G1 F1800.000 E1.56035
G92 E0
G1 X107.434 Y132.827 F7800.000
G1 E4.50000 F1800.000
G1 X107.340 Y133.173 E4.53254 F600.000
G1 X106.972 Y133.699 E4.59089
G1 X106.434 Y134.283 E4.66316
G1 X105.972 Y134.668 E4.71786
G1 X105.387 Y135.049 E4.78129
G1 X105.082 Y135.212 E4.81277
G1 X104.757 Y135.355 E4.84503
G1 X104.317 Y135.514 E4.88760
G1 X103.515 Y135.700 E4.96245
G1 X102.705 Y135.764 E5.03633
G1 X97.299 Y135.764 E5.52786
G1 X96.597 Y135.717 E5.59183
G1 X95.913 Y135.580 E5.65534
G1 X95.249 Y135.363 E5.71882
G1 X94.547 Y135.017 E5.78997
G1 X93.889 Y134.562 E5.86276
G1 X93.504 Y134.217 E5.90974
G1 X93.275 Y133.983 E5.93957
G1 X93.034 Y133.697 E5.97349
G1 X92.655 Y133.154 E6.03374
G1 X92.565 Y132.814 E6.06571
M106 S255
M140 S60 ; set bed temperature
G1 F1800.000 E1.56571
G92 E0
G1 Z0.600 F7800.000
G1 X108.804 Y122.553 F7800.000
G1 E4.50000 F1800.000
G1 X108.804 Y134.979 E4.95206 F1386.013
G1 X108.737 Y135.829 E4.98308
G1 X108.543 Y136.638 E5.01335
G1 X108.224 Y137.407 E5.04362
G1 X108.041 Y137.707 E5.05641
G1 X107.790 Y138.117 E5.07389
G1 X107.249 Y138.749 E5.10415
G1 X106.617 Y139.290 E5.13442
G1 X105.907 Y139.724 E5.16469
G1 X105.582 Y139.859 E5.17747
G1 X105.138 Y140.043 E5.19495
G1 X104.329 Y140.237 E5.22522
G1 X103.479 Y140.304 E5.25624
G1 X96.521 Y140.304 E5.50939
G1 X95.671 Y140.237 E5.54041
G1 X94.862 Y140.043 E5.57067
G1 X94.093 Y139.724 E5.60094
G1 X93.383 Y139.290 E5.63121
G1 X92.751 Y138.749 E5.66147
G1 X92.210 Y138.117 E5.69174
G1 X91.776 Y137.407 E5.72201
G1 X91.457 Y136.638 E5.75228
G1 X91.263 Y135.829 E5.78254
G1 X91.196 Y134.979 E5.81356
G1 X91.196 Y105.021 E6.90341
G1 X91.263 Y104.171 E6.93443
G1 X91.457 Y103.362 E6.96470
G1 X91.776 Y102.593 E6.99496
G1 X91.959 Y102.293 E7.00775
G1 X92.210 Y101.883 E7.02523
G1 X92.751 Y101.251 E7.05550
G1 X93.383 Y100.710 E7.08576
G1 X94.093 Y100.276 E7.11603
G1 X94.862 Y99.957 E7.14630
G1 X95.671 Y99.763 E7.17656
G1 X96.521 Y99.696 E7.20758
G1 X103.479 Y99.696 E7.46073
G1 X104.329 Y99.763 E7.49175
G1 X105.138 Y99.957 E7.52202
G1 X105.907 Y100.276 E7.55229
G1 X106.617 Y100.710 E7.58255
G1 X107.249 Y101.251 E7.61282
G1 X107.790 Y101.883 E7.64309
G1 X108.224 Y102.593 E7.67335
G1 X108.543 Y103.362 E7.70362
G1 X108.737 Y104.171 E7.73389
G1 X108.804 Y105.021 E7.76491
G1 X108.804 Y117.447 E8.21697
G1 X108.500 Y117.468 E8.22805
G1 X108.196 Y117.447 E8.23912
G1 X108.196 Y104.979 E8.69269
G1 X108.140 Y104.265 E8.71875
G1 X107.968 Y103.548 E8.74557
G1 X107.686 Y102.867 E8.77239
G1 X107.301 Y102.239 E8.79920
G1 X106.822 Y101.678 E8.82602
G1 X106.261 Y101.199 E8.85284
G1 X105.633 Y100.814 E8.87966
G1 X104.952 Y100.532 E8.90647
G1 X104.235 Y100.360 E8.93329
G1 X103.521 Y100.304 E8.95936
G1 X96.479 Y100.304 E9.21550
G1 X95.765 Y100.360 E9.24157
G1 X95.048 Y100.532 E9.26839
G1 X94.367 Y100.814 E9.29520
G1 X93.739 Y101.199 E9.32202
G1 X93.178 Y101.678 E9.34884
G1 X92.699 Y102.239 E9.37565
G1 X92.314 Y102.867 E9.40247
G1 X92.032 Y103.548 E9.42929
G1 X91.860 Y104.265 E9.45611
G1 X91.804 Y104.979 E9.48217
G1 X91.804 Y135.021 E10.57502
G1 X91.860 Y135.735 E10.60108
G1 X92.032 Y136.452 E10.62790
G1 X92.314 Y137.133 E10.65472
G1 X92.699 Y137.761 E10.68153
G1 X93.178 Y138.322 E10.70835
G1 X93.739 Y138.801 E10.73517
G1 X94.367 Y139.186 E10.76199
G1 X95.048 Y139.468 E10.78880
G1 X95.765 Y139.640 E10.81562
G1 X96.479 Y139.696 E10.84169
G1 X103.521 Y139.696 E11.09783
G1 X104.235 Y139.640 E11.12390
G1 X104.952 Y139.468 E11.15072
G1 X105.263 Y139.339 E11.16297
G1 X105.633 Y139.186 E11.17753
G1 X106.261 Y138.801 E11.20435
G1 X106.822 Y138.322 E11.23117
G1 X107.301 Y137.761 E11.25798
G1 X107.477 Y137.474 E11.27024
G1 X107.686 Y137.133 E11.28480
G1 X107.968 Y136.452 E11.31162
G1 X108.140 Y135.735 E11.33844
G1 X108.196 Y135.021 E11.36450
G1 X108.196 Y122.553 E11.81807
G1 X108.500 Y122.532 E11.82914
G1 X108.751 Y122.549 E11.83831
G1 X109.154 Y122.527 F7800.000
G1 X109.154 Y134.993 E12.29180 F970.209
G1 X109.084 Y135.884 E12.32433
G1 X108.877 Y136.747 E12.35660
G1 X108.537 Y137.567 E12.38887
G1 X108.339 Y137.890 E12.40266
G1 X108.074 Y138.323 E12.42114
G1 X107.497 Y138.997 E12.45341
G1 X106.823 Y139.574 E12.48568
G1 X106.067 Y140.037 E12.51795
G1 X105.716 Y140.182 E12.53174
G1 X105.247 Y140.377 E12.55022
G1 X104.384 Y140.584 E12.58249
G1 X103.493 Y140.654 E12.61502
G1 X96.507 Y140.654 E12.86916
G1 X95.616 Y140.584 E12.90169
G1 X94.753 Y140.377 E12.93396
G1 X93.933 Y140.037 E12.96623
G1 X93.177 Y139.574 E12.99850
G1 X92.889 Y139.327 E13.01229
G1 X92.503 Y138.997 E13.03077
G1 X91.926 Y138.323 E13.06304
G1 X91.463 Y137.567 E13.09531
G1 X91.123 Y136.747 E13.12758
G1 X90.916 Y135.884 E13.15985
G1 X90.846 Y134.993 E13.19238
G1 X90.846 Y105.007 E14.28322
G1 X90.916 Y104.116 E14.31575
G1 X91.123 Y103.253 E14.34802
G1 X91.463 Y102.433 E14.38029
G1 X91.926 Y101.677 E14.41256
G1 X92.503 Y101.003 E14.44483
G1 X93.177 Y100.426 E14.47710
G1 X93.933 Y99.963 E14.50937
G1 X94.284 Y99.818 E14.52316
G1 X94.753 Y99.623 E14.54164
G1 X95.616 Y99.416 E14.57391
G1 X96.507 Y99.346 E14.60644
G1 X103.493 Y99.346 E14.86058
G1 X104.384 Y99.416 E14.89311
G1 X105.247 Y99.623 E14.92538
G1 X106.067 Y99.963 E14.95765
G1 X106.390 Y100.161 E14.97144
G1 X106.823 Y100.426 E14.98992
G1 X107.497 Y101.003 E15.02219
G1 X108.074 Y101.677 E15.05446
G1 X108.537 Y102.433 E15.08673
G1 X108.877 Y103.253 E15.11900
G1 X109.084 Y104.116 E15.15127
G1 X109.154 Y105.007 E15.18380
G1 X109.154 Y117.473 E15.63729
G1 X109.098 Y117.649 E15.64401
G1 X108.957 Y117.769 E15.65073
G1 X108.500 Y117.818 E15.66746
G1 X108.043 Y117.769 E15.68419
G1 X107.902 Y117.649 E15.69091
G1 X107.846 Y117.473 E15.69763
G1 X107.846 Y104.993 E16.15163
G1 X107.793 Y104.320 E16.17619
G1 X107.634 Y103.657 E16.20100
G1 X107.373 Y103.027 E16.22582
G1 X107.017 Y102.445 E16.25063
G1 X106.574 Y101.926 E16.27544
G1 X106.055 Y101.483 E16.30026
G1 X105.473 Y101.127 E16.32507
G1 X104.843 Y100.866 E16.34988
G1 X104.180 Y100.707 E16.37470
G1 X103.507 Y100.654 E16.39926
G1 X96.493 Y100.654 E16.65441
G1 X95.820 Y100.707 E16.67897
G1 X95.157 Y100.866 E16.70378
G1 X94.527 Y101.127 E16.72859
G1 X93.945 Y101.483 E16.75341
G1 X93.426 Y101.926 E16.77822
G1 X92.983 Y102.445 E16.80303
G1 X92.627 Y103.027 E16.82785
G1 X92.366 Y103.657 E16.85266
G1 X92.207 Y104.320 E16.87747
G1 X92.154 Y104.993 E16.90203
G1 X92.154 Y135.007 E17.99388
G1 X92.207 Y135.680 E18.01845
G1 X92.366 Y136.343 E18.04326
G1 X92.627 Y136.973 E18.06807
G1 X92.983 Y137.555 E18.09288
G1 X93.426 Y138.074 E18.11770
G1 X93.662 Y138.274 E18.12895
G1 X93.945 Y138.517 E18.14251
G1 X94.527 Y138.873 E18.16732
G1 X95.157 Y139.134 E18.19214
G1 X95.820 Y139.293 E18.21695
G1 X96.493 Y139.346 E18.24151
G1 X103.507 Y139.346 E18.49666
G1 X104.180 Y139.293 E18.52122
G1 X104.843 Y139.134 E18.54604
G1 X105.473 Y138.873 E18.57085
G1 X106.055 Y138.517 E18.59566
G1 X106.574 Y138.074 E18.62047
G1 X107.017 Y137.555 E18.64529
G1 X107.373 Y136.973 E18.67010
G1 X107.634 Y136.343 E18.69491
G1 X107.793 Y135.680 E18.71973
G1 X107.846 Y135.007 E18.74429
G1 X107.846 Y122.527 E19.19829
G1 X107.902 Y122.351 E19.20501
G1 X108.043 Y122.231 E19.21173
G1 X108.500 Y122.182 E19.22846
G1 X108.957 Y122.231 E19.24518
G1 X109.098 Y122.351 E19.25191
G1 X109.138 Y122.477 E19.25672
G1 X108.870 Y122.732 F7800.000
G1 X108.621 Y122.716 F7800.000
G1 X108.500 Y122.837 E19.26050 F924.009
G1 X108.500 Y134.967 E19.52849
G1 X108.438 Y135.782 E19.54654
G1 X108.255 Y136.545 E19.56388
G1 X107.955 Y137.270 E19.58121
G1 X107.733 Y137.632 E19.59058
G1 X107.545 Y137.939 E19.59854
G1 X107.035 Y138.535 E19.61587
G1 X106.439 Y139.045 E19.63321
G1 X105.770 Y139.455 E19.65054
G1 X105.045 Y139.755 E19.66787
G1 X104.282 Y139.938 E19.68521
G1 X103.537 Y139.997 E19.70171
G1 X96.533 Y140.000 E19.85646
G1 X95.718 Y139.938 E19.87452
G1 X94.955 Y139.755 E19.89185
G1 X94.230 Y139.455 E19.90918
G1 X93.561 Y139.045 E19.92651
G1 X92.965 Y138.535 E19.94385
G1 X92.455 Y137.939 E19.96118
G1 X92.045 Y137.270 E19.97851
G1 X91.745 Y136.545 E19.99585
G1 X91.562 Y135.782 E20.01318
G1 X91.500 Y134.967 E20.03123
G1 X91.502 Y104.973 E20.69389
G1 X91.562 Y104.218 E20.71062
G1 X91.742 Y103.465 E20.72773
G1 X92.041 Y102.739 E20.74506
G1 X92.455 Y102.061 E20.76261
G1 X92.965 Y101.465 E20.77994
G1 X93.561 Y100.955 E20.79728
G1 X94.230 Y100.545 E20.81461
G1 X94.955 Y100.245 E20.83194
G1 X95.718 Y100.062 E20.84928
G1 X96.533 Y100.000 E20.86733
G1 X103.467 Y100.000 E21.02053
G1 X104.282 Y100.062 E21.03859
G1 X105.054 Y100.249 E21.05614
G1 X105.770 Y100.545 E21.07325
G1 X106.430 Y100.950 E21.09036
G1 X107.035 Y101.465 E21.10791
G1 X107.545 Y102.061 E21.12525
G1 X107.955 Y102.730 E21.14258
G1 X108.255 Y103.455 E21.15991
G1 X108.439 Y104.228 E21.17746
G1 X108.500 Y105.033 E21.19529
G1 X108.500 Y117.292 E21.46614
G1 F1800.000 E16.96614
G92 E0
G1 X92.533 Y107.303 F7800.000
G1 E4.50000 F1800.000
G1 X92.651 Y106.841 E4.51735 F970.209
G1 X93.027 Y106.301 E4.54130
G1 X93.566 Y105.717 E4.57021
G1 X94.028 Y105.332 E4.59209
G1 X94.612 Y104.951 E4.61747
G1 X94.918 Y104.788 E4.63006
G1 X95.243 Y104.645 E4.64296
G1 X95.683 Y104.485 E4.66000
G1 X96.485 Y104.300 E4.68994
G1 X97.295 Y104.236 E4.71949
G1 X102.700 Y104.236 E4.91614
G1 X103.405 Y104.283 E4.94184
G1 X104.093 Y104.421 E4.96736
G1 X104.759 Y104.640 E4.99286
G1 X105.453 Y104.983 E5.02101
G1 X106.111 Y105.438 E5.05013
G1 X106.500 Y105.787 E5.06915
G1 X106.725 Y106.018 E5.08087
G1 X106.967 Y106.305 E5.09455
G1 X107.345 Y106.846 E5.11855
G1 X107.467 Y107.310 E5.13601
G1 F1800.000 E0.63601
G92 E0
G1 X107.467 Y132.696 F7800.000
G1 E4.50000 F1800.000
G1 X107.349 Y133.159 E4.51736 F970.209
G1 X106.973 Y133.699 E4.54130
G1 X106.434 Y134.283 E4.57022
G1 X105.972 Y134.668 E4.59210
G1 X105.387 Y135.049 E4.61748
G1 X105.082 Y135.212 E4.63007
G1 X104.757 Y135.355 E4.64298
G1 X104.317 Y135.514 E4.66001
G1 X103.515 Y135.700 E4.68996
G1 X102.705 Y135.764 E4.71951
G1 X97.299 Y135.764 E4.91616
G1 X96.597 Y135.717 E4.94175
G1 X95.913 Y135.580 E4.96716
G1 X95.249 Y135.363 E4.99256
G1 X94.547 Y135.017 E5.02102
G1 X93.889 Y134.562 E5.05014
G1 X93.504 Y134.217 E5.06894
G1 X93.275 Y133.983 E5.08088
G1 X93.034 Y133.697 E5.09444
G1 X92.655 Y133.154 E5.11855
G1 X92.533 Y132.690 E5.13601
G1 F1800.000 E0.63601
G92 E0
G1 Z0.850 F7800.000
G1 X108.920 Y122.525 F7800.000
G1 E4.50000 F1800.000
G1 X108.920 Y134.979 E4.95307 F1387.732
G1 X108.852 Y135.848 E4.98475
G1 X108.653 Y136.674 E5.01569
G1 X108.328 Y137.460 E5.04662
G1 X107.884 Y138.185 E5.07755
G1 X107.332 Y138.832 E5.10848
G1 X106.685 Y139.384 E5.13941
G1 X105.960 Y139.828 E5.17035
G1 X105.174 Y140.153 E5.20128
G1 X104.348 Y140.352 E5.23221
G1 X103.479 Y140.420 E5.26389
G1 X96.521 Y140.420 E5.51704
G1 X95.652 Y140.352 E5.54873
G1 X94.826 Y140.153 E5.57966
G1 X94.247 Y139.914 E5.60246
G1 X94.040 Y139.828 E5.61059
G1 X93.315 Y139.384 E5.64152
G1 X92.668 Y138.832 E5.67245
G1 X92.261 Y138.355 E5.69525
G1 X92.116 Y138.185 E5.70339
